; G-Code generated by Simplify3D(R) Version 4.0.0
; Jan 6, 2018 at 11:12:05 AM
; Settings Summary
;   processName,Con Soporte
;   applyToModels,Cadera Top,Tapa Engranajes
;   profileName,Gusty (modified)
;   profileVersion,2017-03-01 08:00:00
;   baseProfile,Default (modified)
;   printMaterial,PLA
;   printQuality,Medium
;   printExtruders,
;   extruderName,Primary Extruder
;   extruderToolheadNumber,0
;   extruderDiameter,0.4
;   extruderAutoWidth,1
;   extruderWidth,0.48
;   extrusionMultiplier,0.98
;   extruderUseRetract,1
;   extruderRetractionDistance,1
;   extruderExtraRestartDistance,0
;   extruderRetractionZLift,0
;   extruderRetractionSpeed,1800
;   extruderUseCoasting,0
;   extruderCoastingDistance,0.2
;   extruderUseWipe,0
;   extruderWipeDistance,5
;   primaryExtruder,0
;   layerHeight,0.15
;   topSolidLayers,4
;   bottomSolidLayers,3
;   perimeterOutlines,2
;   printPerimetersInsideOut,1
;   startPointOption,2
;   startPointOriginX,0
;   startPointOriginY,0
;   sequentialIslands,0
;   spiralVaseMode,0
;   firstLayerHeightPercentage,90
;   firstLayerWidthPercentage,100
;   firstLayerUnderspeed,0.5
;   useRaft,0
;   raftExtruder,0
;   raftTopLayers,3
;   raftBaseLayers,2
;   raftOffset,3
;   raftSeparationDistance,0.14
;   raftTopInfill,100
;   aboveRaftSpeedMultiplier,0.3
;   useSkirt,1
;   skirtExtruder,0
;   skirtLayers,1
;   skirtOutlines,2
;   skirtOffset,4
;   usePrimePillar,0
;   primePillarExtruder,999
;   primePillarWidth,12
;   primePillarLocation,7
;   primePillarSpeedMultiplier,1
;   useOozeShield,0
;   oozeShieldExtruder,999
;   oozeShieldOffset,2
;   oozeShieldOutlines,1
;   oozeShieldSidewallShape,1
;   oozeShieldSidewallAngle,30
;   oozeShieldSpeedMultiplier,1
;   infillExtruder,0
;   internalInfillPattern,Rectilinear
;   externalInfillPattern,Rectilinear
;   infillPercentage,15
;   outlineOverlapPercentage,15
;   infillExtrusionWidthPercentage,100
;   minInfillLength,5
;   infillLayerInterval,1
;   internalInfillAngles,45,-45
;   overlapInternalInfillAngles,0
;   externalInfillAngles,45,-45
;   generateSupport,1
;   supportExtruder,0
;   supportInfillPercentage,30
;   supportExtraInflation,0
;   supportBaseLayers,0
;   denseSupportExtruder,0
;   denseSupportLayers,0
;   denseSupportInfillPercentage,70
;   supportLayerInterval,1
;   supportHorizontalPartOffset,0.3
;   supportUpperSeparationLayers,1
;   supportLowerSeparationLayers,1
;   supportType,0
;   supportGridSpacing,4
;   maxOverhangAngle,45
;   supportAngles,0
;   temperatureName,Primary Extruder,Cama
;   temperatureNumber,0,1
;   temperatureSetpointCount,1,1
;   temperatureSetpointLayers,1,1
;   temperatureSetpointTemperatures,190,60
;   temperatureStabilizeAtStartup,1,1
;   temperatureHeatedBed,0,1
;   temperatureRelayBetweenLayers,0,0
;   temperatureRelayBetweenLoops,1,1
;   fanLayers,1,2
;   fanSpeeds,0,100
;   blipFanToFullPower,0
;   adjustSpeedForCooling,1
;   minSpeedLayerTime,15
;   minCoolingSpeedSlowdown,20
;   increaseFanForCooling,0
;   minFanLayerTime,45
;   maxCoolingFanSpeed,100
;   increaseFanForBridging,0
;   bridgingFanSpeed,100
;   use5D,1
;   relativeEdistances,0
;   allowEaxisZeroing,1
;   independentExtruderAxes,0
;   includeM10123,0
;   stickySupport,1
;   applyToolheadOffsets,0
;   gcodeXoffset,0
;   gcodeYoffset,0
;   gcodeZoffset,0
;   overrideMachineDefinition,0
;   machineTypeOverride,0
;   strokeXoverride,200
;   strokeYoverride,200
;   strokeZoverride,200
;   originOffsetXoverride,0
;   originOffsetYoverride,0
;   originOffsetZoverride,0
;   homeXdirOverride,-1
;   homeYdirOverride,-1
;   homeZdirOverride,-1
;   flipXoverride,1
;   flipYoverride,-1
;   flipZoverride,1
;   toolheadOffsets,0,0|0,0|0,0|0,0|0,0|0,0
;   overrideFirmwareConfiguration,0
;   firmwareTypeOverride,RepRap (Marlin/Repetier/Sprinter)
;   GPXconfigOverride,r2
;   baudRateOverride,115200
;   overridePrinterModels,0
;   printerModelsOverride
;   startingGcode,G28 ; home all axes
;   layerChangeGcode,
;   retractionGcode,
;   toolChangeGcode,
;   endingGcode,G28 X; Home X,M104 S0 ; turn off extruder,M140 S0 ; turn off bed,M84 ; disable motors
;   exportFileFormat,gcode
;   celebration,0
;   celebrationSong,Random Song
;   postProcessing,
;   defaultSpeed,3600
;   outlineUnderspeed,0.5
;   solidInfillUnderspeed,0.8
;   supportUnderspeed,0.8
;   rapidXYspeed,4800
;   rapidZspeed,1000
;   minBridgingArea,50
;   bridgingExtraInflation,0
;   bridgingExtrusionMultiplier,1
;   bridgingSpeedMultiplier,1.1
;   useFixedBridgingAngle,0
;   fixedBridgingAngle,0
;   applyBridgingToPerimeters,0
;   filamentDiameters,1.75|1.75|1.75|1.75|1.75|1.75
;   filamentPricesPerKg,190|46|46|46|46|46
;   filamentDensities,1.25|1.25|1.25|1.25|1.25|1.25
;   useMinPrintHeight,0
;   minPrintHeight,0
;   useMaxPrintHeight,0
;   maxPrintHeight,0
;   useDiaphragm,0
;   diaphragmLayerInterval,20
;   robustSlicing,1
;   mergeAllIntoSolid,0
;   onlyRetractWhenCrossingOutline,1
;   retractBetweenLayers,1
;   useRetractionMinTravel,0
;   retractionMinTravel,3
;   retractWhileWiping,0
;   onlyWipeOutlines,1
;   avoidCrossingOutline,0
;   maxMovementDetourFactor,3
;   toolChangeRetractionDistance,12
;   toolChangeExtraRestartDistance,-0.5
;   toolChangeRetractionSpeed,600
;   externalThinWallType,0
;   internalThinWallType,2
;   thinWallAllowedOverlapPercentage,10
;   singleExtrusionMinLength,1
;   singleExtrusionMinPrintingWidthPercentage,50
;   singleExtrusionMaxPrintingWidthPercentage,200
;   singleExtrusionEndpointExtension,0.2
;   horizontalSizeCompensation,0
G90
M82
M106 S0
M140 S60
M190 S60
M104 S190 T0
M109 S190 T0
G28 ; home all axes
G92 E0
G1 E-1.0000 F1800
G1 Z0.135 F1000
; process Con Soporte
; layer 1, Z = 0.135
T0
; tool H0.150 W0.480
; skirt
G1 X47.435 Y53.890 F4800
G1 E0.0000 F540
G92 E0
G1 X47.700 Y53.780 E0.0084 F1800
G1 X60.625 Y53.780 E0.3876
G1 X60.735 Y53.670 E0.3921
G1 X61.000 Y53.560 E0.4005
G1 X90.500 Y53.560 E1.2659
G1 X90.765 Y53.670 E1.2743
G1 X90.875 Y53.780 E1.2789
G1 X92.205 Y53.780 E1.3179
G1 X92.205 Y51.700 E1.3789
G1 X92.314 Y51.435 E1.3873
G1 X94.860 Y48.890 E1.4930
G1 X95.124 Y48.780 E1.5014
G1 X104.876 Y48.780 E1.7874
G1 X105.140 Y48.890 E1.7958
G1 X107.686 Y51.435 E1.9014
G1 X107.795 Y51.700 E1.9098
G1 X107.795 Y53.780 E1.9709
G1 X109.125 Y53.780 E2.0099
G1 X109.235 Y53.670 E2.0144
G1 X109.500 Y53.560 E2.0228
G1 X139.000 Y53.560 E2.8882
G1 X139.265 Y53.670 E2.8966
G1 X139.375 Y53.780 E2.9012
G1 X152.300 Y53.780 E3.2804
G1 X152.565 Y53.890 E3.2888
G1 X155.110 Y56.435 E3.3944
G1 X155.220 Y56.700 E3.4028
G1 X155.220 Y73.300 E3.8898
G1 X155.110 Y73.565 E3.8982
G1 X154.940 Y73.735 E3.9052
G1 X154.940 Y113.265 E5.0649
G1 X155.110 Y113.435 E5.0719
G1 X155.220 Y113.700 E5.0803
G1 X155.220 Y130.300 E5.5673
G1 X155.110 Y130.565 E5.5757
G1 X152.565 Y133.110 E5.6813
G1 X152.300 Y133.220 E5.6897
G1 X142.395 Y133.220 E5.9803
G1 X140.285 Y135.330 E6.0678
G1 X140.020 Y135.440 E6.0762
G1 X107.980 Y135.440 E7.0162
G1 X107.715 Y135.330 E7.0246
G1 X106.818 Y134.433 E7.0618
G1 X105.140 Y136.110 E7.1314
G1 X104.876 Y136.220 E7.1398
G1 X95.124 Y136.220 E7.4258
G1 X94.860 Y136.110 E7.4343
G1 X93.182 Y134.433 E7.5038
G1 X92.285 Y135.330 E7.5411
G1 X92.020 Y135.440 E7.5495
G1 X89.220 Y135.440 E7.6316
G1 X89.220 Y148.300 E8.0089
G1 X89.110 Y148.565 E8.0173
G1 X86.565 Y151.110 E8.1229
G1 X86.300 Y151.220 E8.1313
G1 X47.700 Y151.220 E9.2637
G1 X47.435 Y151.110 E9.2721
G1 X44.890 Y148.565 E9.3777
G1 X44.780 Y148.300 E9.3861
G1 X44.780 Y134.700 E9.7850
G1 X44.890 Y134.435 E9.7934
G1 X46.825 Y132.500 E9.8737
G1 X44.890 Y130.565 E9.9540
G1 X44.780 Y130.300 E9.9624
G1 X44.780 Y113.700 E10.4494
G1 X44.890 Y113.435 E10.4578
G1 X45.060 Y113.265 E10.4649
G1 X45.060 Y73.735 E11.6245
G1 X44.890 Y73.565 E11.6316
G1 X44.780 Y73.300 E11.6400
G1 X44.780 Y56.700 E12.1269
G1 X44.890 Y56.435 E12.1353
G1 X47.435 Y53.890 E12.2409
G1 X47.707 Y54.297 F4800
G92 E0
G1 X47.795 Y54.260 E0.0028 F1800
G1 X60.824 Y54.260 E0.3850
G1 X61.007 Y54.077 E0.3926
G1 X61.095 Y54.040 E0.3954
G1 X90.405 Y54.040 E1.2552
G1 X90.493 Y54.077 E1.2580
G1 X90.676 Y54.260 E1.2656
G1 X92.685 Y54.260 E1.3245
G1 X92.685 Y51.795 E1.3968
G1 X92.721 Y51.707 E1.3996
G1 X95.132 Y49.297 E1.4996
G1 X95.220 Y49.260 E1.5024
G1 X104.780 Y49.260 E1.7829
G1 X104.868 Y49.297 E1.7857
G1 X107.279 Y51.707 E1.8857
G1 X107.315 Y51.795 E1.8885
G1 X107.315 Y54.260 E1.9608
G1 X109.324 Y54.260 E2.0197
G1 X109.507 Y54.077 E2.0273
G1 X109.595 Y54.040 E2.0301
G1 X138.905 Y54.040 E2.8899
G1 X138.993 Y54.077 E2.8927
G1 X139.176 Y54.260 E2.9003
G1 X152.205 Y54.260 E3.2825
G1 X152.293 Y54.297 E3.2853
G1 X154.703 Y56.707 E3.3853
G1 X154.740 Y56.795 E3.3881
G1 X154.740 Y73.205 E3.8695
G1 X154.703 Y73.293 E3.8723
G1 X154.460 Y73.536 E3.8824
G1 X154.460 Y113.464 E5.0537
G1 X154.703 Y113.707 E5.0638
G1 X154.740 Y113.795 E5.0666
G1 X154.740 Y130.205 E5.5480
G1 X154.703 Y130.293 E5.5508
G1 X152.293 Y132.703 E5.6508
G1 X152.205 Y132.740 E5.6536
G1 X142.196 Y132.740 E5.9472
G1 X140.013 Y134.923 E6.0378
G1 X139.925 Y134.960 E6.0406
G1 X108.075 Y134.960 E6.9749
G1 X107.987 Y134.923 E6.9777
G1 X106.818 Y133.754 E7.0262
G1 X104.868 Y135.703 E7.1071
G1 X104.780 Y135.740 E7.1099
G1 X95.220 Y135.740 E7.3903
G1 X95.132 Y135.703 E7.3931
G1 X93.182 Y133.754 E7.4740
G1 X92.013 Y134.923 E7.5225
G1 X91.925 Y134.960 E7.5253
G1 X88.740 Y134.960 E7.6187
G1 X88.740 Y148.205 E8.0073
G1 X88.703 Y148.293 E8.0101
G1 X86.293 Y150.703 E8.1101
G1 X86.205 Y150.740 E8.1129
G1 X47.795 Y150.740 E9.2396
G1 X47.707 Y150.703 E9.2424
G1 X45.297 Y148.293 E9.3424
G1 X45.260 Y148.205 E9.3453
G1 X45.260 Y134.795 E9.7386
G1 X45.297 Y134.707 E9.7414
G1 X47.504 Y132.500 E9.8330
G1 X45.297 Y130.293 E9.9246
G1 X45.260 Y130.205 E9.9274
G1 X45.260 Y113.795 E10.4087
G1 X45.297 Y113.707 E10.4115
G1 X45.540 Y113.464 E10.4216
G1 X45.540 Y73.536 E11.5929
G1 X45.297 Y73.293 E11.6030
G1 X45.260 Y73.205 E11.6058
G1 X45.260 Y56.795 E12.0872
G1 X45.297 Y56.707 E12.0900
G1 X47.707 Y54.297 E12.1900
G92 E0
G1 E-1.0000 F1800
; inner perimeter
G1 X50.220 Y59.220 F4800
G1 E0.0000 F1800
G92 E0
G1 X61.780 Y59.220 E0.3391 F1350
G1 X61.780 Y60.780 E0.3849
G1 X51.780 Y60.780 E0.6782
G1 X51.780 Y70.780 E0.9716
G1 X50.220 Y70.780 E1.0174
G1 X50.220 Y59.220 E1.3565
; outer perimeter
G1 X49.740 Y58.740 F4800
G92 E0
G1 X62.260 Y58.740 E0.3673 F900
G1 X62.260 Y61.260 E0.4412
G1 X52.260 Y61.260 E0.7346
G1 X52.260 Y71.260 E1.0279
G1 X49.740 Y71.260 E1.1018
G1 X49.740 Y58.740 E1.4691
; solid layer
G1 X60.986 Y59.628 F4800
G92 E0
G1 X61.372 Y60.014 E0.0160 F1440
G1 X61.372 Y60.372 E0.0265
G1 X61.051 Y60.372 E0.0359
G1 X60.307 Y59.628 E0.0668
G1 X59.628 Y59.628 E0.0867
G1 X60.372 Y60.372 E0.1176
G1 X59.693 Y60.372 E0.1375
G1 X58.949 Y59.628 E0.1684
G1 X58.270 Y59.628 E0.1883
G1 X59.014 Y60.372 E0.2191
G1 X58.336 Y60.372 E0.2391
G1 X57.592 Y59.628 E0.2699
G1 X56.913 Y59.628 E0.2898
G1 X57.657 Y60.372 E0.3207
G1 X56.978 Y60.372 E0.3406
G1 X56.234 Y59.628 E0.3715
G1 X55.555 Y59.628 E0.3914
G1 X56.299 Y60.372 E0.4223
G1 X55.620 Y60.372 E0.4422
G1 X54.876 Y59.628 E0.4730
G1 X54.197 Y59.628 E0.4930
G1 X54.941 Y60.372 E0.5238
G1 X54.263 Y60.372 E0.5437
G1 X53.519 Y59.628 E0.5746
G1 X52.840 Y59.628 E0.5945
G1 X53.584 Y60.372 E0.6254
G1 X52.905 Y60.372 E0.6453
G1 X52.161 Y59.628 E0.6762
G1 X51.482 Y59.628 E0.6961
G1 X52.226 Y60.372 E0.7269
G1 X51.547 Y60.372 E0.7469
G1 X50.803 Y59.628 E0.7777
G1 X50.628 Y59.628 E0.7829
G1 X50.628 Y60.132 E0.7976
G1 X51.372 Y60.876 E0.8285
G1 X51.372 Y61.554 E0.8484
G1 X50.628 Y60.810 E0.8793
G1 X50.628 Y61.489 E0.8992
G1 X51.372 Y62.233 E0.9301
G1 X51.372 Y62.912 E0.9500
G1 X50.628 Y62.168 E0.9808
G1 X50.628 Y62.847 E1.0008
G1 X51.372 Y63.591 E1.0316
G1 X51.372 Y64.270 E1.0515
G1 X50.628 Y63.526 E1.0824
G1 X50.628 Y64.204 E1.1023
G1 X51.372 Y64.948 E1.1332
G1 X51.372 Y65.627 E1.1531
G1 X50.628 Y64.883 E1.1840
G1 X50.628 Y65.562 E1.2039
G1 X51.372 Y66.306 E1.2347
G1 X51.372 Y66.985 E1.2547
G1 X50.628 Y66.241 E1.2855
G1 X50.628 Y66.920 E1.3054
G1 X51.372 Y67.664 E1.3363
G1 X51.372 Y68.343 E1.3562
G1 X50.628 Y67.599 E1.3871
G1 X50.628 Y68.277 E1.4070
G1 X51.372 Y69.021 E1.4379
G1 X51.372 Y69.700 E1.4578
G1 X50.628 Y68.956 E1.4886
G1 X50.628 Y69.635 E1.5085
G1 X51.365 Y70.372 E1.5391
G1 X50.686 Y70.372 E1.5590
G1 X50.628 Y70.314 E1.5615
G92 E0
G1 E-1.0000 F1800
; inner perimeter
G1 X89.720 Y63.780 F4800
G1 E0.0000 F1800
G92 E0
G1 X89.720 Y59.220 E0.1338 F1350
G1 X97.645 Y59.220 E0.3662
G1 X97.645 Y54.220 E0.5129
G1 X102.355 Y54.220 E0.6511
G1 X102.355 Y59.220 E0.7978
G1 X110.280 Y59.220 E1.0303
G1 X110.280 Y63.780 E1.1640
G1 X89.720 Y63.780 E1.7672
; outer perimeter
G1 X89.240 Y64.260 F4800
G92 E0
G1 X89.240 Y58.740 E0.1619 F900
G1 X97.165 Y58.740 E0.3944
G1 X97.165 Y53.740 E0.5411
G1 X102.835 Y53.740 E0.7074
G1 X102.835 Y58.740 E0.8541
G1 X110.760 Y58.740 E1.0866
G1 X110.760 Y64.260 E1.2485
G1 X89.240 Y64.260 E1.8798
; solid layer
G1 X90.525 Y63.372 F4800
G92 E0
G1 X90.128 Y62.975 E0.0165 F1440
G1 X90.128 Y62.296 E0.0364
G1 X91.204 Y63.372 E0.0810
G1 X91.883 Y63.372 E0.1009
G1 X90.128 Y61.617 E0.1737
G1 X90.128 Y60.939 E0.1936
G1 X92.561 Y63.372 E0.2946
G1 X93.240 Y63.372 E0.3145
G1 X90.128 Y60.260 E0.4436
G1 X90.128 Y59.628 E0.4621
G1 X90.175 Y59.628 E0.4635
G1 X93.919 Y63.372 E0.6188
G1 X94.598 Y63.372 E0.6388
G1 X90.854 Y59.628 E0.7941
G1 X91.533 Y59.628 E0.8140
G1 X95.277 Y63.372 E0.9693
G1 X95.955 Y63.372 E0.9892
G1 X92.211 Y59.628 E1.1446
G1 X92.890 Y59.628 E1.1645
G1 X96.634 Y63.372 E1.3198
G1 X97.313 Y63.372 E1.3397
G1 X93.569 Y59.628 E1.4950
G1 X94.248 Y59.628 E1.5150
G1 X97.992 Y63.372 E1.6703
G1 X98.671 Y63.372 E1.6902
G1 X94.927 Y59.628 E1.8455
G1 X95.606 Y59.628 E1.8654
G1 X99.350 Y63.372 E2.0208
G1 X100.028 Y63.372 E2.0407
G1 X96.284 Y59.628 E2.1960
G1 X96.963 Y59.628 E2.2159
G1 X100.707 Y63.372 E2.3712
G1 X101.386 Y63.372 E2.3912
G1 X97.642 Y59.628 E2.5465
G1 X98.053 Y59.628 E2.5585
G1 X98.053 Y59.360 E2.5664
G1 X102.065 Y63.372 E2.7329
G1 X102.744 Y63.372 E2.7528
G1 X98.053 Y58.681 E2.9474
G1 X98.053 Y58.002 E2.9673
G1 X103.423 Y63.372 E3.1901
G1 X104.101 Y63.372 E3.2100
G1 X98.053 Y57.323 E3.4609
G1 X98.053 Y56.644 E3.4809
G1 X104.780 Y63.372 E3.7600
G1 X105.459 Y63.372 E3.7799
G1 X98.053 Y55.966 E4.0872
G1 X101.467 Y54.628 F4800
G92 E0
G1 X101.947 Y55.109 E0.0199 F1440
G1 X101.947 Y55.788 E0.0399
G1 X100.788 Y54.628 E0.0880
G1 X100.109 Y54.628 E0.1079
G1 X101.947 Y56.466 E0.1841
G1 X101.947 Y57.145 E0.2041
G1 X99.430 Y54.628 E0.3085
G1 X98.751 Y54.628 E0.3284
G1 X101.947 Y57.824 E0.4610
G1 X101.947 Y58.503 E0.4809
G1 X98.073 Y54.628 E0.6417
G1 X98.053 Y54.628 E0.6422
G1 X98.053 Y55.287 E0.6616
G1 X101.947 Y59.182 E0.8232
G1 X101.947 Y59.628 E0.8363
G1 X102.394 Y59.628 E0.8493
G1 X106.138 Y63.372 E1.0047
G1 X106.817 Y63.372 E1.0246
G1 X103.073 Y59.628 E1.1799
G1 X103.751 Y59.628 E1.1998
G1 X107.495 Y63.372 E1.3552
G1 X108.174 Y63.372 E1.3751
G1 X104.430 Y59.628 E1.5304
G1 X105.109 Y59.628 E1.5503
G1 X108.853 Y63.372 E1.7056
G1 X109.532 Y63.372 E1.7255
G1 X105.788 Y59.628 E1.8809
G1 X106.467 Y59.628 E1.9008
G1 X109.872 Y63.033 E2.0421
G1 X109.872 Y62.354 E2.0620
G1 X107.146 Y59.628 E2.1751
G1 X107.824 Y59.628 E2.1950
G1 X109.872 Y61.676 E2.2799
G1 X109.872 Y60.997 E2.2999
G1 X108.503 Y59.628 E2.3566
G1 X109.182 Y59.628 E2.3766
G1 X109.872 Y60.318 E2.4052
G1 X109.872 Y59.639 E2.4251
G1 X109.861 Y59.628 E2.4255
G92 E0
G1 E-1.0000 F1800
; inner perimeter
G1 X138.220 Y59.220 F4800
G1 E0.0000 F1800
G92 E0
G1 X149.780 Y59.220 E0.3391 F1350
G1 X149.780 Y70.780 E0.6782
G1 X148.220 Y70.780 E0.7240
G1 X148.220 Y60.780 E1.0174
G1 X138.220 Y60.780 E1.3107
G1 X138.220 Y59.220 E1.3565
; outer perimeter
G1 X137.740 Y58.740 F4800
G92 E0
G1 X150.260 Y58.740 E0.3673 F900
G1 X150.260 Y71.260 E0.7346
G1 X147.740 Y71.260 E0.8085
G1 X147.740 Y61.260 E1.1018
G1 X137.740 Y61.260 E1.3952
G1 X137.740 Y58.740 E1.4691
; solid layer
G1 X139.115 Y60.372 F4800
G92 E0
G1 X138.628 Y59.885 E0.0202 F1440
G1 X138.628 Y59.628 E0.0277
G1 X139.050 Y59.628 E0.0401
G1 X139.794 Y60.372 E0.0710
G1 X140.473 Y60.372 E0.0909
G1 X139.729 Y59.628 E0.1218
G1 X140.408 Y59.628 E0.1417
G1 X141.152 Y60.372 E0.1726
