; generated by Slic3r 1.2.9 on 2017-11-16 at 19:57:45

; external perimeters extrusion width = 0.40mm
; perimeters extrusion width = 0.67mm
; infill extrusion width = 0.67mm
; solid infill extrusion width = 0.67mm
; top infill extrusion width = 0.67mm
; support material extrusion width = 0.40mm

M107
M190 S60 ; set bed temperature
M104 S200 ; set temperature
G28 ; home all axes
G1 Z5 F5000 ; lift nozzle

M109 S200 ; wait for temperature to be reached
G21 ; set units to millimeters
G90 ; use absolute coordinates
M82 ; use absolute distances for extrusion
G92 E0
G1 Z0.200 F7800.000
G1 E-3.00000 F2400.00000
G92 E0
G1 Z1.200 F7800.000
G1 X44.900 Y60.228 F7800.000
G1 Z0.200 F7800.000
G1 E3.00000 F2400.00000
G1 X46.802 Y58.945 E3.11746 F3600.000
G1 X48.750 Y58.414 E3.22083
G1 X62.043 Y56.901 E3.90580
G1 X96.214 Y53.406 E5.66449
G1 X96.888 Y53.372 E5.69906
G1 X103.112 Y53.372 E6.01771
G1 X103.792 Y53.407 E6.05257
G1 X137.689 Y56.902 E7.79731 F3600.000
G1 X151.235 Y58.413 E8.49516
G1 X153.436 Y59.058 E8.61261
G1 X155.286 Y60.414 E8.73007
G1 X156.563 Y62.321 E8.84752
G1 X157.089 Y64.278 E8.95131
G1 X158.546 Y77.577 E9.63627
G1 X158.585 Y78.299 E9.67329
G1 X158.585 Y121.332 E11.87662
G1 X158.548 Y122.035 E11.91265
G1 X157.091 Y135.703 E12.61640
G1 X156.457 Y137.907 E12.73385
G1 X155.109 Y139.764 E12.85131
G1 X153.209 Y141.049 E12.96876
G1 X151.243 Y141.587 E13.07310
G1 X137.906 Y143.091 E13.76029
G1 X103.789 Y146.594 E15.51629
G1 X103.112 Y146.628 E15.55099
G1 X96.888 Y146.628 E15.86964
G1 X96.211 Y146.594 E15.90437
G1 X62.194 Y143.099 E17.65522
G1 X48.759 Y141.587 E18.34743
G1 X46.558 Y140.940 E18.46488
G1 X44.709 Y139.581 E18.58234
G1 X43.435 Y137.674 E18.69979
G1 X42.910 Y135.709 E18.80389
G1 X41.453 Y122.172 E19.50101
G1 X41.415 Y121.462 E19.53738
G1 X41.415 Y78.429 E21.74071
G1 X41.453 Y77.714 E21.77738
G1 X42.910 Y64.285 E22.46896
G1 X43.549 Y62.082 E22.58642
G1 X44.865 Y60.276 E22.70080
G1 E19.70080 F2400.00000
G92 E0
G1 Z1.200 F7800.000
G1 X91.015 Y130.321 F7800.000
G1 Z0.200 F7800.000
G1 E3.00000 F2400.00000
G1 X109.679 Y130.321 E3.95560 F3600.000
G1 X109.679 Y133.679 E4.12753
G1 X101.791 Y133.679 E4.53140 F3600.000
G1 X101.791 Y138.679 E4.78740
G1 X98.209 Y138.679 E4.97078
G1 X98.209 Y133.679 E5.22678
G1 X90.321 Y133.679 E5.63066
G1 X90.321 Y130.321 E5.80259
G1 X90.955 Y130.321 E5.83504
G1 X90.955 Y129.693 F7800.000
G1 X110.307 Y129.693 E6.82588 F3600.000
G1 X110.307 Y134.307 E7.06215
G1 X102.419 Y134.307 E7.46603 F3600.000
G1 X102.419 Y139.307 E7.72203
G1 X97.581 Y139.307 E7.96975
G1 X97.581 Y134.307 E8.22575
G1 X89.693 Y134.307 E8.62962
G1 X89.693 Y129.693 E8.86589
G1 X90.895 Y129.693 E8.92745
G1 X90.895 Y129.200 F7800.000
G1 X110.800 Y129.200 E9.50663 F3600.000
G1 X110.800 Y134.800 E9.66958
G1 X102.912 Y134.800 E9.89910 F3600.000
G1 X102.912 Y139.800 E10.04459
G1 X97.088 Y139.800 E10.21405
G1 X97.088 Y134.800 E10.35953
G1 X89.200 Y134.800 E10.58906
G1 X89.200 Y129.200 E10.75201
G1 X90.835 Y129.200 E10.79958
G1 X91.095 Y129.546 F7800.000
G1 X90.450 Y133.243 F7800.000
G1 X90.757 Y133.550 E10.82204 F3600.000
G1 X91.656 Y133.550 E10.86865
G1 X90.450 Y132.344 E10.95703
G1 X90.450 Y131.444 E11.00364
G1 X92.556 Y133.550 E11.15793
G1 X93.455 Y133.550 E11.20454
G1 X90.450 Y130.545 E11.42475
G1 X91.255 Y130.450 E11.46675
G1 X94.355 Y133.550 E11.69388
G1 X95.254 Y133.550 E11.74049
G1 X92.155 Y130.450 E11.96761
G1 X93.054 Y130.450 E12.01422
G1 X96.153 Y133.550 E12.24135
G1 X97.053 Y133.550 E12.28796
G1 X93.954 Y130.450 E12.51509
G1 X94.853 Y130.450 E12.56169
G1 X97.952 Y133.550 E12.78882
G1 X98.339 Y133.936 F7800.000
G1 X101.661 Y137.259 E13.03234 F3600.000
G1 X101.661 Y136.360 E13.07895
G1 X95.752 Y130.450 E13.51201
G1 X96.652 Y130.450 E13.55862
G1 X101.661 Y135.460 E13.92577
G1 X101.661 Y134.561 E13.97238
G1 X97.551 Y130.450 E14.27362
G1 X98.450 Y130.450 E14.32022
G1 X101.661 Y133.661 E14.55555
G1 X102.449 Y133.550 E14.59677
G1 X99.350 Y130.450 E14.82390
G1 X100.249 Y130.450 E14.87051
G1 X103.348 Y133.550 E15.09763
G1 X104.248 Y133.550 E15.14424
G1 X101.149 Y130.450 E15.37137
G1 X102.048 Y130.450 E15.41798
G1 X105.147 Y133.550 E15.64510
G1 X106.046 Y133.550 E15.69171
G1 X102.947 Y130.450 E15.91884
G1 X103.847 Y130.450 E15.96545
G1 X106.946 Y133.550 E16.19258
G1 X107.845 Y133.550 E16.23918
G1 X104.746 Y130.450 E16.46631
G1 X105.645 Y130.450 E16.51292
G1 X108.745 Y133.550 E16.74005
G1 X109.550 Y133.455 E16.78205
G1 X106.545 Y130.450 E17.00226
G1 X107.444 Y130.450 E17.04886
G1 X109.550 Y132.556 E17.20316
G1 X109.550 Y131.656 E17.24977
G1 X108.344 Y130.450 E17.33815
G1 X109.243 Y130.450 E17.38476
G1 X109.550 Y130.757 E17.40723
G1 X98.339 Y134.836 F7800.000
G1 X101.661 Y138.158 E17.65074 F3600.000
G1 X101.153 Y138.550 E17.68398
G1 X98.339 Y135.735 E17.89026
G1 X98.339 Y136.634 E17.93687
G1 X100.254 Y138.550 E18.07723
G1 X99.355 Y138.550 E18.12384
G1 X98.339 Y137.534 E18.19829
G1 E15.19829 F2400.00000
G92 E0
G1 Z1.200 F7800.000
G1 X149.807 Y130.956 F7800.000
G1 Z0.200 F7800.000
G1 E3.00000 F2400.00000
G1 X149.807 Y134.307 E3.17160 F3600.000
G1 X138.193 Y134.307 E3.76627 F3600.000
G1 X138.193 Y132.693 E3.84894
G1 X148.193 Y132.693 E4.36094
G1 X148.193 Y122.693 E4.87294
G1 X149.807 Y122.693 E4.95560
G1 X149.807 Y130.896 E5.37560
G1 X150.300 Y130.896 F7800.000
G1 X150.300 Y134.800 E5.48920 F3600.000
G1 X137.700 Y134.800 E5.85583 F3600.000
G1 X137.700 Y132.200 E5.93149
G1 X147.700 Y132.200 E6.22246
G1 X147.700 Y122.200 E6.51344
G1 X150.300 Y122.200 E6.58909
G1 X150.300 Y130.836 E6.84037
G1 X149.954 Y131.096 F7800.000
G1 X149.000 Y123.007 F7800.000
G1 X149.000 Y133.007 E7.89934 F3600.000
G1 X148.915 Y133.415 E7.94352
G1 X148.507 Y133.500 E7.98771
G1 X138.507 Y133.500 E9.04668
G1 E6.04668 F2400.00000
G92 E0
G1 Z1.200 F7800.000
G1 X149.807 Y70.129 F7800.000
G1 Z0.200 F7800.000
G1 E3.00000 F2400.00000
G1 X149.807 Y77.307 E3.36752 F3600.000
G1 X148.193 Y77.307 E3.45018 F3600.000
G1 X148.193 Y67.307 E3.96218
G1 X138.193 Y67.307 E4.47418
G1 X138.193 Y65.693 E4.55685
G1 X149.807 Y65.693 E5.15152
G1 X149.807 Y70.069 E5.37560
G1 X150.300 Y70.069 F7800.000
G1 X150.300 Y77.800 E5.60055 F3600.000
G1 X147.700 Y77.800 E5.67620 F3600.000
G1 X147.700 Y67.800 E5.96717
G1 X137.700 Y67.800 E6.25815
G1 X137.700 Y65.200 E6.33380
G1 X150.300 Y65.200 E6.70043
G1 X150.300 Y70.009 E6.84037
G1 X149.954 Y70.269 F7800.000
G1 X149.000 Y76.993 F7800.000
G1 X149.000 Y66.993 E7.89934 F3600.000
G1 X148.915 Y66.585 E7.94352
G1 X148.507 Y66.500 E7.98770
G1 X138.507 Y66.500 E9.04668
G1 E6.04668 F2400.00000
G92 E0
G1 Z1.200 F7800.000
G1 X109.688 Y83.065 F7800.000
G1 Z0.200 F7800.000
G1 E3.00000 F2400.00000
G1 X109.688 Y85.679 E3.13383 F3600.000
G1 X107.321 Y85.679 E3.25501 F3600.000
G1 X107.321 Y82.321 E3.42694
G1 X109.688 Y82.321 E3.54811
G1 X109.688 Y83.005 E3.58314
G1 X110.316 Y83.005 F7800.000
G1 X110.316 Y86.307 E3.75221 F3600.000
G1 X106.693 Y86.307 E3.93773 F3600.000
G1 X106.693 Y81.693 E4.17400
G1 X110.316 Y81.693 E4.35951
G1 X110.316 Y82.945 E4.42364
G1 X110.809 Y82.945 F7800.000
G1 X110.809 Y86.800 E4.53580 F3600.000
G1 X106.200 Y86.800 E4.66991 F3600.000
G1 X106.200 Y81.200 E4.83285
G1 X110.809 Y81.200 E4.96696
G1 X110.809 Y82.885 E5.01599
G1 X110.462 Y83.145 F7800.000
G1 X109.558 Y82.757 F7800.000
G1 X109.252 Y82.450 E5.03894 F3600.000
G1 X108.333 Y82.450 E5.08758
G1 X109.558 Y83.676 E5.17932
G1 X109.558 Y84.595 E5.22796
G1 X107.452 Y82.489 E5.38563
G1 X107.450 Y83.405 E5.43417
G1 X109.556 Y85.511 E5.59184
G1 X108.676 Y85.550 E5.63850
G1 X107.450 Y84.324 E5.73024
G1 X107.450 Y85.243 E5.77888
G1 X107.757 Y85.550 E5.80183
G1 E2.80183 F2400.00000
G92 E0
G1 Z1.200 F7800.000
G1 X91.145 Y85.679 F7800.000
G1 Z0.200 F7800.000
G1 E3.00000 F2400.00000
G1 X90.312 Y85.679 E3.04264 F3600.000
G1 X90.312 Y82.321 E3.21457
G1 X92.679 Y82.321 E3.33575
G1 X92.679 Y85.679 E3.50768
G1 X91.205 Y85.679 E3.58314 F3600.000
G1 X91.205 Y86.307 F7800.000
G1 X89.684 Y86.307 E3.66102 F3600.000
G1 X89.684 Y81.693 E3.89729
G1 X93.307 Y81.693 E4.08281
G1 X93.307 Y86.307 E4.31908
G1 X91.265 Y86.307 E4.42364 F3600.000
G1 X91.265 Y86.800 F7800.000
G1 X89.191 Y86.800 E4.48398 F3600.000
G1 X89.191 Y81.200 E4.64693
G1 X93.800 Y81.200 E4.78103
G1 X93.800 Y86.800 E4.94398
G1 X91.325 Y86.800 E5.01599 F3600.000
G1 X91.065 Y86.454 F7800.000
G1 X90.748 Y85.550 F7800.000
G1 X90.442 Y85.243 E5.03894 F3600.000
G1 X90.442 Y84.324 E5.08758
G1 X91.667 Y85.550 E5.17932
G1 X92.548 Y85.511 E5.22598
G1 X90.442 Y83.405 E5.38365
G1 X90.444 Y82.489 E5.43219
G1 X92.550 Y84.595 E5.58986
G1 X92.550 Y83.676 E5.63850
G1 X91.324 Y82.450 E5.73024
G1 X92.243 Y82.450 E5.77888
G1 X92.550 Y82.757 E5.80183
G1 E2.80183 F2400.00000
G92 E0
G1 Z1.200 F7800.000
G1 X98.209 Y61.321 F7800.000
G1 Z0.200 F7800.000
G1 E3.00000 F2400.00000
G1 X101.791 Y61.321 E3.18338 F3600.000
G1 X101.791 Y66.321 E3.43938
G1 X109.679 Y66.321 E3.84325 F3600.000
G1 X109.679 Y69.679 E4.01518
G1 X90.321 Y69.679 E5.00631
G1 X90.321 Y66.321 E5.17824
G1 X98.209 Y66.321 E5.58212
G1 X98.209 Y61.381 E5.83504
G1 X97.581 Y61.381 F7800.000
G1 X97.581 Y60.693 E5.87029 F3600.000
G1 X102.419 Y60.693 E6.11800
G1 X102.419 Y65.693 E6.37400
G1 X110.307 Y65.693 E6.77788 F3600.000
G1 X110.307 Y70.307 E7.01415
G1 X89.693 Y70.307 E8.06962
G1 X89.693 Y65.693 E8.30588
G1 X97.581 Y65.693 E8.70976
G1 X97.581 Y61.441 E8.92745
G1 X97.088 Y61.441 F7800.000
G1 X97.088 Y60.200 E8.96356 F3600.000
G1 X102.912 Y60.200 E9.13301
G1 X102.912 Y65.200 E9.27850
G1 X110.800 Y65.200 E9.50802 F3600.000
G1 X110.800 Y70.800 E9.67097
G1 X89.200 Y70.800 E10.29948
G1 X89.200 Y65.200 E10.46242
G1 X97.088 Y65.200 E10.69195
G1 X97.088 Y61.501 E10.79958
G1 X97.435 Y61.241 F7800.000
G1 X98.339 Y61.842 F7800.000
G1 X101.661 Y65.164 E11.04310 F3600.000
G1 X101.661 Y64.265 E11.08970
G1 X98.847 Y61.450 E11.29599
G1 X99.746 Y61.450 E11.34259
G1 X101.661 Y63.366 E11.48296
G1 X101.661 Y62.466 E11.52957
G1 X100.645 Y61.450 E11.60402
G1 X101.661 Y66.064 F7800.000
G1 X98.339 Y62.741 E11.84754 F3600.000
G1 X98.339 Y63.640 E11.89415
G1 X104.248 Y69.550 E12.32721
G1 X103.348 Y69.550 E12.37382
G1 X98.339 Y64.540 E12.74097
G1 X98.339 Y65.439 E12.78758
G1 X102.449 Y69.550 E13.08881
G1 X101.550 Y69.550 E13.13542
G1 X98.339 Y66.339 E13.37074
G1 X97.551 Y66.450 E13.41197
G1 X100.650 Y69.550 E13.63910
G1 X99.751 Y69.550 E13.68570
G1 X96.652 Y66.450 E13.91283
G1 X95.752 Y66.450 E13.95944
G1 X98.851 Y69.550 E14.18657
G1 X97.952 Y69.550 E14.23317
G1 X94.853 Y66.450 E14.46030
G1 X93.954 Y66.450 E14.50691
G1 X97.053 Y69.550 E14.73404
G1 X96.153 Y69.550 E14.78065
G1 X93.054 Y66.450 E15.00777
G1 X92.155 Y66.450 E15.05438
G1 X95.254 Y69.550 E15.28151
G1 X94.355 Y69.550 E15.32812
G1 X91.255 Y66.450 E15.55524
G1 X90.450 Y66.545 E15.59724
G1 X93.455 Y69.550 E15.81745
G1 X92.556 Y69.550 E15.86406
G1 X90.450 Y67.444 E16.01835
G1 X90.450 Y68.344 E16.06496
G1 X91.656 Y69.550 E16.15334
G1 X90.757 Y69.550 E16.19995
G1 X90.450 Y69.243 E16.22242
G1 X102.048 Y66.450 F7800.000
G1 X105.147 Y69.550 E16.44954 F3600.000
G1 X106.046 Y69.550 E16.49615
G1 X102.947 Y66.450 E16.72328
G1 X103.847 Y66.450 E16.76989
G1 X106.946 Y69.550 E16.99701
G1 X107.845 Y69.550 E17.04362
G1 X104.746 Y66.450 E17.27075
G1 X105.645 Y66.450 E17.31736
G1 X108.745 Y69.550 E17.54449
G1 X109.550 Y69.455 E17.58649
G1 X106.545 Y66.450 E17.80670
G1 X107.444 Y66.450 E17.85330
G1 X109.550 Y68.556 E18.00760
G1 X109.550 Y67.656 E18.05421
G1 X108.344 Y66.450 E18.14259
G1 X109.243 Y66.450 E18.18920
G1 X109.550 Y66.757 E18.21167
G1 E15.21167 F2400.00000
G92 E0
G1 Z1.200 F7800.000
G1 X51.807 Y76.784 F7800.000
G1 Z0.200 F7800.000
G1 E3.00000 F2400.00000
G1 X51.807 Y77.307 E3.02678 F3600.000
G1 X50.193 Y77.307 E3.10945
G1 X50.193 Y65.693 E3.70412
G1 X61.807 Y65.693 E4.29879
G1 X61.807 Y67.307 E4.38146
G1 X51.807 Y67.307 E4.89346 F3600.000
G1 X51.807 Y76.724 E5.37560
G1 X52.300 Y76.724 F7800.000
G1 X52.300 Y77.800 E5.40690 F3600.000
G1 X49.700 Y77.800 E5.48256
G1 X49.700 Y65.200 E5.84919
G1 X62.300 Y65.200 E6.21582
G1 X62.300 Y67.800 E6.29147
G1 X52.300 Y67.800 E6.58244 F3600.000
G1 X52.300 Y76.664 E6.84037
G1 X51.954 Y76.924 F7800.000
G1 X51.000 Y76.993 F7800.000
G1 X51.000 Y66.993 E7.89934 F3600.000
G1 X51.085 Y66.585 E7.94352
G1 X51.493 Y66.500 E7.98771
G1 X61.493 Y66.500 E9.04668
G1 E6.04668 F2400.00000
G92 E0
G1 Z1.200 F7800.000
G1 X60.535 Y134.307 F7800.000
G1 Z0.200 F7800.000
G1 E3.00000 F2400.00000
G1 X50.193 Y134.307 E3.52952 F3600.000
G1 X50.193 Y122.693 E4.12419
G1 X51.807 Y122.693 E4.20685
G1 X51.807 Y132.693 E4.71885
G1 X61.807 Y132.693 E5.23085 F3600.000
G1 X61.807 Y134.307 E5.31352
G1 X60.595 Y134.307 E5.37560
G1 X60.595 Y134.800 F7800.000
G1 X49.700 Y134.800 E5.69261 F3600.000
G1 X49.700 Y122.200 E6.05924
G1 X52.300 Y122.200 E6.13490
G1 X52.300 Y132.200 E6.42587
G1 X62.300 Y132.200 E6.71685 F3600.000
G1 X62.300 Y134.800 E6.79250
G1 X60.655 Y134.800 E6.84037
G1 X60.395 Y134.454 F7800.000
G1 X61.493 Y133.500 F7800.000
G1 X51.493 Y133.500 E7.89934 F3600.000
G1 X51.085 Y133.415 E7.94353
G1 X51.000 Y133.007 E7.98771
G1 X51.000 Y123.007 E9.04668
G1 Z0.200 F7800.000
G1 E6.04668 F2400.00000
G92 E0
G1 Z1.200 F7800.000
G1 X50.052 Y120.641 F7800.000
G1 Z0.200 F7800.000
G1 E3.00000 F2400.00000
G1 X57.543 Y105.695 E3.48648 F3600.000
G1 X57.638 Y105.505 F7800.000
G1 X59.849 Y101.095 E3.63003 F3600.000
G1 X59.050 Y101.095 E3.65327
G1 X56.839 Y105.505 E3.79681
G1 X56.745 Y105.695 F7800.000
G1 X48.501 Y122.141 E4.33212 F3600.000
G1 X48.043 Y121.462 E4.35596
G1 X55.946 Y105.695 E4.86917
G1 X56.041 Y105.505 F7800.000
G1 X58.251 Y101.095 E5.01271 F3600.000
G1 X57.452 Y101.095 E5.03595
G1 X55.242 Y105.505 E5.17950
G1 X55.147 Y105.695 F7800.000
G1 X48.043 Y119.869 E5.64083 F3600.000
G1 E2.64083 F2400.00000
G92 E0
G1 Z1.200 F7800.000
G1 X48.362 Y117.638 F7800.000
G1 Z0.200 F7800.000
G1 E3.00000 F2400.00000
G1 X54.348 Y105.695 E3.38873 F3600.000
G1 X54.443 Y105.505 F7800.000
G1 X56.957 Y100.489 E3.55200 F3600.000
G1 X56.957 Y98.895 E3.59838
G1 X48.362 Y116.044 E4.15654
G1 X48.362 Y114.450 E4.20292
G1 X56.957 Y97.301 E4.76108
G1 X56.957 Y95.708 E4.80746
G1 X48.362 Y112.857 E5.36562
G1 X48.362 Y111.263 E5.41200
G1 X56.957 Y94.114 E5.97016
G1 X56.957 Y92.520 E6.01654
G1 X48.362 Y109.669 E6.57470
G1 X48.362 Y108.075 E6.62108
G1 X56.957 Y90.926 E7.17924
G1 X56.957 Y89.332 F7800.000
G1 X48.362 Y106.481 E7.73740 F3600.000
G1 X48.362 Y104.887 E7.78378
G1 X58.783 Y84.095 E8.46053
G1 X58.878 Y83.905 F7800.000
G1 X61.089 Y79.495 E8.60408 F3600.000
G1 X60.290 Y79.495 E8.62732
G1 X58.079 Y83.905 E8.77086
G1 X57.985 Y84.095 F7800.000
G1 X48.362 Y103.294 E9.39574 F3600.000
G1 X48.362 Y101.700 E9.44212
G1 X57.186 Y84.095 E10.01512
G1 X57.281 Y83.905 F7800.000
G1 X59.491 Y79.495 E10.15867 F3600.000
G1 X58.692 Y79.495 E10.18191
G1 X56.482 Y83.905 E10.32545
G1 X56.387 Y84.095 F7800.000
G1 X48.362 Y100.106 E10.84658 F3600.000
G1 X48.362 Y98.512 E10.89296
G1 X55.588 Y84.095 E11.36221
G1 X55.683 Y83.905 F7800.000
G1 X57.893 Y79.495 E11.50575 F3600.000
G1 X57.094 Y79.495 E11.52900
G1 X54.884 Y83.905 E11.67254
G1 X54.789 Y84.095 F7800.000
G1 X48.362 Y96.918 E12.08992 F3600.000
G1 X48.362 Y95.324 E12.13630
G1 X53.990 Y84.095 E12.50180
G1 X54.085 Y83.905 F7800.000
G1 X56.957 Y78.175 E12.68830 F3600.000
G1 X56.957 Y76.581 E12.73468
G1 X48.362 Y93.730 E13.29284
G1 X48.362 Y92.137 E13.33921
G1 X56.957 Y74.988 E13.89738
G1 X56.957 Y73.394 F7800.000
G1 X48.362 Y90.543 E14.45554 F3600.000
G1 X48.362 Y88.949 E14.50192
G1 X58.619 Y68.484 E15.16799
G1 X57.820 Y68.484 E15.19124
G1 X53.032 Y78.037 E15.50217
G1 X52.370 Y79.359 F7800.000
G1 X48.362 Y87.355 E15.76244 F3600.000
G1 X48.362 Y85.761 E15.80882
G1 X51.571 Y79.359 E16.01721
G1 X50.772 Y79.359 E16.04046
G1 X48.362 Y84.167 E16.19698
G1 X48.362 Y82.574 E16.24335
G1 X49.973 Y79.359 E16.34800
G1 X49.175 Y79.359 E16.37124
G1 X48.043 Y81.616 E16.44473
G1 X48.043 Y80.023 E16.49110
G1 X48.968 Y78.177 E16.55118
G1 X48.329 Y77.859 E16.57196
G1 X48.043 Y78.429 E16.59052
G1 E13.59052 F2400.00000
G92 E0
G1 Z1.200 F7800.000
G1 X53.032 Y76.444 F7800.000
G1 Z0.200 F7800.000
G1 E3.00000 F2400.00000
G1 X57.021 Y68.484 E3.25906 F3600.000
G1 X56.222 Y68.484 E3.28230
