; G-Code generated by Simplify3D(R) Version 4.0.0
; Nov 27, 2017 at 12:12:22 PM
; Settings Summary
;   processName,Con Soporte
;   applyToModels,Cadera Bottom
;   profileName,Gusty (modified)
;   profileVersion,2017-03-01 08:00:00
;   baseProfile,Default (modified)
;   printMaterial,PLA
;   printQuality,Medium
;   printExtruders,
;   extruderName,Primary Extruder
;   extruderToolheadNumber,0
;   extruderDiameter,0.4
;   extruderAutoWidth,1
;   extruderWidth,0.48
;   extrusionMultiplier,0.98
;   extruderUseRetract,1
;   extruderRetractionDistance,1
;   extruderExtraRestartDistance,0
;   extruderRetractionZLift,0
;   extruderRetractionSpeed,1800
;   extruderUseCoasting,0
;   extruderCoastingDistance,0.2
;   extruderUseWipe,0
;   extruderWipeDistance,5
;   primaryExtruder,0
;   layerHeight,0.15
;   topSolidLayers,4
;   bottomSolidLayers,3
;   perimeterOutlines,2
;   printPerimetersInsideOut,1
;   startPointOption,2
;   startPointOriginX,0
;   startPointOriginY,0
;   sequentialIslands,0
;   spiralVaseMode,0
;   firstLayerHeightPercentage,90
;   firstLayerWidthPercentage,100
;   firstLayerUnderspeed,0.5
;   useRaft,0
;   raftExtruder,0
;   raftTopLayers,3
;   raftBaseLayers,2
;   raftOffset,3
;   raftSeparationDistance,0.14
;   raftTopInfill,100
;   aboveRaftSpeedMultiplier,0.3
;   useSkirt,1
;   skirtExtruder,0
;   skirtLayers,1
;   skirtOutlines,2
;   skirtOffset,4
;   usePrimePillar,0
;   primePillarExtruder,999
;   primePillarWidth,12
;   primePillarLocation,7
;   primePillarSpeedMultiplier,1
;   useOozeShield,0
;   oozeShieldExtruder,999
;   oozeShieldOffset,2
;   oozeShieldOutlines,1
;   oozeShieldSidewallShape,1
;   oozeShieldSidewallAngle,30
;   oozeShieldSpeedMultiplier,1
;   infillExtruder,0
;   internalInfillPattern,Rectilinear
;   externalInfillPattern,Rectilinear
;   infillPercentage,15
;   outlineOverlapPercentage,15
;   infillExtrusionWidthPercentage,100
;   minInfillLength,5
;   infillLayerInterval,1
;   internalInfillAngles,45,-45
;   overlapInternalInfillAngles,0
;   externalInfillAngles,45,-45
;   generateSupport,1
;   supportExtruder,0
;   supportInfillPercentage,30
;   supportExtraInflation,0
;   supportBaseLayers,0
;   denseSupportExtruder,0
;   denseSupportLayers,0
;   denseSupportInfillPercentage,70
;   supportLayerInterval,1
;   supportHorizontalPartOffset,0.3
;   supportUpperSeparationLayers,1
;   supportLowerSeparationLayers,1
;   supportType,0
;   supportGridSpacing,4
;   maxOverhangAngle,45
;   supportAngles,0
;   temperatureName,Primary Extruder,Cama
;   temperatureNumber,0,1
;   temperatureSetpointCount,1,1
;   temperatureSetpointLayers,1,1
;   temperatureSetpointTemperatures,190,60
;   temperatureStabilizeAtStartup,1,1
;   temperatureHeatedBed,0,1
;   temperatureRelayBetweenLayers,0,0
;   temperatureRelayBetweenLoops,1,1
;   fanLayers,1,2
;   fanSpeeds,0,100
;   blipFanToFullPower,0
;   adjustSpeedForCooling,1
;   minSpeedLayerTime,15
;   minCoolingSpeedSlowdown,20
;   increaseFanForCooling,0
;   minFanLayerTime,45
;   maxCoolingFanSpeed,100
;   increaseFanForBridging,0
;   bridgingFanSpeed,100
;   use5D,1
;   relativeEdistances,0
;   allowEaxisZeroing,1
;   independentExtruderAxes,0
;   includeM10123,0
;   stickySupport,1
;   applyToolheadOffsets,0
;   gcodeXoffset,0
;   gcodeYoffset,0
;   gcodeZoffset,0
;   overrideMachineDefinition,0
;   machineTypeOverride,0
;   strokeXoverride,200
;   strokeYoverride,200
;   strokeZoverride,200
;   originOffsetXoverride,0
;   originOffsetYoverride,0
;   originOffsetZoverride,0
;   homeXdirOverride,-1
;   homeYdirOverride,-1
;   homeZdirOverride,-1
;   flipXoverride,1
;   flipYoverride,-1
;   flipZoverride,1
;   toolheadOffsets,0,0|0,0|0,0|0,0|0,0|0,0
;   overrideFirmwareConfiguration,0
;   firmwareTypeOverride,RepRap (Marlin/Repetier/Sprinter)
;   GPXconfigOverride,r2
;   baudRateOverride,115200
;   overridePrinterModels,0
;   printerModelsOverride
;   startingGcode,G28 ; home all axes
;   layerChangeGcode,
;   retractionGcode,
;   toolChangeGcode,
;   endingGcode,M104 S0 ; turn off extruder,M140 S0 ; turn off bed,M84 ; disable motors
;   exportFileFormat,gcode
;   celebration,0
;   celebrationSong,Random Song
;   postProcessing,
;   defaultSpeed,3600
;   outlineUnderspeed,0.5
;   solidInfillUnderspeed,0.8
;   supportUnderspeed,0.8
;   rapidXYspeed,4800
;   rapidZspeed,1000
;   minBridgingArea,50
;   bridgingExtraInflation,0
;   bridgingExtrusionMultiplier,1
;   bridgingSpeedMultiplier,1.1
;   useFixedBridgingAngle,0
;   fixedBridgingAngle,0
;   applyBridgingToPerimeters,0
;   filamentDiameters,1.75|1.75|1.75|1.75|1.75|1.75
;   filamentPricesPerKg,46|46|46|46|46|46
;   filamentDensities,1.25|1.25|1.25|1.25|1.25|1.25
;   useMinPrintHeight,0
;   minPrintHeight,0
;   useMaxPrintHeight,0
;   maxPrintHeight,0
;   useDiaphragm,0
;   diaphragmLayerInterval,20
;   robustSlicing,1
;   mergeAllIntoSolid,0
;   onlyRetractWhenCrossingOutline,1
;   retractBetweenLayers,1
;   useRetractionMinTravel,0
;   retractionMinTravel,3
;   retractWhileWiping,0
;   onlyWipeOutlines,1
;   avoidCrossingOutline,0
;   maxMovementDetourFactor,3
;   toolChangeRetractionDistance,12
;   toolChangeExtraRestartDistance,-0.5
;   toolChangeRetractionSpeed,600
;   externalThinWallType,0
;   internalThinWallType,2
;   thinWallAllowedOverlapPercentage,10
;   singleExtrusionMinLength,1
;   singleExtrusionMinPrintingWidthPercentage,50
;   singleExtrusionMaxPrintingWidthPercentage,200
;   singleExtrusionEndpointExtension,0.2
;   horizontalSizeCompensation,0
G90
M82
M106 S0
M140 S60
M190 S60
M104 S190 T0
M109 S190 T0
G28 ; home all axes
G92 E0
G1 E-1.0000 F1800
G1 Z0.135 F1000
; process Con Soporte
; layer 1, Z = 0.135
T0
; tool H0.150 W0.480
; skirt
G1 X47.435 Y74.890 F4800
G1 E0.0000 F540
G92 E0
G1 X47.700 Y74.780 E0.0084 F1800
G1 X57.107 Y74.780 E0.2844
G1 X58.559 Y74.537 E0.3275
G1 X61.221 Y73.846 E0.4082
G1 X64.330 Y72.743 E0.5050
G1 X67.950 Y71.152 E0.6210
G1 X72.104 Y69.014 E0.7581
G1 X76.653 Y66.383 E0.9122
G1 X87.295 Y59.684 E1.2811
G1 X88.048 Y59.181 E1.3077
G1 X88.566 Y58.726 E1.3279
G1 X89.021 Y58.208 E1.3481
G1 X90.181 Y56.471 E1.4094
G1 X90.313 Y56.351 E1.4146
G1 X92.237 Y55.323 E1.4786
G1 X92.409 Y55.280 E1.4838
G1 X107.566 Y55.280 E1.9284
G1 X107.734 Y55.321 E1.9335
G1 X109.625 Y56.305 E1.9961
G1 X109.755 Y56.420 E2.0011
G1 X111.129 Y58.382 E2.0714
G1 X111.778 Y59.031 E2.0983
G1 X112.753 Y59.713 E2.1332
G1 X114.614 Y60.858 E2.1973
G1 X114.616 Y60.859 E2.1974
G1 X114.645 Y60.878 E2.1984
G1 X114.648 Y60.879 E2.1985
G1 X121.836 Y65.458 E2.4485
G1 X127.270 Y68.668 E2.6337
G1 X131.291 Y70.784 E2.7670
G1 X134.861 Y72.414 E2.8821
G1 X137.982 Y73.590 E2.9799
G1 X140.646 Y74.358 E3.0613
G1 X142.932 Y74.780 E3.1295
G1 X152.300 Y74.780 E3.4043
G1 X152.565 Y74.890 E3.4127
G1 X155.110 Y77.435 E3.5183
G1 X155.220 Y77.700 E3.5267
G1 X155.220 Y122.300 E4.8351
G1 X155.110 Y122.565 E4.8435
G1 X152.565 Y125.110 E4.9491
G1 X152.300 Y125.220 E4.9575
G1 X142.893 Y125.220 E5.2335
G1 X141.441 Y125.463 E5.2766
G1 X138.779 Y126.154 E5.3573
G1 X135.670 Y127.257 E5.4541
G1 X132.050 Y128.848 E5.5701
G1 X127.896 Y130.986 E5.7071
G1 X123.347 Y133.617 E5.8613
G1 X112.705 Y140.316 E6.2302
G1 X111.952 Y140.819 E6.2567
G1 X111.434 Y141.274 E6.2770
G1 X110.979 Y141.792 E6.2972
G1 X109.819 Y143.529 E6.3585
G1 X109.687 Y143.648 E6.3637
G1 X107.763 Y144.677 E6.4277
G1 X107.591 Y144.720 E6.4329
G1 X92.409 Y144.720 E6.8783
G1 X92.237 Y144.677 E6.8835
G1 X90.313 Y143.649 E6.9475
G1 X90.181 Y143.529 E6.9527
G1 X89.021 Y141.792 E7.0140
G1 X88.566 Y141.274 E7.0342
G1 X88.048 Y140.819 E7.0544
G1 X87.291 Y140.314 E7.0811
G1 X85.386 Y139.142 E7.1467
G1 X85.384 Y139.141 E7.1468
G1 X85.355 Y139.122 E7.1478
G1 X85.352 Y139.121 E7.1479
G1 X78.164 Y134.542 E7.3979
G1 X72.730 Y131.332 E7.5831
G1 X68.709 Y129.216 E7.7163
G1 X65.139 Y127.586 E7.8315
G1 X62.018 Y126.410 E7.9293
G1 X59.354 Y125.642 E8.0106
G1 X57.068 Y125.220 E8.0788
G1 X47.700 Y125.220 E8.3536
G1 X47.435 Y125.110 E8.3620
G1 X44.890 Y122.565 E8.4677
G1 X44.780 Y122.300 E8.4761
G1 X44.780 Y77.700 E9.7844
G1 X44.890 Y77.435 E9.7928
G1 X47.435 Y74.890 E9.8984
G1 X47.707 Y75.297 F4800
G92 E0
G1 X47.795 Y75.260 E0.0028 F1800
G1 X57.147 Y75.260 E0.2771
G1 X58.659 Y75.007 E0.3221
G1 X61.362 Y74.305 E0.4040
G1 X64.507 Y73.190 E0.5019
G1 X68.156 Y71.586 E0.6189
G1 X72.334 Y69.435 E0.7567
G1 X76.901 Y66.794 E0.9115
G1 X87.557 Y60.086 E1.2808
G1 X88.341 Y59.562 E1.3085
G1 X88.906 Y59.066 E1.3306
G1 X89.402 Y58.501 E1.3526
G1 X90.548 Y56.787 E1.4131
G1 X90.592 Y56.747 E1.4148
G1 X92.411 Y55.774 E1.4754
G1 X92.468 Y55.760 E1.4771
G1 X107.508 Y55.760 E1.9183
G1 X107.564 Y55.774 E1.9200
G1 X109.352 Y56.704 E1.9791
G1 X109.395 Y56.743 E1.9808
G1 X110.760 Y58.692 E2.0506
G1 X111.468 Y59.400 E2.0800
G1 X112.489 Y60.115 E2.1165
G1 X114.361 Y61.266 E2.1810
G1 X114.390 Y61.284 E2.1820
G1 X121.585 Y65.867 E2.4322
G1 X127.036 Y69.087 E2.6180
G1 X131.080 Y71.215 E2.7520
G1 X134.677 Y72.857 E2.8680
G1 X137.830 Y74.046 E2.9668
G1 X140.536 Y74.826 E3.0495
G1 X142.888 Y75.260 E3.1196
G1 X152.205 Y75.260 E3.3929
G1 X152.293 Y75.297 E3.3957
G1 X154.703 Y77.707 E3.4957
G1 X154.740 Y77.795 E3.4985
G1 X154.740 Y122.205 E4.8013
G1 X154.703 Y122.293 E4.8041
G1 X152.293 Y124.703 E4.9041
G1 X152.205 Y124.740 E4.9069
G1 X142.853 Y124.740 E5.1813
G1 X141.341 Y124.993 E5.2262
G1 X138.638 Y125.695 E5.3081
G1 X135.493 Y126.810 E5.4060
G1 X131.843 Y128.414 E5.5230
G1 X127.665 Y130.565 E5.6608
G1 X123.099 Y133.206 E5.8156
G1 X112.443 Y139.914 E6.1849
G1 X111.659 Y140.438 E6.2126
G1 X111.094 Y140.934 E6.2347
G1 X110.598 Y141.499 E6.2567
G1 X109.452 Y143.213 E6.3172
G1 X109.408 Y143.253 E6.3189
G1 X107.589 Y144.226 E6.3795
G1 X107.532 Y144.240 E6.3812
G1 X92.468 Y144.240 E6.8231
G1 X92.411 Y144.226 E6.8248
G1 X90.592 Y143.253 E6.8853
G1 X90.548 Y143.213 E6.8871
G1 X89.402 Y141.499 E6.9476
G1 X88.906 Y140.934 E6.9696
G1 X88.341 Y140.438 E6.9917
G1 X87.550 Y139.909 E7.0196
G1 X85.639 Y138.734 E7.0854
G1 X85.610 Y138.716 E7.0864
G1 X78.415 Y134.133 E7.3366
G1 X72.964 Y130.913 E7.5223
G1 X68.920 Y128.785 E7.6564
G1 X65.323 Y127.143 E7.7724
G1 X62.170 Y125.954 E7.8712
G1 X59.464 Y125.174 E7.9538
G1 X57.112 Y124.740 E8.0240
G1 X47.795 Y124.740 E8.2973
G1 X47.707 Y124.703 E8.3001
G1 X45.297 Y122.293 E8.4001
G1 X45.260 Y122.205 E8.4029
G1 X45.260 Y77.795 E9.7057
G1 X45.297 Y77.707 E9.7085
G1 X47.707 Y75.297 E9.8085
G92 E0
G1 E-1.0000 F1800
; inner perimeter
G1 X50.220 Y80.220 F4800
G1 E0.0000 F1800
G92 E0
G1 X57.560 Y80.220 E0.2153 F1350
G1 X59.694 Y79.863 E0.2788
G1 X62.817 Y79.052 E0.3734
G1 X66.337 Y77.803 E0.4830
G1 X70.291 Y76.065 E0.6097
G1 X74.713 Y73.790 E0.7556
G1 X79.464 Y71.041 E0.9166
G1 X90.256 Y64.248 E1.2907
G1 X91.367 Y63.506 E1.3299
G1 X92.421 Y62.581 E1.3710
G1 X93.346 Y61.527 E1.4122
G1 X93.885 Y60.720 E1.4406
G1 X106.125 Y60.720 E1.7997
G1 X106.946 Y61.892 E1.8417
G1 X108.268 Y63.214 E1.8965
G1 X109.765 Y64.262 E1.9501
G1 X111.744 Y65.480 E2.0183
G1 X118.990 Y70.095 E2.2703
G1 X124.618 Y73.420 E2.4621
G1 X128.893 Y75.669 E2.6038
G1 X132.770 Y77.439 E2.7288
G1 X136.266 Y78.757 E2.8384
G1 X139.397 Y79.659 E2.9340
G1 X142.434 Y80.220 E3.0246
G1 X149.780 Y80.220 E3.2401
G1 X149.780 Y119.780 E4.4006
G1 X142.440 Y119.780 E4.6159
G1 X140.306 Y120.137 E4.6794
G1 X137.183 Y120.948 E4.7741
G1 X133.663 Y122.196 E4.8836
G1 X129.709 Y123.935 E5.0103
G1 X125.287 Y126.210 E5.1562
G1 X120.536 Y128.959 E5.3172
G1 X109.744 Y135.752 E5.6913
G1 X108.633 Y136.494 E5.7305
G1 X107.579 Y137.419 E5.7716
G1 X106.654 Y138.473 E5.8128
G1 X106.115 Y139.280 E5.8413
G1 X93.885 Y139.280 E6.2000
G1 X93.346 Y138.473 E6.2285
G1 X92.421 Y137.419 E6.2696
G1 X91.367 Y136.494 E6.3108
G1 X90.229 Y135.734 E6.3509
G1 X88.255 Y134.520 E6.4189
G1 X81.010 Y129.905 E6.6709
G1 X75.382 Y126.580 E6.8627
G1 X71.107 Y124.331 E7.0044
G1 X67.230 Y122.561 E7.1294
G1 X63.734 Y121.243 E7.2390
G1 X60.603 Y120.341 E7.3346
G1 X57.566 Y119.780 E7.4252
G1 X50.220 Y119.780 E7.6407
G1 X50.220 Y80.220 E8.8012
; outer perimeter
G1 X49.740 Y79.740 F4800
G92 E0
G1 X57.520 Y79.740 E0.2282 F900
G1 X59.594 Y79.393 E0.2899
G1 X62.676 Y78.592 E0.3833
G1 X66.160 Y77.357 E0.4918
G1 X70.085 Y75.632 E0.6175
G1 X74.482 Y73.368 E0.7626
G1 X79.216 Y70.630 E0.9231
G1 X89.995 Y63.845 E1.2967
G1 X91.074 Y63.124 E1.3347
G1 X92.081 Y62.241 E1.3740
G1 X92.964 Y61.234 E1.4133
G1 X93.628 Y60.240 E1.4484
G1 X106.375 Y60.240 E1.8223
G1 X107.315 Y61.583 E1.8704
G1 X108.578 Y62.845 E1.9228
G1 X110.028 Y63.861 E1.9748
G1 X111.999 Y65.073 E2.0426
G1 X119.241 Y69.686 E2.2945
G1 X124.853 Y73.000 E2.4857
G1 X129.105 Y75.238 E2.6267
G1 X132.954 Y76.996 E2.7508
G1 X136.417 Y78.301 E2.8594
G1 X139.507 Y79.192 E2.9537
G1 X142.478 Y79.740 E3.0423
G1 X150.260 Y79.740 E3.2706
G1 X150.260 Y120.260 E4.4593
G1 X142.480 Y120.260 E4.6875
G1 X140.406 Y120.607 E4.7492
G1 X137.324 Y121.408 E4.8426
G1 X133.840 Y122.643 E4.9510
G1 X129.915 Y124.368 E5.0768
G1 X125.518 Y126.632 E5.2219
G1 X120.784 Y129.370 E5.3823
G1 X110.005 Y136.155 E5.7560
G1 X108.926 Y136.876 E5.7940
G1 X107.919 Y137.759 E5.8333
G1 X107.036 Y138.766 E5.8726
G1 X106.372 Y139.760 E5.9077
G1 X93.628 Y139.760 E6.2815
G1 X92.964 Y138.766 E6.3166
G1 X92.081 Y137.759 E6.3559
G1 X91.074 Y136.876 E6.3952
G1 X89.969 Y136.138 E6.4341
G1 X88.001 Y134.927 E6.5019
G1 X80.759 Y130.314 E6.7538
G1 X75.147 Y126.999 E6.9450
G1 X70.895 Y124.762 E7.0860
G1 X67.046 Y123.004 E7.2101
G1 X63.583 Y121.699 E7.3187
G1 X60.493 Y120.808 E7.4130
G1 X57.522 Y120.260 E7.5016
G1 X49.740 Y120.260 E7.7299
G1 X49.740 Y79.740 E8.9186
; solid layer
G1 X50.811 Y119.372 F4800
G92 E0
G1 X50.628 Y119.189 E0.0076 F1440
G1 X50.628 Y118.510 E0.0275
G1 X51.490 Y119.372 E0.0633
G1 X52.169 Y119.372 E0.0832
G1 X50.628 Y117.831 E0.1471
G1 X50.628 Y117.153 E0.1670
G1 X52.847 Y119.372 E0.2591
G1 X53.526 Y119.372 E0.2790
G1 X50.628 Y116.474 E0.3992
G1 X50.628 Y115.795 E0.4191
G1 X54.205 Y119.372 E0.5675
G1 X54.884 Y119.372 E0.5874
G1 X50.628 Y115.116 E0.7640
G1 X50.628 Y114.437 E0.7839
G1 X55.563 Y119.372 E0.9886
G1 X56.242 Y119.372 E1.0086
G1 X50.628 Y113.758 E1.2414
G1 X50.628 Y113.080 E1.2614
G1 X56.920 Y119.372 E1.5224
G1 X57.599 Y119.372 E1.5423
G1 X50.628 Y112.401 E1.8315
G1 X50.628 Y111.722 E1.8514
G1 X58.431 Y119.525 E2.1752
G1 X59.263 Y119.678 E2.2000
G1 X50.628 Y111.043 E2.5582
G1 X50.628 Y110.364 E2.5781
G1 X60.096 Y119.832 E2.9709
G1 X60.697 Y119.943 E2.9889
G1 X60.962 Y120.019 E2.9969
G1 X50.628 Y109.686 E3.4257
G1 X50.628 Y109.007 E3.4456
G1 X61.915 Y120.294 E3.9138
G1 X62.869 Y120.569 E3.9429
G1 X50.628 Y108.328 E4.4508
G1 X50.628 Y107.649 E4.4707
G1 X63.822 Y120.844 E5.0181
G1 X63.863 Y120.855 E5.0193
G1 X64.906 Y121.249 E5.0520
G1 X50.628 Y106.970 E5.6444
G1 X50.628 Y106.291 E5.6643
G1 X65.996 Y121.660 E6.3019
G1 X67.086 Y122.071 E6.3361
G1 X50.628 Y105.613 E7.0188
G1 X50.628 Y104.934 E7.0387
G1 X68.291 Y122.597 E7.7715
G1 X69.540 Y123.167 E7.8118
G1 X50.628 Y104.255 E8.5964
G1 X50.628 Y103.576 E8.6163
G1 X70.788 Y123.737 E9.4527
G1 X71.287 Y123.964 E9.4687
G1 X72.148 Y124.417 E9.4973
G1 X50.628 Y102.897 E10.3901
G1 X50.628 Y102.218 E10.4100
G1 X73.581 Y125.172 E11.3622
G1 X75.014 Y125.926 E11.4097
G1 X50.628 Y101.540 E12.4214
G1 X50.628 Y100.861 E12.4414
G1 X76.584 Y126.816 E13.5182
G1 X78.242 Y127.796 E13.5747
G1 X50.628 Y100.182 E14.7203
G1 X50.628 Y99.503 E14.7402
G1 X79.901 Y128.776 E15.9546
G1 X81.223 Y129.557 E15.9997
G1 X81.602 Y129.799 E16.0129
G1 X50.628 Y98.824 E17.2979
G1 X50.628 Y98.146 E17.3178
G1 X83.472 Y130.990 E18.6804
G1 X85.342 Y132.181 E18.7454
G1 X50.628 Y97.467 E20.1856
G1 X50.628 Y96.788 E20.2055
G1 X87.212 Y133.372 E21.7232
G1 X88.473 Y134.175 E21.7671
G1 X89.047 Y134.528 E21.7869
G1 X50.628 Y96.109 E23.3807
G1 X50.628 Y95.430 E23.4006
G1 X90.868 Y135.670 E25.0701
G1 X91.616 Y136.170 E25.0964
G1 X92.710 Y137.130 E25.1391
G1 X93.670 Y138.224 E25.1819
G1 X94.103 Y138.872 E25.2047
G1 X94.749 Y138.872 E25.2237
G1 X50.628 Y94.751 E27.0541
G1 X50.628 Y94.073 E27.0740
G1 X95.427 Y138.872 E28.9325
G1 X96.106 Y138.872 E28.9525
G1 X50.628 Y93.394 E30.8392
G1 X50.628 Y92.715 E30.8591
G1 X96.785 Y138.872 E32.7740
G1 X97.464 Y138.872 E32.7939
