; G-Code generated by Simplify3D(R) Version 4.0.0
; May 12, 2019 at 5:30:12 PM
; Settings Summary
;   processName,Process1
;   applyToModels,Cadera Bottom,Muslo,Muslo(2)
;   profileName,Gusty (modified)
;   profileVersion,2017-03-01 08:00:00
;   baseProfile,Default (modified)
;   printMaterial,PLA
;   printQuality,Medium
;   printExtruders,
;   extruderName,Primary Extruder
;   extruderToolheadNumber,0
;   extruderDiameter,0.4
;   extruderAutoWidth,1
;   extruderWidth,0.48
;   extrusionMultiplier,0.98
;   extruderUseRetract,1
;   extruderRetractionDistance,1
;   extruderExtraRestartDistance,0
;   extruderRetractionZLift,0
;   extruderRetractionSpeed,1800
;   extruderUseCoasting,0
;   extruderCoastingDistance,0.2
;   extruderUseWipe,0
;   extruderWipeDistance,5
;   primaryExtruder,0
;   layerHeight,0.2
;   topSolidLayers,4
;   bottomSolidLayers,3
;   perimeterOutlines,2
;   printPerimetersInsideOut,1
;   startPointOption,2
;   startPointOriginX,0
;   startPointOriginY,0
;   sequentialIslands,0
;   spiralVaseMode,0
;   firstLayerHeightPercentage,90
;   firstLayerWidthPercentage,100
;   firstLayerUnderspeed,0.5
;   useRaft,0
;   raftExtruder,0
;   raftTopLayers,3
;   raftBaseLayers,2
;   raftOffset,3
;   raftSeparationDistance,0.14
;   raftTopInfill,100
;   aboveRaftSpeedMultiplier,0.3
;   useSkirt,1
;   skirtExtruder,0
;   skirtLayers,1
;   skirtOutlines,2
;   skirtOffset,4
;   usePrimePillar,0
;   primePillarExtruder,999
;   primePillarWidth,12
;   primePillarLocation,7
;   primePillarSpeedMultiplier,1
;   useOozeShield,0
;   oozeShieldExtruder,999
;   oozeShieldOffset,2
;   oozeShieldOutlines,1
;   oozeShieldSidewallShape,1
;   oozeShieldSidewallAngle,30
;   oozeShieldSpeedMultiplier,1
;   infillExtruder,0
;   internalInfillPattern,Rectilinear
;   externalInfillPattern,Rectilinear
;   infillPercentage,10
;   outlineOverlapPercentage,15
;   infillExtrusionWidthPercentage,100
;   minInfillLength,5
;   infillLayerInterval,1
;   internalInfillAngles,45,-45
;   overlapInternalInfillAngles,0
;   externalInfillAngles,45,-45
;   generateSupport,1
;   supportExtruder,0
;   supportInfillPercentage,30
;   supportExtraInflation,0
;   supportBaseLayers,0
;   denseSupportExtruder,0
;   denseSupportLayers,0
;   denseSupportInfillPercentage,70
;   supportLayerInterval,1
;   supportHorizontalPartOffset,0.3
;   supportUpperSeparationLayers,1
;   supportLowerSeparationLayers,1
;   supportType,0
;   supportGridSpacing,4
;   maxOverhangAngle,45
;   supportAngles,0
;   temperatureName,Primary Extruder,Cama
;   temperatureNumber,0,1
;   temperatureSetpointCount,1,1
;   temperatureSetpointLayers,1,1
;   temperatureSetpointTemperatures,200,70
;   temperatureStabilizeAtStartup,1,1
;   temperatureHeatedBed,0,1
;   temperatureRelayBetweenLayers,0,0
;   temperatureRelayBetweenLoops,1,1
;   fanLayers,1,2
;   fanSpeeds,0,100
;   blipFanToFullPower,0
;   adjustSpeedForCooling,1
;   minSpeedLayerTime,15
;   minCoolingSpeedSlowdown,20
;   increaseFanForCooling,0
;   minFanLayerTime,45
;   maxCoolingFanSpeed,100
;   increaseFanForBridging,0
;   bridgingFanSpeed,100
;   use5D,1
;   relativeEdistances,0
;   allowEaxisZeroing,1
;   independentExtruderAxes,0
;   includeM10123,0
;   stickySupport,1
;   applyToolheadOffsets,0
;   gcodeXoffset,0
;   gcodeYoffset,0
;   gcodeZoffset,0
;   overrideMachineDefinition,0
;   machineTypeOverride,0
;   strokeXoverride,200
;   strokeYoverride,200
;   strokeZoverride,200
;   originOffsetXoverride,0
;   originOffsetYoverride,0
;   originOffsetZoverride,0
;   homeXdirOverride,-1
;   homeYdirOverride,-1
;   homeZdirOverride,-1
;   flipXoverride,1
;   flipYoverride,-1
;   flipZoverride,1
;   toolheadOffsets,0,0|0,0|0,0|0,0|0,0|0,0
;   overrideFirmwareConfiguration,0
;   firmwareTypeOverride,RepRap (Marlin/Repetier/Sprinter)
;   GPXconfigOverride,r2
;   baudRateOverride,115200
;   overridePrinterModels,0
;   printerModelsOverride
;   startingGcode,G28 ; home all axes
;   layerChangeGcode,
;   retractionGcode,
;   toolChangeGcode,
;   endingGcode,G28 X; Home X,M104 S0 ; turn off extruder,M140 S0 ; turn off bed,M84 ; disable motors
;   exportFileFormat,gcode
;   celebration,0
;   celebrationSong,Random Song
;   postProcessing,
;   defaultSpeed,3600
;   outlineUnderspeed,0.5
;   solidInfillUnderspeed,0.8
;   supportUnderspeed,0.8
;   rapidXYspeed,4800
;   rapidZspeed,1000
;   minBridgingArea,50
;   bridgingExtraInflation,0
;   bridgingExtrusionMultiplier,1
;   bridgingSpeedMultiplier,1.1
;   useFixedBridgingAngle,0
;   fixedBridgingAngle,0
;   applyBridgingToPerimeters,0
;   filamentDiameters,1.75|1.75|1.75|1.75|1.75|1.75
;   filamentPricesPerKg,190|46|46|46|46|46
;   filamentDensities,1.25|1.25|1.25|1.25|1.25|1.25
;   useMinPrintHeight,0
;   minPrintHeight,0
;   useMaxPrintHeight,0
;   maxPrintHeight,0
;   useDiaphragm,0
;   diaphragmLayerInterval,20
;   robustSlicing,1
;   mergeAllIntoSolid,0
;   onlyRetractWhenCrossingOutline,1
;   retractBetweenLayers,1
;   useRetractionMinTravel,0
;   retractionMinTravel,3
;   retractWhileWiping,0
;   onlyWipeOutlines,1
;   avoidCrossingOutline,0
;   maxMovementDetourFactor,3
;   toolChangeRetractionDistance,12
;   toolChangeExtraRestartDistance,-0.5
;   toolChangeRetractionSpeed,600
;   externalThinWallType,0
;   internalThinWallType,2
;   thinWallAllowedOverlapPercentage,10
;   singleExtrusionMinLength,1
;   singleExtrusionMinPrintingWidthPercentage,50
;   singleExtrusionMaxPrintingWidthPercentage,200
;   singleExtrusionEndpointExtension,0.2
;   horizontalSizeCompensation,0
G90
M82
M106 S0
M140 S70
M190 S70
M104 S200 T0
M109 S200 T0
G28 ; home all axes
G92 E0
G1 E-1.0000 F1800
G1 Z0.180 F1000
; process Process1
; layer 1, Z = 0.180
T0
; tool H0.200 W0.480
; skirt
G1 X44.780 Y50.629 F4800
G1 E0.0000 F540
G92 E0
G1 X44.780 Y49.710 E0.0359 F1800
G1 X44.890 Y49.445 E0.0471
G1 X47.435 Y46.899 E0.1880
G1 X47.700 Y46.790 E0.1992
G1 X57.053 Y46.790 E0.5650
G1 X59.659 Y46.291 E0.6688
G1 X62.828 Y45.319 E0.7984
G1 X66.609 Y43.784 E0.9580
G1 X71.024 Y41.607 E1.1506
G1 X75.947 Y38.817 E1.3719
G1 X87.306 Y31.686 E1.8965
G1 X88.048 Y31.191 E1.9314
G1 X88.566 Y30.736 E1.9584
G1 X89.021 Y30.218 E1.9853
G1 X90.181 Y28.480 E2.0671
G1 X90.313 Y28.361 E2.0740
G1 X92.237 Y27.333 E2.1593
G1 X92.409 Y27.290 E2.1663
G1 X107.566 Y27.290 E2.7591
G1 X107.734 Y27.331 E2.7659
G1 X109.625 Y28.315 E2.8493
G1 X109.755 Y28.430 E2.8560
G1 X111.129 Y30.392 E2.9497
G1 X111.778 Y31.041 E2.9856
G1 X112.770 Y31.735 E3.0330
G1 X124.058 Y38.820 E3.5543
G1 X129.627 Y41.949 E3.8041
G1 X133.739 Y43.940 E3.9828
G1 X137.317 Y45.371 E4.1336
G1 X140.338 Y46.291 E4.2571
G1 X142.947 Y46.790 E4.3610
G1 X152.300 Y46.790 E4.7268
G1 X152.565 Y46.899 E4.7380
G1 X155.110 Y49.445 E4.8788
G1 X155.220 Y49.710 E4.8900
G1 X155.220 Y50.628 E4.9259
G1 X172.592 Y50.624 E5.6054
G1 X172.607 Y50.624 E5.6060
G1 X172.792 Y50.632 E5.6132
G1 X172.807 Y50.633 E5.6138
G1 X173.578 Y50.698 E5.6441
G1 X173.610 Y50.702 E5.6454
G1 X173.998 Y50.771 E5.6608
G1 X174.030 Y50.778 E5.6620
G1 X174.964 Y51.032 E5.6999
G1 X174.999 Y51.044 E5.7014
G1 X175.413 Y51.203 E5.7187
G1 X175.446 Y51.218 E5.7201
G1 X176.380 Y51.690 E5.7611
G1 X176.409 Y51.707 E5.7624
G1 X176.749 Y51.920 E5.7781
G1 X176.776 Y51.939 E5.7794
G1 X177.459 Y52.461 E5.8130
G1 X177.483 Y52.481 E5.8142
G1 X177.766 Y52.739 E5.8292
G1 X177.788 Y52.762 E5.8304
G1 X178.455 Y53.488 E5.8690
G1 X178.475 Y53.512 E5.8702
G1 X178.710 Y53.818 E5.8853
G1 X178.728 Y53.845 E5.8866
G1 X179.194 Y54.577 E5.9205
G1 X179.209 Y54.603 E5.9217
G1 X179.376 Y54.923 E5.9358
G1 X179.389 Y54.950 E5.9370
G1 X179.753 Y55.809 E5.9735
G1 X179.764 Y55.837 E5.9746
G1 X179.876 Y56.181 E5.9888
G1 X179.885 Y56.209 E5.9900
G1 X180.088 Y57.062 E6.0243
G1 X180.094 Y57.090 E6.0254
G1 X180.147 Y57.427 E6.0387
G1 X180.150 Y57.455 E6.0398
G1 X180.212 Y58.247 E6.0709
G1 X180.213 Y58.262 E6.0715
G1 X180.220 Y58.432 E6.0781
G1 X180.220 Y58.446 E6.0787
G1 X180.220 Y85.547 E7.1387
G1 X180.220 Y85.556 E7.1391
G1 X180.217 Y85.673 E7.1436
G1 X180.216 Y85.682 E7.1440
G1 X180.186 Y86.242 E7.1659
G1 X180.184 Y86.265 E7.1668
G1 X180.152 Y86.541 E7.1777
G1 X180.149 Y86.564 E7.1786
G1 X180.001 Y87.372 E7.2107
G1 X179.994 Y87.400 E7.2118
G1 X179.906 Y87.733 E7.2253
G1 X179.897 Y87.760 E7.2264
G1 X179.596 Y88.614 E7.2618
G1 X179.585 Y88.642 E7.2630
G1 X179.438 Y88.971 E7.2771
G1 X179.424 Y88.998 E7.2783
G1 X179.004 Y89.759 E7.3123
G1 X178.990 Y89.782 E7.3134
G1 X178.805 Y90.063 E7.3265
G1 X178.789 Y90.086 E7.3276
G1 X178.298 Y90.721 E7.3590
G1 X178.280 Y90.742 E7.3601
G1 X178.050 Y90.995 E7.3735
G1 X178.031 Y91.015 E7.3746
G1 X177.417 Y91.594 E7.4076
G1 X177.394 Y91.613 E7.4087
G1 X177.111 Y91.839 E7.4229
G1 X177.087 Y91.857 E7.4241
G1 X176.365 Y92.339 E7.4580
G1 X176.340 Y92.355 E7.4592
G1 X176.023 Y92.531 E7.4734
G1 X175.996 Y92.544 E7.4745
G1 X175.230 Y92.889 E7.5074
G1 X175.201 Y92.901 E7.5086
G1 X174.848 Y93.025 E7.5232
G1 X174.819 Y93.034 E7.5244
G1 X173.957 Y93.256 E7.5593
G1 X173.927 Y93.262 E7.5605
G1 X173.560 Y93.324 E7.5750
G1 X173.529 Y93.328 E7.5762
G1 X172.794 Y93.387 E7.6051
G1 X172.779 Y93.388 E7.6057
G1 X172.602 Y93.395 E7.6126
G1 X172.588 Y93.396 E7.6132
G1 X155.220 Y93.392 E8.2925
G1 X155.220 Y94.310 E8.3284
G1 X155.110 Y94.574 E8.3396
G1 X152.565 Y97.120 E8.4804
G1 X152.300 Y97.230 E8.4916
G1 X142.947 Y97.230 E8.8574
G1 X140.341 Y97.728 E8.9612
G1 X137.172 Y98.700 E9.0909
G1 X133.391 Y100.235 E9.2505
G1 X128.976 Y102.413 E9.4430
G1 X124.053 Y105.202 E9.6643
G1 X112.726 Y112.311 E10.1874
G1 X111.952 Y112.829 E10.2238
G1 X111.912 Y112.864 E10.2259
G1 X111.930 Y112.868 E10.2266
G1 X114.872 Y113.612 E10.3453
G1 X114.891 Y113.618 E10.3461
G1 X115.120 Y113.689 E10.3555
G1 X115.139 Y113.696 E10.3563
G1 X118.009 Y114.769 E10.4761
G1 X118.028 Y114.776 E10.4769
G1 X118.249 Y114.873 E10.4863
G1 X118.267 Y114.882 E10.4871
G1 X120.988 Y116.259 E10.6064
G1 X121.006 Y116.269 E10.6072
G1 X121.214 Y116.389 E10.6166
G1 X121.231 Y116.399 E10.6174
G1 X123.778 Y118.063 E10.7364
G1 X123.794 Y118.074 E10.7372
G1 X123.988 Y118.216 E10.7465
G1 X124.003 Y118.228 E10.7473
G1 X126.364 Y120.172 E10.8669
G1 X126.379 Y120.185 E10.8677
G1 X126.556 Y120.348 E10.8771
G1 X126.570 Y120.361 E10.8779
G1 X128.697 Y122.548 E10.9972
G1 X128.710 Y122.562 E10.9979
G1 X128.868 Y122.744 E11.0073
G1 X128.881 Y122.759 E11.0081
G1 X130.754 Y125.166 E11.1274
G1 X130.766 Y125.182 E11.1282
G1 X130.903 Y125.379 E11.1376
G1 X130.913 Y125.396 E11.1384
G1 X132.511 Y127.994 E11.2577
G1 X132.520 Y128.011 E11.2584
G1 X132.635 Y128.223 E11.2678
G1 X132.644 Y128.240 E11.2686
G1 X133.945 Y130.998 E11.3879
G1 X133.953 Y131.017 E11.3887
G1 X134.044 Y131.239 E11.3981
G1 X134.051 Y131.258 E11.3989
G1 X135.041 Y134.142 E11.5181
G1 X135.047 Y134.161 E11.5189
G1 X135.112 Y134.393 E11.5283
G1 X135.117 Y134.412 E11.5291
G1 X135.784 Y137.388 E11.6484
G1 X135.788 Y137.407 E11.6492
G1 X135.828 Y137.644 E11.6586
G1 X135.830 Y137.664 E11.6593
G1 X136.163 Y140.666 E11.7775
G1 X136.164 Y140.680 E11.7780
G1 X136.176 Y140.860 E11.7851
G1 X136.177 Y140.875 E11.7857
G1 X136.219 Y142.413 E11.8459
G1 X136.220 Y142.423 E11.8463
G1 X136.220 Y142.542 E11.8509
G1 X136.219 Y142.552 E11.8513
G1 X136.177 Y144.123 E11.9127
G1 X136.176 Y144.138 E11.9133
G1 X136.164 Y144.319 E11.9204
G1 X136.163 Y144.334 E11.9210
G1 X135.830 Y147.336 E12.0392
G1 X135.828 Y147.355 E12.0399
G1 X135.788 Y147.593 E12.0493
G1 X135.784 Y147.612 E12.0501
G1 X135.117 Y150.588 E12.1694
G1 X135.112 Y150.607 E12.1702
G1 X135.047 Y150.839 E12.1796
G1 X135.041 Y150.858 E12.1804
G1 X134.051 Y153.742 E12.2997
G1 X134.044 Y153.761 E12.3004
G1 X133.953 Y153.983 E12.3098
G1 X133.945 Y154.002 E12.3106
G1 X132.644 Y156.760 E12.4299
G1 X132.635 Y156.777 E12.4307
G1 X132.520 Y156.989 E12.4401
G1 X132.511 Y157.006 E12.4409
G1 X130.913 Y159.604 E12.5601
G1 X130.903 Y159.621 E12.5609
G1 X130.766 Y159.818 E12.5703
G1 X130.754 Y159.834 E12.5711
G1 X128.881 Y162.241 E12.6904
G1 X128.868 Y162.256 E12.6912
G1 X128.711 Y162.437 E12.7005
G1 X128.697 Y162.452 E12.7013
G1 X126.579 Y164.630 E12.8202
G1 X126.565 Y164.644 E12.8209
G1 X126.388 Y164.806 E12.8303
G1 X126.373 Y164.819 E12.8311
G1 X124.032 Y166.749 E12.9497
G1 X124.017 Y166.761 E12.9505
G1 X123.824 Y166.903 E12.9599
G1 X123.808 Y166.914 E12.9606
G1 X121.234 Y168.599 E13.0810
G1 X121.217 Y168.609 E13.0818
G1 X121.007 Y168.731 E13.0912
G1 X120.989 Y168.740 E13.0920
G1 X118.267 Y170.118 E13.2114
G1 X118.249 Y170.126 E13.2121
G1 X118.029 Y170.223 E13.2215
G1 X118.011 Y170.230 E13.2223
G1 X115.155 Y171.300 E13.3416
G1 X115.136 Y171.306 E13.3424
G1 X114.906 Y171.378 E13.3518
G1 X114.887 Y171.383 E13.3526
G1 X111.931 Y172.132 E13.4719
G1 X111.911 Y172.136 E13.4726
G1 X111.676 Y172.182 E13.4820
G1 X111.656 Y172.186 E13.4828
G1 X108.635 Y172.605 E13.6021
G1 X108.615 Y172.607 E13.6029
G1 X108.376 Y172.627 E13.6123
G1 X108.356 Y172.628 E13.6130
G1 X105.307 Y172.712 E13.7323
G1 X105.287 Y172.712 E13.7331
G1 X105.047 Y172.705 E13.7425
G1 X105.027 Y172.704 E13.7433
G1 X101.988 Y172.452 E13.8626
G1 X101.968 Y172.450 E13.8634
G1 X101.730 Y172.417 E13.8728
G1 X101.711 Y172.414 E13.8735
G1 X98.717 Y171.829 E13.9928
G1 X98.698 Y171.825 E13.9936
G1 X98.465 Y171.766 E14.0030
G1 X98.446 Y171.760 E14.0038
G1 X95.535 Y170.850 E14.1231
G1 X95.516 Y170.844 E14.1238
G1 X95.291 Y170.759 E14.1333
G1 X95.273 Y170.752 E14.1340
G1 X92.480 Y169.527 E14.2533
G1 X92.462 Y169.518 E14.2541
G1 X92.248 Y169.410 E14.2635
G1 X92.230 Y169.400 E14.2643
G1 X89.608 Y167.887 E14.3827
G1 X89.591 Y167.876 E14.3835
G1 X89.391 Y167.746 E14.3928
G1 X89.374 Y167.734 E14.3936
G1 X86.901 Y165.919 E14.5136
G1 X86.886 Y165.907 E14.5144
G1 X86.699 Y165.754 E14.5238
G1 X86.684 Y165.740 E14.5246
G1 X84.442 Y163.677 E14.6438
G1 X84.428 Y163.663 E14.6446
G1 X84.260 Y163.491 E14.6539
G1 X84.247 Y163.477 E14.6547
G1 X82.239 Y161.172 E14.7743
G1 X82.227 Y161.157 E14.7750
G1 X82.079 Y160.967 E14.7845
G1 X82.067 Y160.951 E14.7852
G1 X80.329 Y158.444 E14.9045
G1 X80.318 Y158.428 E14.9053
G1 X80.192 Y158.223 E14.9147
G1 X80.182 Y158.206 E14.9155
G1 X78.731 Y155.524 E15.0348
G1 X78.722 Y155.506 E15.0356
G1 X78.619 Y155.288 E15.0450
G1 X78.611 Y155.270 E15.0457
G1 X78.021 Y153.817 E15.1071
G1 X77.953 Y153.983 E15.1141
G1 X77.945 Y154.002 E15.1149
G1 X76.644 Y156.760 E15.2342
G1 X76.635 Y156.777 E15.2349
G1 X76.520 Y156.989 E15.2443
G1 X76.511 Y157.006 E15.2451
G1 X74.913 Y159.604 E15.3644
G1 X74.903 Y159.621 E15.3652
G1 X74.766 Y159.818 E15.3746
G1 X74.754 Y159.834 E15.3754
G1 X72.881 Y162.241 E15.4946
G1 X72.868 Y162.256 E15.4954
G1 X72.711 Y162.437 E15.5048
G1 X72.697 Y162.452 E15.5056
G1 X70.579 Y164.630 E15.6244
G1 X70.565 Y164.644 E15.6252
G1 X70.388 Y164.806 E15.6346
G1 X70.373 Y164.819 E15.6353
G1 X68.032 Y166.749 E15.7540
G1 X68.017 Y166.761 E15.7548
G1 X67.824 Y166.903 E15.7641
G1 X67.808 Y166.914 E15.7649
G1 X65.234 Y168.599 E15.8852
G1 X65.217 Y168.609 E15.8860
G1 X65.007 Y168.731 E15.8955
G1 X64.989 Y168.740 E15.8963
G1 X62.267 Y170.118 E16.0156
G1 X62.249 Y170.126 E16.0164
G1 X62.029 Y170.223 E16.0258
G1 X62.011 Y170.230 E16.0266
G1 X59.155 Y171.300 E16.1459
G1 X59.136 Y171.306 E16.1466
G1 X58.906 Y171.378 E16.1560
G1 X58.887 Y171.383 E16.1568
G1 X55.931 Y172.132 E16.2761
G1 X55.911 Y172.136 E16.2769
G1 X55.676 Y172.182 E16.2863
G1 X55.656 Y172.186 E16.2871
G1 X52.635 Y172.605 E16.4064
G1 X52.615 Y172.607 E16.4071
G1 X52.376 Y172.627 E16.4165
G1 X52.356 Y172.628 E16.4173
G1 X49.307 Y172.712 E16.5366
G1 X49.287 Y172.712 E16.5374
G1 X49.047 Y172.705 E16.5468
G1 X49.027 Y172.704 E16.5476
G1 X45.988 Y172.452 E16.6668
G1 X45.968 Y172.450 E16.6676
G1 X45.730 Y172.417 E16.6770
G1 X45.711 Y172.414 E16.6778
G1 X42.717 Y171.829 E16.7971
G1 X42.698 Y171.825 E16.7979
G1 X42.465 Y171.766 E16.8073
G1 X42.446 Y171.760 E16.8080
G1 X39.535 Y170.850 E16.9273
G1 X39.516 Y170.844 E16.9281
G1 X39.291 Y170.759 E16.9375
G1 X39.273 Y170.752 E16.9383
G1 X36.480 Y169.527 E17.0576
G1 X36.462 Y169.518 E17.0584
G1 X36.248 Y169.410 E17.0677
G1 X36.230 Y169.400 E17.0685
G1 X33.608 Y167.887 E17.1870
G1 X33.591 Y167.876 E17.1877
G1 X33.391 Y167.746 E17.1971
G1 X33.374 Y167.734 E17.1979
