; generated by Slic3r 1.2.9 on 2017-11-16 at 14:22:06

; external perimeters extrusion width = 0.40mm
; perimeters extrusion width = 0.68mm
; infill extrusion width = 0.87mm
; solid infill extrusion width = 0.68mm
; top infill extrusion width = 0.68mm
; support material extrusion width = 0.40mm

M107
M190 S60 ; set bed temperature
M104 S200 ; set temperature
G28 ; home all axes
G1 Z5 F5000 ; lift nozzle

M109 S200 ; wait for temperature to be reached
G21 ; set units to millimeters
G90 ; use absolute coordinates
M82 ; use absolute distances for extrusion
G92 E0
G1 Z0.200 F7800.000
G1 E-3.00000 F2400.00000
G92 E0
G1 Z1.200 F7800.000
G1 X63.129 Y52.338 F7800.000
G1 Z0.200 F7800.000
G1 E3.00000 F2400.00000
G1 X64.537 Y50.640 E3.11296 F3600.000
G1 X65.016 Y50.122 E3.14908
G1 X66.961 Y48.228 E3.28806
G1 X67.492 Y47.763 E3.32418
G1 X69.627 Y46.087 E3.46316
G1 X70.204 Y45.682 E3.49928
G1 X72.505 Y44.242 E3.63825
G1 X73.122 Y43.900 E3.67438
G1 X75.563 Y42.713 E3.81336
G1 X76.213 Y42.439 E3.84947
G1 X78.767 Y41.518 E3.98845
G1 X79.442 Y41.314 E4.02457
G1 X82.079 Y40.670 E4.16355
G1 X82.772 Y40.539 E4.19967
G1 X85.463 Y40.179 E4.33864
G1 X86.166 Y40.123 E4.37477
G1 X88.879 Y40.051 E4.51375
G1 X89.585 Y40.069 E4.54987
G1 X92.290 Y40.286 E4.68885 F3600.000
G1 X92.989 Y40.379 E4.72491
G1 X96.038 Y40.966 E4.88393
G1 X99.302 Y41.954 E5.05852
G1 X102.106 Y43.128 E5.21414
G1 X102.740 Y43.437 E5.25026
G1 X105.114 Y44.752 E5.38923
G1 X105.541 Y45.010 E5.41478
G1 X108.259 Y46.930 E5.58512
G1 X110.777 Y49.136 E5.75656
G1 X112.878 Y51.396 E5.91456
G1 X113.328 Y51.939 E5.95066
G1 X115.130 Y54.377 E6.10588
G1 X141.406 Y93.531 E8.52011
G1 X141.808 Y94.215 E8.56075
G1 X142.043 Y94.676 E8.58722
G1 X142.441 Y95.637 E8.64048
G1 X143.346 Y98.423 E8.79049
G1 X143.589 Y99.435 E8.84374
G1 X143.670 Y99.945 E8.87021
G1 X143.751 Y100.982 E8.92347
G1 X143.751 Y103.912 E9.07348
G1 X143.670 Y104.949 E9.12673
G1 X143.589 Y105.460 E9.15321
G1 X143.346 Y106.471 E9.20646
G1 X142.441 Y109.258 E9.35647
G1 X142.043 Y110.218 E9.40972
G1 X141.808 Y110.679 E9.43620
G1 X141.265 Y111.566 E9.48945
G1 X139.505 Y113.988 E9.64271
G1 X114.243 Y148.061 E11.81442
G1 X113.819 Y148.575 E11.84856
G1 X111.696 Y150.861 E12.00828
G1 X109.393 Y152.888 E12.16534
G1 X108.849 Y153.313 E12.20072
G1 X106.457 Y154.990 E12.35026
G1 X106.030 Y155.248 E12.37584
G1 X103.655 Y156.563 E12.51481
G1 X103.021 Y156.872 E12.55094
G1 X100.151 Y158.070 E12.71015
G1 X97.257 Y158.950 E12.86506
G1 X96.845 Y159.060 E12.88685
G1 X93.905 Y159.620 E13.04012
G1 X93.205 Y159.714 E13.07624
G1 X90.500 Y159.931 E13.21522
G1 X89.795 Y159.949 E13.25134
G1 X87.081 Y159.877 E13.39031
G1 X86.378 Y159.821 E13.42644
G1 X83.687 Y159.461 E13.56542
G1 X82.994 Y159.330 E13.60154
G1 X80.357 Y158.686 E13.74051
G1 X79.682 Y158.482 E13.77663
G1 X77.160 Y157.573 E13.91387
G1 X76.479 Y157.287 E13.95173
G1 X74.037 Y156.100 E14.09070
G1 X73.420 Y155.758 E14.12683
G1 X71.119 Y154.318 E14.26580
G1 X70.542 Y153.913 E14.30192
G1 X68.407 Y152.237 E14.44090
G1 X67.876 Y151.772 E14.47702
G1 X65.931 Y149.878 E14.61602
G1 X65.453 Y149.360 E14.65212
G1 X63.720 Y147.270 E14.79110
G1 X63.300 Y146.704 E14.82722
G1 X61.799 Y144.442 E14.96619
G1 X61.441 Y143.834 E15.00232
G1 X60.189 Y141.426 E15.14129
G1 X59.898 Y140.783 E15.17741
G1 X58.909 Y138.255 E15.31639
G1 X58.688 Y137.585 E15.35251
G1 X57.974 Y134.967 E15.49149
G1 X57.824 Y134.277 E15.52761
G1 X57.393 Y131.597 E15.66658
G1 X57.318 Y130.896 E15.70271
G1 X57.173 Y128.185 E15.84169
G1 X56.249 Y72.276 E18.70460
G1 X56.258 Y71.815 E18.72825
G1 X56.402 Y69.104 E18.86723
G1 X56.477 Y68.403 E18.90335
G1 X56.909 Y65.723 E19.04232
G1 X57.058 Y65.033 E19.07845
G1 X57.763 Y62.447 E19.21568
G1 X57.994 Y61.745 E19.25354
G1 X58.982 Y59.217 E19.39252
G1 X59.274 Y58.574 E19.42864
G1 X60.526 Y56.166 E19.56761
G1 X60.884 Y55.558 E19.60374
G1 X62.384 Y53.296 E19.74271
G1 X62.805 Y52.730 E19.77883
G1 X63.091 Y52.385 E19.80178
G1 E16.80178 F2400.00000
G92 E0
G1 Z1.200 F7800.000
G1 X81.445 Y70.739 F7800.000
G1 Z0.200 F7800.000
G1 E3.00000 F2400.00000
G1 X81.589 Y70.595 E3.01040 F3600.000
G1 X82.135 Y70.213 E3.04455
G1 X82.740 Y69.931 E3.07870
G1 X83.384 Y69.758 E3.11284
G1 X84.037 Y69.701 E3.14643 F3600.000
G1 X84.711 Y69.758 E3.18101
G1 X85.357 Y69.931 E3.21528
G1 X85.961 Y70.213 E3.24942
G1 X86.508 Y70.595 E3.28357
G1 X86.979 Y71.067 E3.31772
G1 X87.362 Y71.613 E3.35186
G1 X87.644 Y72.218 E3.38601
G1 X87.816 Y72.862 E3.42016
G1 X87.874 Y73.526 E3.45430
G1 X87.816 Y74.191 E3.48845
G1 X87.644 Y74.835 E3.52260
G1 X87.362 Y75.439 E3.55674
G1 X86.979 Y75.986 E3.59089
G1 X86.508 Y76.457 E3.62504
G1 X85.961 Y76.840 E3.65918
G1 X85.357 Y77.122 E3.69333
G1 X84.713 Y77.294 E3.72748
G1 X84.048 Y77.352 E3.76162
G1 X83.384 Y77.294 E3.79577
G1 X82.740 Y77.122 E3.82992
G1 X82.135 Y76.840 E3.86406
G1 X81.589 Y76.457 E3.89821
G1 X81.117 Y75.986 E3.93236
G1 X80.735 Y75.439 E3.96650
G1 X80.453 Y74.835 E4.00065
G1 X80.280 Y74.191 E4.03480
G1 X80.222 Y73.526 E4.06894
G1 X80.280 Y72.862 E4.10309
G1 X80.453 Y72.218 E4.13723
G1 X80.735 Y71.613 E4.17138
G1 X81.117 Y71.067 E4.20553
G1 X81.403 Y70.781 E4.22620
G1 X81.847 Y71.226 F7800.000
G1 X81.994 Y71.079 E4.23686 F3600.000
G1 X82.451 Y70.759 E4.26538
G1 X82.956 Y70.524 E4.29390
G1 X83.494 Y70.380 E4.32241
G1 X84.039 Y70.332 E4.35042 F3600.000
G1 X84.602 Y70.379 E4.37938
G1 X85.141 Y70.524 E4.40796
G1 X85.646 Y70.759 E4.43648
G1 X86.102 Y71.079 E4.46499
G1 X86.496 Y71.472 E4.49351
G1 X86.816 Y71.929 E4.52203
G1 X87.051 Y72.433 E4.55055
G1 X87.195 Y72.971 E4.57907
G1 X87.244 Y73.526 E4.60758
G1 X87.195 Y74.081 E4.63610
G1 X87.051 Y74.619 E4.66462
G1 X86.816 Y75.124 E4.69314
G1 X86.496 Y75.580 E4.72165
G1 X86.102 Y75.974 E4.75017
G1 X85.646 Y76.294 E4.77869
G1 X85.141 Y76.529 E4.80721
G1 X84.603 Y76.673 E4.83572
G1 X84.048 Y76.722 E4.86424
G1 X83.494 Y76.673 E4.89276
G1 X82.956 Y76.529 E4.92128
G1 X82.451 Y76.294 E4.94980
G1 X81.994 Y75.974 E4.97831
G1 X81.601 Y75.580 E5.00683
G1 X81.281 Y75.124 E5.03535
G1 X81.046 Y74.619 E5.06387
G1 X80.902 Y74.081 E5.09238
G1 X80.853 Y73.526 E5.12090
G1 X80.902 Y72.971 E5.14942
G1 X81.046 Y72.433 E5.17794
G1 X81.281 Y71.929 E5.20645
G1 X81.601 Y71.472 E5.23497
G1 X81.805 Y71.268 E5.24976
G1 X82.153 Y71.617 F7800.000
G1 X82.312 Y71.457 E5.25631 F3600.000
G1 X82.698 Y71.187 E5.27001
G1 X83.125 Y70.988 E5.28370
G1 X83.579 Y70.867 E5.29740
G1 X84.039 Y70.826 E5.31084 F3600.000
G1 X84.517 Y70.867 E5.32479
G1 X84.972 Y70.988 E5.33849
G1 X85.399 Y71.187 E5.35219
G1 X85.784 Y71.457 E5.36589
G1 X86.117 Y71.790 E5.37959
G1 X86.387 Y72.176 E5.39329
G1 X86.586 Y72.603 E5.40699
G1 X86.708 Y73.057 E5.42068
G1 X86.749 Y73.526 E5.43438
G1 X86.708 Y73.995 E5.44808
G1 X86.586 Y74.450 E5.46178
G1 X86.387 Y74.877 E5.47548
G1 X86.117 Y75.262 E5.48918
G1 X85.784 Y75.595 E5.50287
G1 X85.399 Y75.865 E5.51657
G1 X84.972 Y76.064 E5.53027
G1 X84.517 Y76.186 E5.54397
G1 X84.048 Y76.227 E5.55767
G1 X83.579 Y76.186 E5.57137
G1 X83.125 Y76.064 E5.58506
G1 X82.698 Y75.865 E5.59876
G1 X82.312 Y75.595 E5.61246
G1 X81.979 Y75.262 E5.62616
G1 X81.709 Y74.877 E5.63986
G1 X81.511 Y74.450 E5.65356
G1 X81.389 Y73.995 E5.66725
G1 X81.348 Y73.526 E5.68095
G1 X81.389 Y73.057 E5.69465
G1 X81.511 Y72.603 E5.70835
G1 X81.709 Y72.176 E5.72205
G1 X81.979 Y71.790 E5.73575
G1 X82.111 Y71.659 E5.74115
G1 X82.095 Y71.399 F7800.000
G1 E2.74115 F2400.00000
G92 E0
G1 Z1.200 F7800.000
G1 X83.215 Y80.940 F7800.000
G1 Z0.200 F7800.000
G1 E3.00000 F2400.00000
G1 X82.874 Y80.940 E3.01743 F3600.000
G1 X80.641 Y80.214 E3.13766
G1 X78.741 Y78.834 E3.25790
G1 X77.360 Y76.934 E3.37814
G1 X76.635 Y74.701 E3.49838
G1 X76.635 Y72.352 E3.61862
G1 X77.360 Y70.119 E3.73886
G1 X78.741 Y68.219 E3.85910
G1 X80.641 Y66.838 E3.97934
G1 X82.874 Y66.113 E4.09958
G1 X85.223 Y66.113 E4.21982
G1 X87.456 Y66.838 E4.34006
G1 X89.356 Y68.219 E4.46030 F3600.000
G1 X90.736 Y70.119 E4.58054
G1 X91.462 Y72.352 E4.70078
G1 X91.462 Y74.701 E4.82102
G1 X90.736 Y76.934 E4.94126
G1 X89.356 Y78.834 E5.06150
G1 X87.456 Y80.214 E5.18173
G1 X85.223 Y80.940 E5.30197
G1 X83.275 Y80.940 E5.40172
G1 X83.275 Y81.568 F7800.000
G1 X82.978 Y81.568 E5.41689 F3600.000
G1 X82.876 Y82.089 E5.44406
G1 X82.517 Y82.032 E5.46267
G1 X82.581 Y81.505 E5.48984
G1 X80.545 Y80.844 E5.59944
G1 X80.288 Y81.308 E5.62660
G1 X79.964 Y81.143 E5.64522
G1 X80.187 Y80.662 E5.67238
G1 X78.456 Y79.403 E5.78198
G1 X78.067 Y79.765 E5.80914
G1 X77.810 Y79.508 E5.82776
G1 X78.171 Y79.119 E5.85492
G1 X76.913 Y77.387 E5.96452
G1 X76.432 Y77.611 E5.99168
G1 X76.267 Y77.287 E6.01030
G1 X76.731 Y77.029 E6.03746
G1 X76.069 Y74.994 E6.14706
G1 X75.543 Y75.058 E6.17422
G1 X75.486 Y74.698 E6.19284
G1 X76.006 Y74.597 E6.22001
G1 X76.006 Y72.456 E6.32960
G1 X75.486 Y72.354 E6.35677
G1 X75.543 Y71.995 E6.37539
G1 X76.069 Y72.059 E6.40255
G1 X76.731 Y70.023 E6.51215
G1 X76.267 Y69.766 E6.53931
G1 X76.432 Y69.442 E6.55793
G1 X76.913 Y69.665 E6.58509
G1 X78.171 Y67.933 E6.69469
G1 X77.810 Y67.545 E6.72185
G1 X78.067 Y67.288 E6.74047
G1 X78.456 Y67.649 E6.76764
G1 X80.187 Y66.391 E6.87723
G1 X79.964 Y65.910 E6.90440
G1 X80.288 Y65.745 E6.92301
G1 X80.545 Y66.209 E6.95018
G1 X82.581 Y65.547 E7.05977
G1 X82.517 Y65.021 E7.08694
G1 X82.876 Y64.964 E7.10556
G1 X82.978 Y65.484 E7.13272
G1 X85.119 Y65.484 E7.24232
G1 X85.221 Y64.964 E7.26948
G1 X85.580 Y65.021 E7.28810
G1 X85.516 Y65.547 E7.31526 F3600.000
G1 X87.551 Y66.209 E7.42486
G1 X87.809 Y65.745 E7.45202
G1 X88.133 Y65.910 E7.47064
G1 X87.909 Y66.391 E7.49781
G1 X89.641 Y67.649 E7.60741
G1 X90.030 Y67.288 E7.63457
G1 X90.287 Y67.545 E7.65319
G1 X89.925 Y67.933 E7.68035
G1 X91.184 Y69.665 E7.78995
G1 X91.665 Y69.442 E7.81711
G1 X91.830 Y69.766 E7.83573
G1 X91.366 Y70.023 E7.86289
G1 X92.028 Y72.059 E7.97249
G1 X92.554 Y71.995 E7.99965
G1 X92.611 Y72.354 E8.01827
G1 X92.090 Y72.456 E8.04544
G1 X92.090 Y74.597 E8.15503
G1 X92.611 Y74.698 E8.18220
G1 X92.554 Y75.058 E8.20082
G1 X92.028 Y74.994 E8.22798
G1 X91.366 Y77.029 E8.33758
G1 X91.830 Y77.287 E8.36474
G1 X91.665 Y77.611 E8.38336
G1 X91.184 Y77.387 E8.41053
G1 X89.925 Y79.119 E8.52012
G1 X90.287 Y79.508 E8.54728
G1 X90.030 Y79.765 E8.56590
G1 X89.641 Y79.403 E8.59307
G1 X87.909 Y80.662 E8.70266
G1 X88.133 Y81.143 E8.72983
G1 X87.809 Y81.308 E8.74845
G1 X87.551 Y80.844 E8.77561
G1 X85.516 Y81.505 E8.88521
G1 X85.581 Y82.040 E8.91280
G1 X85.222 Y82.098 E8.93139
G1 X85.117 Y81.568 E8.95903
G1 X83.335 Y81.568 E9.05029
G1 X83.384 Y82.061 F7800.000
G1 X83.240 Y82.798 E9.07215 F3600.000
G1 X83.051 Y83.325 E9.08844
G1 X82.776 Y83.840 E9.10541
G1 X82.496 Y84.212 E9.11897
G1 X82.223 Y84.169 E9.12701
G1 X82.072 Y83.728 E9.14058
G1 X81.969 Y83.166 E9.15720
G1 X81.952 Y82.594 E9.17383
G1 X82.043 Y81.849 E9.19569
G1 X80.779 Y81.438 E9.23436
G1 X80.414 Y82.095 E9.25622
G1 X80.065 Y82.547 E9.27285
G1 X79.651 Y82.941 E9.28948
G1 X79.270 Y83.209 E9.30304
G1 X79.024 Y83.084 E9.31109
G1 X79.016 Y82.618 E9.32465
G1 X79.092 Y82.051 E9.34128
G1 X79.253 Y81.503 E9.35791
G1 X79.570 Y80.822 E9.37976
G1 X78.494 Y80.040 E9.41844
G1 X77.944 Y80.552 E9.44030
G1 X77.472 Y80.874 E9.45693
G1 X76.957 Y81.122 E9.47355
G1 X76.512 Y81.259 E9.48712
G1 X76.316 Y81.063 E9.49516
G1 X76.453 Y80.618 E9.50873
G1 X76.701 Y80.103 E9.52535
G1 X77.023 Y79.631 E9.54198
G1 X77.534 Y79.081 E9.56384
G1 X76.753 Y78.005 E9.60252
G1 X76.072 Y78.322 E9.62437
G1 X75.523 Y78.482 E9.64100
G1 X74.957 Y78.559 E9.65763
G1 X74.491 Y78.551 E9.67119
G1 X74.365 Y78.305 E9.67924
G1 X74.633 Y77.923 E9.69280
G1 X75.028 Y77.510 E9.70943
G1 X75.480 Y77.161 E9.72606
G1 X76.137 Y76.796 E9.74792
G1 X75.726 Y75.532 E9.78659
G1 X74.980 Y75.622 E9.80845
G1 X74.409 Y75.605 E9.82508
G1 X73.847 Y75.503 E9.84171
G1 X73.406 Y75.352 E9.85527
G1 X73.363 Y75.079 E9.86331
G1 X73.735 Y74.799 E9.87688
G1 X74.238 Y74.528 E9.89351
G1 X74.776 Y74.335 E9.91013
G1 X75.514 Y74.191 E9.93199
G1 X75.514 Y72.862 E9.97067
G1 X74.776 Y72.718 E9.99253
G1 X74.238 Y72.525 E10.00915
G1 X73.735 Y72.254 E10.02578
G1 X73.363 Y71.974 E10.03935
G1 X73.406 Y71.701 E10.04739
G1 X73.847 Y71.549 E10.06096
G1 X74.409 Y71.447 E10.07758
G1 X74.980 Y71.430 E10.09421
G1 X75.726 Y71.521 E10.11607
G1 X76.137 Y70.257 E10.15474
G1 X75.480 Y69.892 E10.17660
G1 X75.028 Y69.543 E10.19323
G1 X74.633 Y69.129 E10.20986
G1 X74.365 Y68.748 E10.22342
G1 X74.491 Y68.501 E10.23147
G1 X74.957 Y68.494 E10.24503
G1 X75.523 Y68.570 E10.26166
G1 X76.072 Y68.731 E10.27829
G1 X76.753 Y69.047 E10.30014
G1 X77.534 Y67.972 E10.33882
G1 X77.023 Y67.422 E10.36068
G1 X76.701 Y66.950 E10.37731
G1 X76.453 Y66.435 E10.39393
G1 X76.316 Y65.989 E10.40750
G1 X76.512 Y65.794 E10.41554
G1 X76.957 Y65.931 E10.42911
G1 X77.472 Y66.178 E10.44573
G1 X77.944 Y66.501 E10.46236
G1 X78.494 Y67.012 E10.48422
G1 X79.570 Y66.231 E10.52290
G1 X79.253 Y65.550 E10.54475
G1 X79.092 Y65.001 E10.56138
G1 X79.016 Y64.435 E10.57801
G1 X79.024 Y63.969 E10.59157
G1 X79.270 Y63.843 E10.59962
G1 X79.651 Y64.111 E10.61318
G1 X80.065 Y64.506 E10.62981
G1 X80.414 Y64.958 E10.64644
G1 X80.779 Y65.615 E10.66830
G1 X82.043 Y65.204 E10.70697
G1 X81.952 Y64.458 E10.72883
G1 X81.969 Y63.887 E10.74546
G1 X82.072 Y63.325 E10.76209
G1 X82.223 Y62.884 E10.77565
G1 X82.496 Y62.841 E10.78369
G1 X82.776 Y63.213 E10.79726
G1 X83.047 Y63.716 E10.81389
G1 X83.240 Y64.254 E10.83051
G1 X83.384 Y64.992 E10.85237
G1 X84.713 Y64.992 E10.89105
G1 X84.857 Y64.254 E10.91291
G1 X85.046 Y63.727 E10.92919
G1 X85.321 Y63.213 E10.94617
G1 X85.601 Y62.841 E10.95972
G1 X85.866 Y62.883 E10.96752
G1 X86.026 Y63.326 E10.98125 F3600.000
G1 X86.128 Y63.887 E10.99783
G1 X86.144 Y64.458 E11.01446
G1 X86.054 Y65.204 E11.03632
G1 X87.318 Y65.615 E11.07499
G1 X87.683 Y64.958 E11.09685
G1 X88.032 Y64.506 E11.11348
G1 X88.445 Y64.111 E11.13011
G1 X88.827 Y63.843 E11.14367
G1 X89.073 Y63.969 E11.15171
G1 X89.081 Y64.435 E11.16528
G1 X89.004 Y65.001 E11.18191
G1 X88.844 Y65.550 E11.19853
G1 X88.527 Y66.231 E11.22039
G1 X89.603 Y67.012 E11.25907
G1 X90.153 Y66.501 E11.28093
G1 X90.615 Y66.185 E11.29721
G1 X91.140 Y65.931 E11.31419
G1 X91.585 Y65.794 E11.32774
G1 X91.781 Y65.989 E11.33579
G1 X91.644 Y66.435 E11.34935
G1 X91.396 Y66.950 E11.36598
G1 X91.074 Y67.422 E11.38261
G1 X90.562 Y67.972 E11.40446
G1 X91.344 Y69.047 E11.44314
G1 X92.025 Y68.731 E11.46500
G1 X92.573 Y68.570 E11.48163
G1 X93.140 Y68.494 E11.49825
G1 X93.606 Y68.501 E11.51182
G1 X93.731 Y68.748 E11.51986
G1 X93.464 Y69.129 E11.53343
G1 X93.069 Y69.543 E11.55006
G1 X92.617 Y69.892 E11.56668
G1 X91.960 Y70.257 E11.58854
G1 X92.371 Y71.521 E11.62722
G1 X93.116 Y71.430 E11.64908
G1 X93.688 Y71.447 E11.66570
G1 X94.250 Y71.549 E11.68233
G1 X94.691 Y71.701 E11.69590
G1 X94.734 Y71.974 E11.70394
G1 X94.361 Y72.254 E11.71750
G1 X93.858 Y72.525 E11.73413
G1 X93.320 Y72.718 E11.75076
G1 X92.583 Y72.862 E11.77262
G1 X92.583 Y74.191 E11.81129
G1 X93.320 Y74.335 E11.83315
G1 X93.858 Y74.528 E11.84978
G1 X94.361 Y74.799 E11.86641
G1 X94.734 Y75.079 E11.87997
G1 X94.691 Y75.352 E11.88801
G1 X94.250 Y75.503 E11.90158
G1 X93.688 Y75.605 E11.91821
G1 X93.116 Y75.622 E11.93483
G1 X92.371 Y75.532 E11.95669
G1 X91.960 Y76.796 E11.99537
G1 X92.617 Y77.161 E12.01723
G1 X93.069 Y77.510 E12.03385
G1 X93.464 Y77.923 E12.05048
G1 X93.731 Y78.305 E12.06405
G1 X93.606 Y78.551 E12.07209
G1 X93.140 Y78.559 E12.08566
G1 X92.573 Y78.482 E12.10228
G1 X92.025 Y78.322 E12.11891
G1 X91.344 Y78.005 E12.14077
G1 X90.562 Y79.081 E12.17945
G1 X91.074 Y79.631 E12.20130
G1 X91.390 Y80.093 E12.21759
G1 X91.644 Y80.618 E12.23456
G1 X91.781 Y81.063 E12.24812
G1 X91.585 Y81.259 E12.25616
G1 X91.140 Y81.122 E12.26973
G1 X90.625 Y80.874 E12.28636
G1 X90.153 Y80.552 E12.30298
G1 X89.603 Y80.040 E12.32484
G1 X88.527 Y80.822 E12.36352
G1 X88.844 Y81.503 E12.38538
G1 X89.004 Y82.051 E12.40200
G1 X89.081 Y82.618 E12.41863
G1 X89.073 Y83.084 E12.43220
G1 X88.827 Y83.209 E12.44024
G1 X88.445 Y82.941 E12.45380
G1 X88.032 Y82.547 E12.47043
G1 X87.683 Y82.095 E12.48706
G1 X87.318 Y81.438 E12.50892
G1 X86.054 Y81.849 E12.54759
G1 X86.144 Y82.594 E12.56945
G1 X86.128 Y83.166 E12.58608
G1 X86.025 Y83.728 E12.60271
G1 X85.874 Y84.169 E12.61627
G1 X85.601 Y84.212 E12.62431
