; G-Code generated by Simplify3D(R) Version 4.0.0
; Apr 18, 2018 at 6:39:56 PM
; Settings Summary
;   processName,Con Soporte
;   applyToModels,Muslo
;   profileName,Gusty (modified)
;   profileVersion,2017-03-01 08:00:00
;   baseProfile,Default (modified)
;   printMaterial,PLA
;   printQuality,Medium
;   printExtruders,
;   extruderName,Primary Extruder
;   extruderToolheadNumber,0
;   extruderDiameter,0.4
;   extruderAutoWidth,1
;   extruderWidth,0.48
;   extrusionMultiplier,0.98
;   extruderUseRetract,1
;   extruderRetractionDistance,1
;   extruderExtraRestartDistance,0
;   extruderRetractionZLift,0
;   extruderRetractionSpeed,1800
;   extruderUseCoasting,0
;   extruderCoastingDistance,0.2
;   extruderUseWipe,0
;   extruderWipeDistance,5
;   primaryExtruder,0
;   layerHeight,0.15
;   topSolidLayers,4
;   bottomSolidLayers,3
;   perimeterOutlines,2
;   printPerimetersInsideOut,1
;   startPointOption,2
;   startPointOriginX,0
;   startPointOriginY,0
;   sequentialIslands,0
;   spiralVaseMode,0
;   firstLayerHeightPercentage,90
;   firstLayerWidthPercentage,100
;   firstLayerUnderspeed,0.5
;   useRaft,0
;   raftExtruder,0
;   raftTopLayers,3
;   raftBaseLayers,2
;   raftOffset,3
;   raftSeparationDistance,0.14
;   raftTopInfill,100
;   aboveRaftSpeedMultiplier,0.3
;   useSkirt,1
;   skirtExtruder,0
;   skirtLayers,1
;   skirtOutlines,2
;   skirtOffset,4
;   usePrimePillar,0
;   primePillarExtruder,999
;   primePillarWidth,12
;   primePillarLocation,7
;   primePillarSpeedMultiplier,1
;   useOozeShield,0
;   oozeShieldExtruder,999
;   oozeShieldOffset,2
;   oozeShieldOutlines,1
;   oozeShieldSidewallShape,1
;   oozeShieldSidewallAngle,30
;   oozeShieldSpeedMultiplier,1
;   infillExtruder,0
;   internalInfillPattern,Rectilinear
;   externalInfillPattern,Rectilinear
;   infillPercentage,15
;   outlineOverlapPercentage,15
;   infillExtrusionWidthPercentage,100
;   minInfillLength,5
;   infillLayerInterval,1
;   internalInfillAngles,45,-45
;   overlapInternalInfillAngles,0
;   externalInfillAngles,45,-45
;   generateSupport,1
;   supportExtruder,0
;   supportInfillPercentage,30
;   supportExtraInflation,0
;   supportBaseLayers,0
;   denseSupportExtruder,0
;   denseSupportLayers,0
;   denseSupportInfillPercentage,70
;   supportLayerInterval,1
;   supportHorizontalPartOffset,0.3
;   supportUpperSeparationLayers,1
;   supportLowerSeparationLayers,1
;   supportType,0
;   supportGridSpacing,4
;   maxOverhangAngle,45
;   supportAngles,0
;   temperatureName,Primary Extruder,Cama
;   temperatureNumber,0,1
;   temperatureSetpointCount,1,1
;   temperatureSetpointLayers,1,1
;   temperatureSetpointTemperatures,190,60
;   temperatureStabilizeAtStartup,1,1
;   temperatureHeatedBed,0,1
;   temperatureRelayBetweenLayers,0,0
;   temperatureRelayBetweenLoops,1,1
;   fanLayers,1,2
;   fanSpeeds,0,100
;   blipFanToFullPower,0
;   adjustSpeedForCooling,1
;   minSpeedLayerTime,15
;   minCoolingSpeedSlowdown,20
;   increaseFanForCooling,0
;   minFanLayerTime,45
;   maxCoolingFanSpeed,100
;   increaseFanForBridging,0
;   bridgingFanSpeed,100
;   use5D,1
;   relativeEdistances,0
;   allowEaxisZeroing,1
;   independentExtruderAxes,0
;   includeM10123,0
;   stickySupport,1
;   applyToolheadOffsets,0
;   gcodeXoffset,0
;   gcodeYoffset,0
;   gcodeZoffset,0
;   overrideMachineDefinition,0
;   machineTypeOverride,0
;   strokeXoverride,200
;   strokeYoverride,200
;   strokeZoverride,200
;   originOffsetXoverride,0
;   originOffsetYoverride,0
;   originOffsetZoverride,0
;   homeXdirOverride,-1
;   homeYdirOverride,-1
;   homeZdirOverride,-1
;   flipXoverride,1
;   flipYoverride,-1
;   flipZoverride,1
;   toolheadOffsets,0,0|0,0|0,0|0,0|0,0|0,0
;   overrideFirmwareConfiguration,0
;   firmwareTypeOverride,RepRap (Marlin/Repetier/Sprinter)
;   GPXconfigOverride,r2
;   baudRateOverride,115200
;   overridePrinterModels,0
;   printerModelsOverride
;   startingGcode,G28 ; home all axes
;   layerChangeGcode,
;   retractionGcode,
;   toolChangeGcode,
;   endingGcode,G28 X; Home X,M104 S0 ; turn off extruder,M140 S0 ; turn off bed,M84 ; disable motors
;   exportFileFormat,gcode
;   celebration,0
;   celebrationSong,Random Song
;   postProcessing,
;   defaultSpeed,3600
;   outlineUnderspeed,0.5
;   solidInfillUnderspeed,0.8
;   supportUnderspeed,0.8
;   rapidXYspeed,4800
;   rapidZspeed,1000
;   minBridgingArea,50
;   bridgingExtraInflation,0
;   bridgingExtrusionMultiplier,1
;   bridgingSpeedMultiplier,1.1
;   useFixedBridgingAngle,0
;   fixedBridgingAngle,0
;   applyBridgingToPerimeters,0
;   filamentDiameters,1.75|1.75|1.75|1.75|1.75|1.75
;   filamentPricesPerKg,190|46|46|46|46|46
;   filamentDensities,1.25|1.25|1.25|1.25|1.25|1.25
;   useMinPrintHeight,0
;   minPrintHeight,0
;   useMaxPrintHeight,0
;   maxPrintHeight,0
;   useDiaphragm,0
;   diaphragmLayerInterval,20
;   robustSlicing,1
;   mergeAllIntoSolid,0
;   onlyRetractWhenCrossingOutline,1
;   retractBetweenLayers,1
;   useRetractionMinTravel,0
;   retractionMinTravel,3
;   retractWhileWiping,0
;   onlyWipeOutlines,1
;   avoidCrossingOutline,0
;   maxMovementDetourFactor,3
;   toolChangeRetractionDistance,12
;   toolChangeExtraRestartDistance,-0.5
;   toolChangeRetractionSpeed,600
;   externalThinWallType,0
;   internalThinWallType,2
;   thinWallAllowedOverlapPercentage,10
;   singleExtrusionMinLength,1
;   singleExtrusionMinPrintingWidthPercentage,50
;   singleExtrusionMaxPrintingWidthPercentage,200
;   singleExtrusionEndpointExtension,0.2
;   horizontalSizeCompensation,0
G90
M82
M106 S0
M140 S60
M190 S60
M104 S190 T0
M109 S190 T0
G28 ; home all axes
G92 E0
G1 E-1.0000 F1800
G1 Z0.135 F1000
; process Con Soporte
; layer 1, Z = 0.135
T0
; tool H0.150 W0.480
; skirt
G1 X77.715 Y79.170 F4800
G1 E0.0000 F540
G92 E0
G1 X77.980 Y79.060 E0.0084 F1800
G1 X78.239 Y79.060 E0.0160
G1 X79.060 Y78.260 E0.0496
G1 X79.060 Y77.980 E0.0578
G1 X79.170 Y77.715 E0.0663
G1 X81.715 Y75.170 E0.1719
G1 X81.980 Y75.060 E0.1803
G1 X82.954 Y75.060 E0.2089
G1 X83.060 Y74.994 E0.2125
G1 X83.060 Y73.980 E0.2423
G1 X83.170 Y73.715 E0.2507
G1 X85.715 Y71.170 E0.3563
G1 X85.980 Y71.060 E0.3647
G1 X91.298 Y71.060 E0.5207
G1 X91.387 Y71.033 E0.5234
G1 X91.405 Y71.028 E0.5240
G1 X94.268 Y70.329 E0.6104
G1 X94.286 Y70.325 E0.6110
G1 X94.515 Y70.282 E0.6178
G1 X94.534 Y70.279 E0.6183
G1 X97.454 Y69.888 E0.7048
G1 X97.473 Y69.886 E0.7053
G1 X97.705 Y69.867 E0.7121
G1 X97.724 Y69.866 E0.7127
G1 X100.669 Y69.788 E0.7991
G1 X100.688 Y69.788 E0.7997
G1 X100.921 Y69.794 E0.8065
G1 X100.940 Y69.795 E0.8071
G1 X103.877 Y70.030 E0.8935
G1 X103.896 Y70.032 E0.8941
G1 X104.126 Y70.063 E0.9009
G1 X104.145 Y70.066 E0.9015
G1 X107.040 Y70.612 E0.9879
G1 X107.059 Y70.616 E0.9885
G1 X107.285 Y70.671 E0.9953
G1 X107.303 Y70.676 E0.9958
G1 X108.577 Y71.060 E1.0349
G1 X114.020 Y71.060 E1.1945
G1 X114.285 Y71.170 E1.2029
G1 X116.830 Y73.715 E1.3086
G1 X116.940 Y73.980 E1.3170
G1 X116.940 Y75.013 E1.3473
G1 X117.007 Y75.060 E1.3497
G1 X118.020 Y75.060 E1.3794
G1 X118.285 Y75.170 E1.3878
G1 X120.830 Y77.715 E1.4934
G1 X120.940 Y77.980 E1.5018
G1 X120.940 Y78.215 E1.5087
G1 X120.985 Y78.255 E1.5105
G1 X120.999 Y78.268 E1.5110
G1 X121.166 Y78.430 E1.5178
G1 X121.179 Y78.443 E1.5184
G1 X121.748 Y79.060 E1.5430
G1 X122.020 Y79.060 E1.5510
G1 X122.285 Y79.170 E1.5594
G1 X124.830 Y81.715 E1.6650
G1 X124.940 Y81.980 E1.6734
G1 X124.940 Y82.956 E1.7021
G1 X125.017 Y83.060 E1.7058
G1 X126.020 Y83.060 E1.7353
G1 X126.285 Y83.170 E1.7437
G1 X128.830 Y85.715 E1.8493
G1 X128.940 Y85.980 E1.8577
G1 X128.940 Y91.377 E2.0160
G1 X129.119 Y91.919 E2.0327
G1 X129.125 Y91.937 E2.0333
G1 X129.186 Y92.161 E2.0401
G1 X129.190 Y92.180 E2.0407
G1 X129.813 Y95.060 E2.1271
G1 X129.817 Y95.078 E2.1277
G1 X129.854 Y95.308 E2.1345
G1 X129.856 Y95.327 E2.1351
G1 X130.166 Y98.228 E2.2206
G1 X130.168 Y98.242 E2.2211
G1 X130.179 Y98.416 E2.2262
G1 X130.180 Y98.430 E2.2266
G1 X130.220 Y99.920 E2.2703
G1 X130.220 Y99.930 E2.2706
G1 X130.220 Y100.045 E2.2740
G1 X130.220 Y100.055 E2.2743
G1 X130.180 Y101.568 E2.3187
G1 X130.179 Y101.583 E2.3191
G1 X130.168 Y101.757 E2.3242
G1 X130.166 Y101.772 E2.3247
G1 X129.856 Y104.673 E2.4103
G1 X129.854 Y104.692 E2.4108
G1 X129.817 Y104.922 E2.4176
G1 X129.813 Y104.940 E2.4182
G1 X129.190 Y107.820 E2.5046
G1 X129.186 Y107.839 E2.5052
G1 X129.125 Y108.063 E2.5120
G1 X129.119 Y108.081 E2.5126
G1 X128.940 Y108.623 E2.5293
G1 X128.940 Y114.020 E2.6876
G1 X128.830 Y114.285 E2.6960
G1 X126.285 Y116.830 E2.8017
G1 X126.020 Y116.940 E2.8101
G1 X125.017 Y116.940 E2.8395
G1 X124.940 Y117.044 E2.8433
G1 X124.940 Y118.020 E2.8719
G1 X124.830 Y118.285 E2.8803
G1 X122.285 Y120.830 E2.9859
G1 X122.020 Y120.940 E2.9943
G1 X121.748 Y120.940 E3.0023
G1 X121.181 Y121.555 E3.0268
G1 X121.168 Y121.568 E3.0274
G1 X121.001 Y121.730 E3.0342
G1 X120.987 Y121.743 E3.0348
G1 X120.940 Y121.785 E3.0366
G1 X120.940 Y122.020 E3.0435
G1 X120.830 Y122.285 E3.0519
G1 X118.285 Y124.830 E3.1575
G1 X118.020 Y124.940 E3.1659
G1 X117.006 Y124.940 E3.1957
G1 X116.940 Y124.986 E3.1981
G1 X116.940 Y126.020 E3.2284
G1 X116.830 Y126.285 E3.2368
G1 X114.285 Y128.830 E3.3424
G1 X114.020 Y128.940 E3.3508
G1 X108.577 Y128.940 E3.5105
G1 X107.303 Y129.324 E3.5495
G1 X107.285 Y129.329 E3.5501
G1 X107.059 Y129.384 E3.5569
G1 X107.040 Y129.388 E3.5574
G1 X104.145 Y129.934 E3.6439
G1 X104.126 Y129.937 E3.6444
G1 X103.896 Y129.968 E3.6513
G1 X103.877 Y129.970 E3.6518
G1 X100.940 Y130.205 E3.7383
G1 X100.921 Y130.206 E3.7388
G1 X100.688 Y130.212 E3.7456
G1 X100.669 Y130.212 E3.7462
G1 X97.724 Y130.134 E3.8326
G1 X97.705 Y130.133 E3.8332
G1 X97.473 Y130.114 E3.8400
G1 X97.454 Y130.112 E3.8406
G1 X94.534 Y129.721 E3.9270
G1 X94.515 Y129.718 E3.9276
G1 X94.287 Y129.675 E3.9344
G1 X94.268 Y129.671 E3.9349
G1 X91.405 Y128.972 E4.0214
G1 X91.387 Y128.967 E4.0219
G1 X91.298 Y128.940 E4.0247
G1 X85.980 Y128.940 E4.1807
G1 X85.715 Y128.830 E4.1891
G1 X83.170 Y126.285 E4.2947
G1 X83.060 Y126.020 E4.3031
G1 X83.060 Y125.006 E4.3328
G1 X82.954 Y124.940 E4.3365
G1 X81.980 Y124.940 E4.3651
G1 X81.715 Y124.830 E4.3735
G1 X79.170 Y122.285 E4.4791
G1 X79.060 Y122.020 E4.4875
G1 X79.060 Y121.740 E4.4957
G1 X78.239 Y120.940 E4.5293
G1 X77.980 Y120.940 E4.5369
G1 X77.715 Y120.830 E4.5453
G1 X75.170 Y118.285 E4.6510
G1 X75.060 Y118.020 E4.6594
G1 X75.060 Y117.006 E4.6891
G1 X75.016 Y116.940 E4.6914
G1 X73.980 Y116.940 E4.7218
G1 X73.715 Y116.830 E4.7302
G1 X71.170 Y114.285 E4.8358
G1 X71.060 Y114.020 E4.8442
G1 X71.060 Y108.603 E5.0031
G1 X70.492 Y106.520 E5.0665
G1 X70.487 Y106.501 E5.0670
G1 X70.438 Y106.274 E5.0739
G1 X70.435 Y106.256 E5.0744
G1 X69.966 Y103.347 E5.1609
G1 X69.964 Y103.328 E5.1614
G1 X69.939 Y103.097 E5.1682
G1 X69.937 Y103.078 E5.1688
G1 X69.781 Y100.135 E5.2552
G1 X69.780 Y100.116 E5.2558
G1 X69.780 Y99.884 E5.2626
G1 X69.781 Y99.865 E5.2632
G1 X69.937 Y96.922 E5.3496
G1 X69.939 Y96.903 E5.3502
G1 X69.964 Y96.672 E5.3570
G1 X69.966 Y96.653 E5.3575
G1 X70.435 Y93.744 E5.4440
G1 X70.438 Y93.725 E5.4445
G1 X70.487 Y93.499 E5.4514
G1 X70.492 Y93.480 E5.4519
G1 X71.060 Y91.397 E5.5153
G1 X71.060 Y85.980 E5.6742
G1 X71.170 Y85.715 E5.6826
G1 X73.715 Y83.170 E5.7882
G1 X73.980 Y83.060 E5.7966
G1 X75.016 Y83.060 E5.8270
G1 X75.060 Y82.994 E5.8293
G1 X75.060 Y81.980 E5.8591
G1 X75.170 Y81.715 E5.8675
G1 X77.715 Y79.170 E5.9731
G1 X78.075 Y79.540 F4800
G92 E0
G1 X78.434 Y79.540 E0.0105 F1800
G1 X79.540 Y78.463 E0.0558
G1 X79.540 Y78.075 E0.0672
G1 X79.577 Y77.987 E0.0700
G1 X81.987 Y75.577 E0.1700
G1 X82.075 Y75.540 E0.1728
G1 X83.092 Y75.540 E0.2026
G1 X83.540 Y75.260 E0.2181
G1 X83.540 Y74.075 E0.2529
G1 X83.577 Y73.987 E0.2557
G1 X85.987 Y71.577 E0.3557
G1 X86.075 Y71.540 E0.3585
G1 X91.369 Y71.540 E0.5137
G1 X91.519 Y71.495 E0.5184
G1 X91.526 Y71.493 E0.5186
G1 X94.375 Y70.797 E0.6046
G1 X94.382 Y70.795 E0.6048
G1 X94.597 Y70.755 E0.6112
G1 X94.604 Y70.754 E0.6114
G1 X97.511 Y70.364 E0.6975
G1 X97.518 Y70.364 E0.6977
G1 X97.737 Y70.346 E0.7041
G1 X97.743 Y70.346 E0.7043
G1 X100.676 Y70.268 E0.7904
G1 X100.682 Y70.268 E0.7906
G1 X100.901 Y70.273 E0.7970
G1 X100.908 Y70.274 E0.7972
G1 X103.832 Y70.508 E0.8832
G1 X103.839 Y70.509 E0.8834
G1 X104.056 Y70.538 E0.8899
G1 X104.062 Y70.539 E0.8901
G1 X106.945 Y71.082 E0.9761
G1 X106.951 Y71.084 E0.9763
G1 X107.165 Y71.136 E0.9827
G1 X107.171 Y71.137 E0.9829
G1 X108.506 Y71.540 E1.0238
G1 X113.925 Y71.540 E1.1828
G1 X114.013 Y71.577 E1.1856
G1 X116.423 Y73.987 E1.2856
G1 X116.460 Y74.075 E1.2884
G1 X116.460 Y75.262 E1.3232
G1 X116.855 Y75.540 E1.3374
G1 X117.925 Y75.540 E1.3688
G1 X118.013 Y75.577 E1.3716
G1 X120.423 Y77.987 E1.4716
G1 X120.460 Y78.075 E1.4744
G1 X120.460 Y78.433 E1.4849
G1 X120.664 Y78.612 E1.4928
G1 X120.669 Y78.616 E1.4930
G1 X120.826 Y78.769 E1.4995
G1 X120.831 Y78.774 E1.4996
G1 X121.538 Y79.540 E1.5302
G1 X121.925 Y79.540 E1.5416
G1 X122.013 Y79.577 E1.5444
G1 X124.423 Y81.987 E1.6444
G1 X124.460 Y82.075 E1.6472
G1 X124.460 Y83.115 E1.6777
G1 X124.718 Y83.463 E1.6904
G1 X124.722 Y83.468 E1.6906
G1 X124.770 Y83.540 E1.6931
G1 X125.925 Y83.540 E1.7270
G1 X126.013 Y83.577 E1.7298
G1 X128.423 Y85.987 E1.8298
G1 X128.460 Y86.075 E1.8326
G1 X128.460 Y91.454 E1.9904
G1 X128.661 Y92.063 E2.0092
G1 X128.663 Y92.069 E2.0094
G1 X128.721 Y92.281 E2.0158
G1 X128.723 Y92.287 E2.0160
G1 X129.343 Y95.155 E2.1021
G1 X129.344 Y95.161 E2.1023
G1 X129.379 Y95.378 E2.1087
G1 X129.380 Y95.384 E2.1089
G1 X129.689 Y98.274 E2.1942
G1 X129.689 Y98.279 E2.1943
G1 X129.700 Y98.443 E2.1991
G1 X129.700 Y98.448 E2.1993
G1 X129.740 Y99.930 E2.2428
G1 X129.740 Y99.933 E2.2429
G1 X129.740 Y100.042 E2.2461
G1 X129.740 Y100.045 E2.2461
G1 X129.700 Y101.551 E2.2903
G1 X129.700 Y101.556 E2.2905
G1 X129.689 Y101.721 E2.2953
G1 X129.689 Y101.726 E2.2955
G1 X129.380 Y104.616 E2.3807
G1 X129.379 Y104.622 E2.3809
G1 X129.344 Y104.839 E2.3874
G1 X129.343 Y104.845 E2.3876
G1 X128.723 Y107.713 E2.4736
G1 X128.721 Y107.719 E2.4738
G1 X128.663 Y107.931 E2.4802
G1 X128.661 Y107.937 E2.4804
G1 X128.460 Y108.546 E2.4992
G1 X128.460 Y113.925 E2.6570
G1 X128.423 Y114.013 E2.6598
G1 X126.013 Y116.423 E2.7599
G1 X125.925 Y116.460 E2.7627
G1 X124.770 Y116.460 E2.7965
G1 X124.722 Y116.532 E2.7991
G1 X124.718 Y116.537 E2.7992
G1 X124.460 Y116.885 E2.8120
G1 X124.460 Y117.925 E2.8425
G1 X124.423 Y118.013 E2.8453
G1 X122.013 Y120.423 E2.9453
G1 X121.925 Y120.460 E2.9481
G1 X121.538 Y120.460 E2.9594
G1 X120.833 Y121.224 E2.9899
G1 X120.828 Y121.229 E2.9901
G1 X120.671 Y121.382 E2.9965
G1 X120.666 Y121.386 E2.9967
G1 X120.460 Y121.567 E3.0048
G1 X120.460 Y121.925 E3.0153
G1 X120.423 Y122.013 E3.0181
G1 X118.013 Y124.423 E3.1181
G1 X117.925 Y124.460 E3.1209
G1 X116.854 Y124.460 E3.1523
G1 X116.460 Y124.737 E3.1664
G1 X116.460 Y125.925 E3.2013
G1 X116.423 Y126.013 E3.2041
G1 X114.013 Y128.423 E3.3041
G1 X113.925 Y128.460 E3.3069
G1 X108.506 Y128.460 E3.4658
G1 X107.171 Y128.863 E3.5067
G1 X107.165 Y128.864 E3.5069
G1 X106.952 Y128.916 E3.5134
G1 X106.945 Y128.918 E3.5135
G1 X104.062 Y129.461 E3.5996
G1 X104.056 Y129.462 E3.5998
G1 X103.839 Y129.491 E3.6062
G1 X103.832 Y129.492 E3.6064
G1 X100.908 Y129.726 E3.6925
G1 X100.901 Y129.727 E3.6927
G1 X100.682 Y129.732 E3.6991
G1 X100.676 Y129.732 E3.6993
G1 X97.743 Y129.654 E3.7854
G1 X97.737 Y129.654 E3.7855
G1 X97.518 Y129.636 E3.7920
G1 X97.511 Y129.636 E3.7922
G1 X94.604 Y129.246 E3.8782
G1 X94.597 Y129.245 E3.8784
G1 X94.382 Y129.205 E3.8849
G1 X94.375 Y129.203 E3.8850
G1 X91.526 Y128.507 E3.9711
G1 X91.519 Y128.505 E3.9713
G1 X91.369 Y128.460 E3.9759
G1 X86.075 Y128.460 E4.1312
G1 X85.987 Y128.423 E4.1340
G1 X83.577 Y126.013 E4.2340
G1 X83.540 Y125.925 E4.2368
G1 X83.540 Y124.740 E4.2715
G1 X83.092 Y124.460 E4.2870
G1 X82.075 Y124.460 E4.3169
G1 X81.987 Y124.423 E4.3197
G1 X79.577 Y122.013 E4.4197
G1 X79.540 Y121.925 E4.4225
G1 X79.540 Y121.537 E4.4339
G1 X78.434 Y120.460 E4.4791
G1 X78.075 Y120.460 E4.4897
G1 X77.987 Y120.423 E4.4925
G1 X75.577 Y118.013 E4.5925
G1 X75.540 Y117.925 E4.5953
G1 X75.540 Y116.861 E4.6265
G1 X75.274 Y116.460 E4.6406
G1 X74.075 Y116.460 E4.6757
G1 X73.987 Y116.423 E4.6785
G1 X71.577 Y114.013 E4.7786
