; G-Code generated by Simplify3D(R) Version 3.1.1
; sept. 30, 2017 at 8:14:19 P. M.
; Settings Summary
;   processName,Process2
;   applyToModels,rodilla2,rodilla1,rodilla2(2),rodilla1(2)
;   profileName,Gusty (modified)
;   profileVersion,2015-05-01 08:00:00
;   baseProfile,
;   printMaterial,
;   printQuality,
;   printExtruders,
;   extruderName,Primary Extruder
;   extruderToolheadNumber,0
;   extruderDiameter,0.4
;   extruderAutoWidth,1
;   extruderWidth,0.48
;   extrusionMultiplier,0.98
;   extruderUseRetract,1
;   extruderRetractionDistance,3
;   extruderExtraRestartDistance,0
;   extruderRetractionZLift,0
;   extruderRetractionSpeed,1800
;   extruderUseCoasting,0
;   extruderCoastingDistance,0.2
;   extruderUseWipe,0
;   extruderWipeDistance,5
;   primaryExtruder,0
;   layerHeight,0.15
;   topSolidLayers,4
;   bottomSolidLayers,3
;   perimeterOutlines,2
;   printPerimetersInsideOut,1
;   startPointOption,1
;   startPointOriginX,0
;   startPointOriginY,0
;   startPointOriginZ,300
;   sequentialIslands,0
;   spiralVaseMode,0
;   firstLayerHeightPercentage,90
;   firstLayerWidthPercentage,100
;   firstLayerUnderspeed,0.5
;   useRaft,0
;   raftExtruder,0
;   raftLayers,3
;   raftOffset,3
;   raftSeparationDistance,0.14
;   raftInfill,85
;   disableRaftBaseLayers,0
;   useSkirt,1
;   skirtExtruder,0
;   skirtLayers,1
;   skirtOutlines,1
;   skirtOffset,7
;   usePrimePillar,0
;   primePillarExtruder,999
;   primePillarWidth,12
;   primePillarLocation,7
;   primePillarSpeedMultiplier,1
;   useOozeShield,0
;   oozeShieldExtruder,999
;   oozeShieldOffset,2
;   oozeShieldOutlines,1
;   oozeShieldSidewallShape,1
;   oozeShieldSidewallAngle,30
;   oozeShieldSpeedMultiplier,1
;   infillExtruder,0
;   internalInfillPattern,Rectilinear
;   externalInfillPattern,Rectilinear
;   infillPercentage,10
;   outlineOverlapPercentage,15
;   infillExtrusionWidthPercentage,100
;   minInfillLength,5
;   infillLayerInterval,1
;   infillAngles,45,-45
;   overlapInfillAngles,0
;   generateSupport,1
;   supportExtruder,0
;   supportInfillPercentage,30
;   supportExtraInflation,0
;   denseSupportLayers,0
;   denseSupportInfillPercentage,70
;   supportLayerInterval,1
;   supportHorizontalPartOffset,0.15
;   supportUpperSeparationLayers,1
;   supportLowerSeparationLayers,1
;   supportType,0
;   supportGridSpacing,4
;   maxOverhangAngle,45
;   supportAngles,0
;   temperatureName,Primary Extruder,Cama
;   temperatureNumber,0,0
;   temperatureSetpointCount,2,1
;   temperatureSetpointLayers,1,2,1
;   temperatureSetpointTemperatures,195,180,60
;   temperatureStabilizeAtStartup,1,1
;   temperatureHeatedBed,0,1
;   temperatureRelayBetweenLayers,0,0
;   temperatureRelayBetweenLoops,0,0
;   fanLayers,1,2
;   fanSpeeds,0,100
;   blipFanToFullPower,0
;   adjustSpeedForCooling,1
;   minSpeedLayerTime,15
;   minCoolingSpeedSlowdown,20
;   increaseFanForCooling,0
;   minFanLayerTime,45
;   maxCoolingFanSpeed,100
;   increaseFanForBridging,0
;   bridgingFanSpeed,100
;   use5D,1
;   relativeEdistances,0
;   allowEaxisZeroing,1
;   independentExtruderAxes,0
;   includeM10123,0
;   stickySupport,1
;   applyToolheadOffsets,0
;   gcodeXoffset,0
;   gcodeYoffset,0
;   gcodeZoffset,0
;   overrideMachineDefinition,0
;   machineTypeOverride,0
;   strokeXoverride,200
;   strokeYoverride,200
;   strokeZoverride,200
;   originOffsetXoverride,0
;   originOffsetYoverride,0
;   originOffsetZoverride,0
;   homeXdirOverride,-1
;   homeYdirOverride,-1
;   homeZdirOverride,-1
;   flipXoverride,1
;   flipYoverride,-1
;   flipZoverride,1
;   toolheadOffsets,0,0|0,0|0,0|0,0|0,0|0,0
;   overrideFirmwareConfiguration,0
;   firmwareTypeOverride,RepRap (Marlin/Repetier/Sprinter)
;   GPXconfigOverride,r2
;   baudRateOverride,115200
;   overridePrinterModels,0
;   printerModelsOverride
;   startingGcode,G28 ; home all axes
;   layerChangeGcode,
;   retractionGcode,
;   toolChangeGcode,
;   endingGcode,M104 S0 ; turn off extruder,M140 S0 ; turn off bed,G28 X0  ; home X axis,M84 ; disable motors
;   exportFileFormat,gcode
;   celebration,0
;   celebrationSong,Random Song
;   postProcessing,
;   defaultSpeed,3600
;   outlineUnderspeed,0.5
;   solidInfillUnderspeed,0.8
;   supportUnderspeed,0.8
;   rapidXYspeed,6000
;   rapidZspeed,1800
;   minBridgingArea,50
;   bridgingExtraInflation,0
;   bridgingExtrusionMultiplier,1
;   bridgingSpeedMultiplier,1
;   filamentDiameter,1.75
;   filamentPricePerKg,46
;   filamentDensity,1.25
;   useMinPrintHeight,0
;   minPrintHeight,0
;   useMaxPrintHeight,0
;   maxPrintHeight,0
;   useDiaphragm,0
;   diaphragmLayerInterval,20
;   robustSlicing,1
;   mergeAllIntoSolid,0
;   onlyRetractWhenCrossingOutline,1
;   retractBetweenLayers,1
;   useRetractionMinTravel,0
;   retractionMinTravel,3
;   retractWhileWiping,0
;   onlyWipeOutlines,1
;   avoidCrossingOutline,0
;   maxMovementDetourFactor,3
;   toolChangeRetractionDistance,12
;   toolChangeExtraRestartDistance,-0.5
;   toolChangeRetractionSpeed,600
;   allowThinWallGapFill,1
;   thinWallAllowedOverlapPercentage,10
;   horizontalSizeCompensation,0
G90
M82
M106 S0
M140 S60
M190 S60
M104 S195 T0
M109 S195 T0
G28 ; home all axes
G92 E0
G1 E-3.0000 F1800
G1 Z0.135 F1800
; layer 1, Z = 0.135
T0
; tool H0.150 W0.480
; skirt
G1 X48.094 Y49.639 F6000
G1 E0.0000 F540
G92 E0
G1 X48.098 Y49.634 E0.0002 F1800
G1 X48.364 Y49.354 E0.0115
G1 X48.368 Y49.349 E0.0117
G1 X50.653 Y47.185 E0.1040
G1 X50.658 Y47.181 E0.1042
G1 X50.952 Y46.931 E0.1155
G1 X50.957 Y46.927 E0.1157
G1 X53.462 Y45.023 E0.2080
G1 X53.467 Y45.019 E0.2082
G1 X53.786 Y44.802 E0.2195
G1 X53.792 Y44.799 E0.2197
G1 X56.488 Y43.176 E0.3120
G1 X56.494 Y43.173 E0.3122
G1 X56.835 Y42.992 E0.3235
G1 X56.841 Y42.990 E0.3237
G1 X59.697 Y41.668 E0.4160
G1 X59.702 Y41.666 E0.4162
G1 X60.061 Y41.523 E0.4276
G1 X60.067 Y41.521 E0.4277
G1 X63.049 Y40.516 E0.5201
G1 X63.055 Y40.514 E0.5202
G1 X63.427 Y40.411 E0.5316
G1 X63.433 Y40.409 E0.5318
G1 X66.507 Y39.733 E0.6241
G1 X66.513 Y39.732 E0.6243
G1 X66.894 Y39.669 E0.6356
G1 X66.900 Y39.668 E0.6358
G1 X70.028 Y39.328 E0.7281
G1 X70.035 Y39.327 E0.7283
G1 X70.420 Y39.307 E0.7396
G1 X70.427 Y39.306 E0.7398
G1 X73.573 Y39.306 E0.8321
G1 X73.580 Y39.307 E0.8323
G1 X73.965 Y39.327 E0.8436
G1 X73.972 Y39.328 E0.8438
G1 X77.100 Y39.668 E0.9361
G1 X77.106 Y39.669 E0.9363
G1 X77.487 Y39.732 E0.9476
G1 X77.493 Y39.733 E0.9478
G1 X80.567 Y40.409 E1.0401
G1 X80.573 Y40.411 E1.0403
G1 X80.945 Y40.514 E1.0516
G1 X80.951 Y40.516 E1.0518
G1 X83.933 Y41.521 E1.1441
G1 X83.939 Y41.523 E1.1443
G1 X84.297 Y41.666 E1.1556
G1 X84.303 Y41.668 E1.1558
G1 X87.159 Y42.990 E1.2481
G1 X87.165 Y42.992 E1.2483
G1 X87.506 Y43.173 E1.2596
G1 X87.512 Y43.176 E1.2598
G1 X90.208 Y44.799 E1.3521
G1 X90.214 Y44.802 E1.3523
G1 X90.533 Y45.019 E1.3637
G1 X90.538 Y45.023 E1.3638
G1 X93.043 Y46.927 E1.4562
G1 X93.048 Y46.931 E1.4563
G1 X93.342 Y47.181 E1.4677
G1 X93.347 Y47.185 E1.4679
G1 X95.632 Y49.349 E1.5602
G1 X95.636 Y49.354 E1.5604
G1 X95.902 Y49.634 E1.5717
G1 X95.906 Y49.639 E1.5719
G1 X97.943 Y52.037 E1.6642
G1 X97.947 Y52.042 E1.6644
G1 X98.181 Y52.349 E1.6757
G1 X98.185 Y52.354 E1.6759
G1 X99.951 Y54.959 E1.7682
G1 X99.954 Y54.965 E1.7684
G1 X100.000 Y55.041 E1.7710
G1 X100.046 Y54.965 E1.7736
G1 X100.049 Y54.959 E1.7738
G1 X101.815 Y52.354 E1.8661
G1 X101.819 Y52.349 E1.8663
G1 X102.053 Y52.042 E1.8776
G1 X102.057 Y52.037 E1.8778
G1 X104.094 Y49.639 E1.9701
G1 X104.098 Y49.634 E1.9703
G1 X104.364 Y49.354 E1.9816
G1 X104.368 Y49.349 E1.9818
G1 X106.653 Y47.185 E2.0741
G1 X106.658 Y47.181 E2.0743
G1 X106.952 Y46.931 E2.0856
G1 X106.957 Y46.927 E2.0858
G1 X109.462 Y45.023 E2.1781
G1 X109.467 Y45.019 E2.1783
G1 X109.786 Y44.802 E2.1897
G1 X109.792 Y44.799 E2.1898
G1 X112.488 Y43.176 E2.2822
G1 X112.494 Y43.173 E2.2823
G1 X112.835 Y42.992 E2.2937
G1 X112.841 Y42.990 E2.2939
G1 X115.697 Y41.668 E2.3862
G1 X115.702 Y41.666 E2.3864
G1 X116.061 Y41.523 E2.3977
G1 X116.067 Y41.521 E2.3979
G1 X119.049 Y40.516 E2.4902
G1 X119.055 Y40.514 E2.4904
G1 X119.427 Y40.411 E2.5017
G1 X119.433 Y40.409 E2.5019
G1 X122.507 Y39.733 E2.5942
G1 X122.513 Y39.732 E2.5944
G1 X122.894 Y39.669 E2.6057
G1 X122.900 Y39.668 E2.6059
G1 X126.028 Y39.328 E2.6982
G1 X126.035 Y39.327 E2.6984
G1 X126.420 Y39.307 E2.7097
G1 X126.427 Y39.306 E2.7099
G1 X129.573 Y39.306 E2.8022
G1 X129.580 Y39.307 E2.8024
G1 X129.965 Y39.327 E2.8137
G1 X129.972 Y39.328 E2.8139
G1 X133.100 Y39.668 E2.9062
G1 X133.106 Y39.669 E2.9064
G1 X133.487 Y39.732 E2.9177
G1 X133.493 Y39.733 E2.9179
G1 X136.567 Y40.409 E3.0102
G1 X136.573 Y40.411 E3.0104
G1 X136.945 Y40.514 E3.0217
G1 X136.951 Y40.516 E3.0219
G1 X139.933 Y41.521 E3.1142
G1 X139.939 Y41.523 E3.1144
G1 X140.298 Y41.666 E3.1258
G1 X140.303 Y41.668 E3.1259
G1 X143.159 Y42.990 E3.2183
G1 X143.165 Y42.992 E3.2185
G1 X143.506 Y43.173 E3.2298
G1 X143.512 Y43.176 E3.2300
G1 X146.208 Y44.799 E3.3223
G1 X146.214 Y44.802 E3.3225
G1 X146.533 Y45.019 E3.3338
G1 X146.538 Y45.023 E3.3340
G1 X149.043 Y46.927 E3.4263
G1 X149.048 Y46.931 E3.4265
G1 X149.342 Y47.181 E3.4378
G1 X149.347 Y47.185 E3.4380
G1 X151.632 Y49.349 E3.5303
G1 X151.636 Y49.354 E3.5305
G1 X151.902 Y49.634 E3.5418
G1 X151.906 Y49.639 E3.5420
G1 X153.943 Y52.037 E3.6343
G1 X153.947 Y52.042 E3.6345
G1 X154.181 Y52.349 E3.6458
G1 X154.185 Y52.354 E3.6460
G1 X155.951 Y54.959 E3.7383
G1 X155.954 Y54.965 E3.7385
G1 X156.153 Y55.295 E3.7498
G1 X156.156 Y55.301 E3.7500
G1 X157.630 Y58.081 E3.8423
G1 X157.633 Y58.087 E3.8425
G1 X157.795 Y58.437 E3.8538
G1 X157.798 Y58.443 E3.8540
G1 X158.962 Y61.366 E3.9463
G1 X158.965 Y61.372 E3.9465
G1 X159.088 Y61.738 E3.9578
G1 X159.090 Y61.744 E3.9580
G1 X159.932 Y64.776 E4.0504
G1 X159.933 Y64.783 E4.0505
G1 X160.016 Y65.159 E4.0619
G1 X160.017 Y65.166 E4.0620
G1 X160.526 Y68.271 E4.1544
G1 X160.527 Y68.277 E4.1546
G1 X160.569 Y68.661 E4.1659
G1 X160.569 Y68.667 E4.1661
G1 X160.740 Y71.810 E4.2584
G1 X160.740 Y71.816 E4.2586
G1 X160.740 Y72.202 E4.2699
G1 X160.740 Y72.208 E4.2701
G1 X160.569 Y75.351 E4.3624
G1 X160.569 Y75.357 E4.3626
G1 X160.527 Y75.741 E4.3739
G1 X160.526 Y75.747 E4.3741
G1 X160.017 Y78.852 E4.4664
G1 X160.016 Y78.859 E4.4666
G1 X159.933 Y79.236 E4.4779
G1 X159.932 Y79.242 E4.4781
G1 X159.090 Y82.274 E4.5704
G1 X159.088 Y82.280 E4.5706
G1 X158.965 Y82.646 E4.5819
G1 X158.962 Y82.652 E4.5821
G1 X157.798 Y85.575 E4.6744
G1 X157.795 Y85.581 E4.6746
G1 X157.633 Y85.931 E4.6859
G1 X157.630 Y85.937 E4.6861
G1 X156.156 Y88.717 E4.7784
G1 X156.153 Y88.723 E4.7786
G1 X155.954 Y89.054 E4.7899
G1 X155.951 Y89.059 E4.7901
G1 X154.185 Y91.664 E4.8824
G1 X154.181 Y91.669 E4.8826
G1 X153.947 Y91.976 E4.8939
G1 X153.943 Y91.981 E4.8941
G1 X151.906 Y94.379 E4.9865
G1 X151.902 Y94.384 E4.9866
G1 X151.636 Y94.664 E4.9980
G1 X151.632 Y94.669 E4.9982
G1 X149.347 Y96.833 E5.0905
G1 X149.342 Y96.837 E5.0907
G1 X149.048 Y97.087 E5.1020
G1 X149.043 Y97.091 E5.1022
G1 X146.538 Y98.996 E5.1945
G1 X146.533 Y98.999 E5.1947
G1 X146.214 Y99.216 E5.2060
G1 X146.208 Y99.219 E5.2062
G1 X144.927 Y99.990 E5.2500
G1 X145.200 Y100.141 E5.2592
G1 X145.205 Y100.145 E5.2594
G1 X145.527 Y100.346 E5.2705
G1 X145.532 Y100.349 E5.2707
G1 X148.063 Y102.127 E5.3614
G1 X148.069 Y102.131 E5.3616
G1 X148.367 Y102.365 E5.3728
G1 X148.372 Y102.369 E5.3729
G1 X150.700 Y104.407 E5.4637
G1 X150.705 Y104.411 E5.4639
G1 X150.976 Y104.675 E5.4750
G1 X150.981 Y104.680 E5.4752
G1 X153.079 Y106.953 E5.5659
G1 X153.083 Y106.958 E5.5661
G1 X153.325 Y107.250 E5.5772
G1 X153.329 Y107.255 E5.5774
G1 X155.174 Y109.738 E5.6682
G1 X155.178 Y109.743 E5.6684
G1 X155.388 Y110.059 E5.6795
G1 X155.391 Y110.065 E5.6797
G1 X156.961 Y112.730 E5.7704
G1 X156.964 Y112.735 E5.7706
G1 X157.139 Y113.071 E5.7817
G1 X157.141 Y113.076 E5.7819
G1 X158.410 Y115.871 E5.8719
G1 X158.413 Y115.877 E5.8721
G1 X158.550 Y116.228 E5.8832
G1 X158.553 Y116.234 E5.8834
G1 X159.525 Y119.164 E5.9739
G1 X159.527 Y119.170 E5.9741
G1 X159.627 Y119.536 E5.9852
G1 X159.628 Y119.542 E5.9854
G1 X160.290 Y122.591 E6.0769
G1 X160.292 Y122.597 E6.0771
G1 X160.352 Y122.974 E6.0883
G1 X160.353 Y122.980 E6.0885
G1 X160.678 Y126.014 E6.1780
G1 X160.678 Y126.019 E6.1782
G1 X160.697 Y126.303 E6.1865
G1 X160.697 Y126.308 E6.1867
G1 X160.740 Y127.901 E6.2334
G1 X160.740 Y127.904 E6.2335
G1 X160.740 Y128.094 E6.2391
G1 X160.740 Y128.097 E6.2392
G1 X160.698 Y129.688 E6.2858
G1 X160.697 Y129.692 E6.2860
G1 X160.679 Y129.976 E6.2943
G1 X160.678 Y129.981 E6.2945
G1 X160.355 Y133.004 E6.3836
G1 X160.355 Y133.010 E6.3838
G1 X160.294 Y133.383 E6.3949
G1 X160.293 Y133.390 E6.3951
G1 X159.639 Y136.418 E6.4860
G1 X159.638 Y136.425 E6.4862
G1 X159.538 Y136.791 E6.4973
G1 X159.536 Y136.798 E6.4975
G1 X158.563 Y139.739 E6.5884
G1 X158.561 Y139.745 E6.5886
G1 X158.423 Y140.098 E6.5997
G1 X158.421 Y140.104 E6.5999
G1 X157.148 Y142.911 E6.6903
G1 X157.145 Y142.917 E6.6905
G1 X156.970 Y143.253 E6.7016
G1 X156.967 Y143.259 E6.7018
G1 X155.392 Y145.934 E6.7929
G1 X155.388 Y145.939 E6.7931
G1 X155.178 Y146.256 E6.8042
G1 X155.174 Y146.262 E6.8044
G1 X153.329 Y148.745 E6.8952
G1 X153.325 Y148.750 E6.8954
G1 X153.083 Y149.042 E6.9065
G1 X153.079 Y149.047 E6.9067
G1 X150.981 Y151.320 E6.9974
G1 X150.976 Y151.324 E6.9976
G1 X150.705 Y151.589 E7.0088
G1 X150.700 Y151.593 E7.0089
G1 X148.372 Y153.631 E7.0997
G1 X148.367 Y153.635 E7.0999
G1 X148.069 Y153.869 E7.1110
G1 X148.063 Y153.873 E7.1112
G1 X145.532 Y155.651 E7.2019
G1 X145.527 Y155.654 E7.2021
G1 X145.205 Y155.855 E7.2133
G1 X145.200 Y155.859 E7.2134
G1 X142.494 Y157.358 E7.3042
G1 X142.488 Y157.361 E7.3044
G1 X142.147 Y157.526 E7.3155
G1 X142.141 Y157.529 E7.3157
G1 X139.291 Y158.732 E7.4064
G1 X139.285 Y158.734 E7.4066
G1 X138.928 Y158.863 E7.4178
G1 X138.922 Y158.865 E7.4179
G1 X135.960 Y159.758 E7.5087
G1 X135.954 Y159.760 E7.5089
G1 X135.586 Y159.850 E7.5200
G1 X135.580 Y159.851 E7.5202
G1 X132.540 Y160.424 E7.6109
G1 X132.533 Y160.425 E7.6111
G1 X132.157 Y160.476 E7.6223
G1 X132.151 Y160.476 E7.6224
G1 X129.067 Y160.723 E7.7132
G1 X129.061 Y160.723 E7.7134
G1 X128.682 Y160.733 E7.7245
G1 X128.676 Y160.733 E7.7247
G1 X125.583 Y160.651 E7.8154
G1 X125.577 Y160.651 E7.8156
G1 X125.199 Y160.620 E7.8268
G1 X125.192 Y160.620 E7.8269
G1 X122.126 Y160.209 E7.9177
G1 X122.120 Y160.208 E7.9179
G1 X121.747 Y160.138 E7.9290
G1 X121.741 Y160.137 E7.9292
G1 X118.736 Y159.402 E8.0199
G1 X118.730 Y159.401 E8.0201
G1 X118.367 Y159.291 E8.0313
G1 X118.361 Y159.289 E8.0314
G1 X115.451 Y158.240 E8.1222
G1 X115.445 Y158.237 E8.1224
G1 X115.095 Y158.090 E8.1335
G1 X115.089 Y158.087 E8.1337
G1 X112.307 Y156.735 E8.2244
G1 X112.302 Y156.732 E8.2246
G1 X111.970 Y156.548 E8.2358
G1 X111.964 Y156.545 E8.2359
G1 X109.342 Y154.904 E8.3267
G1 X109.337 Y154.900 E8.3269
G1 X109.026 Y154.682 E8.3380
G1 X109.021 Y154.678 E8.3382
G1 X106.588 Y152.768 E8.4289
G1 X106.583 Y152.764 E8.4291
G1 X106.298 Y152.514 E8.4403
G1 X106.293 Y152.510 E8.4404
G1 X104.077 Y150.352 E8.5312
G1 X104.072 Y150.347 E8.5314
G1 X103.815 Y150.069 E8.5425
G1 X103.811 Y150.064 E8.5427
G1 X101.836 Y147.682 E8.6334
G1 X101.832 Y147.677 E8.6336
G1 X101.606 Y147.373 E8.6448
G1 X101.602 Y147.368 E8.6449
G1 X99.984 Y144.928 E8.7308
G1 X99.392 Y145.934 E8.7651
G1 X99.388 Y145.939 E8.7653
G1 X99.178 Y146.256 E8.7764
G1 X99.174 Y146.262 E8.7766
G1 X97.329 Y148.745 E8.8674
G1 X97.325 Y148.750 E8.8675
G1 X97.083 Y149.042 E8.8787
G1 X97.079 Y149.047 E8.8789
G1 X94.981 Y151.320 E8.9696
G1 X94.976 Y151.324 E8.9698
G1 X94.705 Y151.589 E8.9809
G1 X94.700 Y151.593 E8.9811
G1 X92.372 Y153.631 E9.0719
G1 X92.367 Y153.635 E9.0720
G1 X92.069 Y153.869 E9.0832
G1 X92.063 Y153.873 E9.0834
G1 X89.532 Y155.651 E9.1741
G1 X89.527 Y155.654 E9.1743
G1 X89.205 Y155.855 E9.1854
G1 X89.200 Y155.859 E9.1856
G1 X86.494 Y157.358 E9.2764
G1 X86.488 Y157.361 E9.2765
G1 X86.147 Y157.526 E9.2877
G1 X86.141 Y157.529 E9.2879
G1 X83.291 Y158.732 E9.3786
G1 X83.285 Y158.734 E9.3788
G1 X82.928 Y158.863 E9.3899
G1 X82.922 Y158.865 E9.3901
G1 X79.960 Y159.758 E9.4809
G1 X79.954 Y159.760 E9.4810
G1 X79.586 Y159.850 E9.4922
G1 X79.580 Y159.851 E9.4924
G1 X76.540 Y160.424 E9.5831
G1 X76.533 Y160.425 E9.5833
