; G-Code generated by Simplify3D(R) Version 4.0.0
; Apr 24, 2019 at 6:19:37 PM
; Settings Summary
;   processName,Process1
;   applyToModels,rodilla2b,rodilla1
;   profileName,Gusty (modified)
;   profileVersion,2017-03-01 08:00:00
;   baseProfile,Default (modified)
;   printMaterial,PLA
;   printQuality,Medium
;   printExtruders,
;   extruderName,Primary Extruder
;   extruderToolheadNumber,0
;   extruderDiameter,0.4
;   extruderAutoWidth,1
;   extruderWidth,0.48
;   extrusionMultiplier,0.98
;   extruderUseRetract,1
;   extruderRetractionDistance,1
;   extruderExtraRestartDistance,0
;   extruderRetractionZLift,0
;   extruderRetractionSpeed,1800
;   extruderUseCoasting,0
;   extruderCoastingDistance,0.2
;   extruderUseWipe,0
;   extruderWipeDistance,5
;   primaryExtruder,0
;   layerHeight,0.2
;   topSolidLayers,4
;   bottomSolidLayers,3
;   perimeterOutlines,2
;   printPerimetersInsideOut,1
;   startPointOption,2
;   startPointOriginX,0
;   startPointOriginY,0
;   sequentialIslands,0
;   spiralVaseMode,0
;   firstLayerHeightPercentage,90
;   firstLayerWidthPercentage,100
;   firstLayerUnderspeed,0.5
;   useRaft,0
;   raftExtruder,0
;   raftTopLayers,3
;   raftBaseLayers,2
;   raftOffset,3
;   raftSeparationDistance,0.14
;   raftTopInfill,100
;   aboveRaftSpeedMultiplier,0.3
;   useSkirt,1
;   skirtExtruder,0
;   skirtLayers,1
;   skirtOutlines,2
;   skirtOffset,4
;   usePrimePillar,0
;   primePillarExtruder,999
;   primePillarWidth,12
;   primePillarLocation,7
;   primePillarSpeedMultiplier,1
;   useOozeShield,0
;   oozeShieldExtruder,999
;   oozeShieldOffset,2
;   oozeShieldOutlines,1
;   oozeShieldSidewallShape,1
;   oozeShieldSidewallAngle,30
;   oozeShieldSpeedMultiplier,1
;   infillExtruder,0
;   internalInfillPattern,Rectilinear
;   externalInfillPattern,Rectilinear
;   infillPercentage,10
;   outlineOverlapPercentage,15
;   infillExtrusionWidthPercentage,100
;   minInfillLength,5
;   infillLayerInterval,1
;   internalInfillAngles,45,-45
;   overlapInternalInfillAngles,0
;   externalInfillAngles,45,-45
;   generateSupport,1
;   supportExtruder,0
;   supportInfillPercentage,30
;   supportExtraInflation,0
;   supportBaseLayers,0
;   denseSupportExtruder,0
;   denseSupportLayers,0
;   denseSupportInfillPercentage,70
;   supportLayerInterval,1
;   supportHorizontalPartOffset,0.3
;   supportUpperSeparationLayers,1
;   supportLowerSeparationLayers,1
;   supportType,0
;   supportGridSpacing,4
;   maxOverhangAngle,45
;   supportAngles,0
;   temperatureName,Primary Extruder,Cama
;   temperatureNumber,0,1
;   temperatureSetpointCount,1,1
;   temperatureSetpointLayers,1,1
;   temperatureSetpointTemperatures,200,70
;   temperatureStabilizeAtStartup,1,1
;   temperatureHeatedBed,0,1
;   temperatureRelayBetweenLayers,0,0
;   temperatureRelayBetweenLoops,1,1
;   fanLayers,1,2
;   fanSpeeds,0,100
;   blipFanToFullPower,0
;   adjustSpeedForCooling,1
;   minSpeedLayerTime,15
;   minCoolingSpeedSlowdown,20
;   increaseFanForCooling,0
;   minFanLayerTime,45
;   maxCoolingFanSpeed,100
;   increaseFanForBridging,0
;   bridgingFanSpeed,100
;   use5D,1
;   relativeEdistances,0
;   allowEaxisZeroing,1
;   independentExtruderAxes,0
;   includeM10123,0
;   stickySupport,1
;   applyToolheadOffsets,0
;   gcodeXoffset,0
;   gcodeYoffset,0
;   gcodeZoffset,0
;   overrideMachineDefinition,0
;   machineTypeOverride,0
;   strokeXoverride,200
;   strokeYoverride,200
;   strokeZoverride,200
;   originOffsetXoverride,0
;   originOffsetYoverride,0
;   originOffsetZoverride,0
;   homeXdirOverride,-1
;   homeYdirOverride,-1
;   homeZdirOverride,-1
;   flipXoverride,1
;   flipYoverride,-1
;   flipZoverride,1
;   toolheadOffsets,0,0|0,0|0,0|0,0|0,0|0,0
;   overrideFirmwareConfiguration,0
;   firmwareTypeOverride,RepRap (Marlin/Repetier/Sprinter)
;   GPXconfigOverride,r2
;   baudRateOverride,115200
;   overridePrinterModels,0
;   printerModelsOverride
;   startingGcode,G28 ; home all axes
;   layerChangeGcode,
;   retractionGcode,
;   toolChangeGcode,
;   endingGcode,G28 X; Home X,M104 S0 ; turn off extruder,M140 S0 ; turn off bed,M84 ; disable motors
;   exportFileFormat,gcode
;   celebration,0
;   celebrationSong,Random Song
;   postProcessing,
;   defaultSpeed,3600
;   outlineUnderspeed,0.5
;   solidInfillUnderspeed,0.8
;   supportUnderspeed,0.8
;   rapidXYspeed,4800
;   rapidZspeed,1000
;   minBridgingArea,50
;   bridgingExtraInflation,0
;   bridgingExtrusionMultiplier,1
;   bridgingSpeedMultiplier,1.1
;   useFixedBridgingAngle,0
;   fixedBridgingAngle,0
;   applyBridgingToPerimeters,0
;   filamentDiameters,1.75|1.75|1.75|1.75|1.75|1.75
;   filamentPricesPerKg,190|46|46|46|46|46
;   filamentDensities,1.25|1.25|1.25|1.25|1.25|1.25
;   useMinPrintHeight,0
;   minPrintHeight,0
;   useMaxPrintHeight,0
;   maxPrintHeight,0
;   useDiaphragm,0
;   diaphragmLayerInterval,20
;   robustSlicing,1
;   mergeAllIntoSolid,0
;   onlyRetractWhenCrossingOutline,1
;   retractBetweenLayers,1
;   useRetractionMinTravel,0
;   retractionMinTravel,3
;   retractWhileWiping,0
;   onlyWipeOutlines,1
;   avoidCrossingOutline,0
;   maxMovementDetourFactor,3
;   toolChangeRetractionDistance,12
;   toolChangeExtraRestartDistance,-0.5
;   toolChangeRetractionSpeed,600
;   externalThinWallType,0
;   internalThinWallType,2
;   thinWallAllowedOverlapPercentage,10
;   singleExtrusionMinLength,1
;   singleExtrusionMinPrintingWidthPercentage,50
;   singleExtrusionMaxPrintingWidthPercentage,200
;   singleExtrusionEndpointExtension,0.2
;   horizontalSizeCompensation,0
G90
M82
M106 S0
M140 S70
M190 S70
M104 S200 T0
M109 S200 T0
G28 ; home all axes
G92 E0
G1 E-1.0000 F1800
G1 Z0.180 F1000
; process Process1
; layer 1, Z = 0.180
T0
; tool H0.200 W0.480
; skirt
G1 X75.662 Y54.096 F4800
G1 E0.0000 F540
G92 E0
G1 X75.673 Y54.080 E0.0008 F1800
G1 X75.811 Y53.894 E0.0098
G1 X75.823 Y53.879 E0.0106
G1 X77.704 Y51.610 E0.1258
G1 X77.716 Y51.596 E0.1266
G1 X77.874 Y51.425 E0.1357
G1 X77.887 Y51.411 E0.1364
G1 X79.998 Y49.356 E0.2517
G1 X80.012 Y49.343 E0.2524
G1 X80.187 Y49.190 E0.2615
G1 X80.202 Y49.178 E0.2622
G1 X82.520 Y47.358 E0.3775
G1 X82.535 Y47.347 E0.3782
G1 X82.725 Y47.213 E0.3873
G1 X82.741 Y47.203 E0.3881
G1 X85.239 Y45.640 E0.5033
G1 X85.255 Y45.630 E0.5041
G1 X85.458 Y45.517 E0.5132
G1 X85.475 Y45.509 E0.5139
G1 X88.125 Y44.220 E0.6292
G1 X88.143 Y44.212 E0.6299
G1 X88.357 Y44.122 E0.6390
G1 X88.375 Y44.115 E0.6397
G1 X91.146 Y43.115 E0.7550
G1 X91.165 Y43.109 E0.7557
G1 X91.387 Y43.042 E0.7648
G1 X91.405 Y43.037 E0.7656
G1 X94.268 Y42.338 E0.8808
G1 X94.286 Y42.334 E0.8816
G1 X94.515 Y42.291 E0.8907
G1 X94.534 Y42.288 E0.8914
G1 X97.454 Y41.897 E1.0067
G1 X97.473 Y41.895 E1.0074
G1 X97.705 Y41.876 E1.0165
G1 X97.724 Y41.875 E1.0172
G1 X100.669 Y41.797 E1.1325
G1 X100.688 Y41.797 E1.1332
G1 X100.921 Y41.803 E1.1423
G1 X100.940 Y41.804 E1.1431
G1 X103.877 Y42.039 E1.2583
G1 X103.896 Y42.041 E1.2591
G1 X104.126 Y42.072 E1.2682
G1 X104.145 Y42.075 E1.2689
G1 X107.040 Y42.621 E1.3842
G1 X107.059 Y42.625 E1.3849
G1 X107.285 Y42.680 E1.3940
G1 X107.303 Y42.685 E1.3947
G1 X110.124 Y43.536 E1.5100
G1 X110.143 Y43.542 E1.5107
G1 X110.361 Y43.620 E1.5198
G1 X110.379 Y43.627 E1.5206
G1 X113.094 Y44.773 E1.6358
G1 X113.111 Y44.781 E1.6366
G1 X113.320 Y44.883 E1.6457
G1 X113.337 Y44.891 E1.6464
G1 X115.914 Y46.319 E1.7617
G1 X115.931 Y46.329 E1.7624
G1 X116.128 Y46.452 E1.7715
G1 X116.144 Y46.463 E1.7722
G1 X118.555 Y48.156 E1.8875
G1 X118.570 Y48.168 E1.8882
G1 X118.753 Y48.311 E1.8973
G1 X118.768 Y48.323 E1.8981
G1 X120.985 Y50.264 E2.0133
G1 X120.999 Y50.277 E2.0141
G1 X121.166 Y50.439 E2.0232
G1 X121.179 Y50.452 E2.0239
G1 X123.178 Y52.617 E2.1392
G1 X123.190 Y52.632 E2.1399
G1 X123.338 Y52.811 E2.1490
G1 X123.350 Y52.826 E2.1497
G1 X125.108 Y55.191 E2.2650
G1 X125.119 Y55.207 E2.2657
G1 X125.247 Y55.400 E2.2748
G1 X125.257 Y55.416 E2.2756
G1 X126.753 Y57.955 E2.3908
G1 X126.762 Y57.972 E2.3916
G1 X126.869 Y58.178 E2.4007
G1 X126.878 Y58.195 E2.4014
G1 X128.095 Y60.878 E2.5167
G1 X128.103 Y60.896 E2.5174
G1 X128.187 Y61.112 E2.5265
G1 X128.194 Y61.130 E2.5272
G1 X129.119 Y63.928 E2.6425
G1 X129.125 Y63.946 E2.6432
G1 X129.186 Y64.170 E2.6523
G1 X129.190 Y64.189 E2.6531
G1 X129.813 Y67.069 E2.7683
G1 X129.817 Y67.088 E2.7691
G1 X129.854 Y67.317 E2.7782
G1 X129.856 Y67.336 E2.7789
G1 X130.166 Y70.237 E2.8930
G1 X130.168 Y70.252 E2.8936
G1 X130.179 Y70.427 E2.9005
G1 X130.180 Y70.441 E2.9010
G1 X130.219 Y71.959 E2.9604
G1 X130.220 Y71.968 E2.9608
G1 X130.220 Y72.083 E2.9653
G1 X130.219 Y72.093 E2.9657
G1 X130.180 Y73.579 E3.0238
G1 X130.179 Y73.593 E3.0244
G1 X130.168 Y73.767 E3.0312
G1 X130.166 Y73.781 E3.0317
G1 X129.856 Y76.682 E3.1459
G1 X129.854 Y76.701 E3.1466
G1 X129.817 Y76.931 E3.1557
G1 X129.813 Y76.949 E3.1564
G1 X129.190 Y79.829 E3.2717
G1 X129.186 Y79.848 E3.2724
G1 X129.125 Y80.072 E3.2815
G1 X129.119 Y80.090 E3.2823
G1 X128.194 Y82.888 E3.3975
G1 X128.187 Y82.906 E3.3983
G1 X128.103 Y83.122 E3.4074
G1 X128.095 Y83.140 E3.4081
G1 X126.878 Y85.823 E3.5234
G1 X126.869 Y85.840 E3.5241
G1 X126.762 Y86.046 E3.5332
G1 X126.753 Y86.063 E3.5339
G1 X125.257 Y88.602 E3.6492
G1 X125.247 Y88.618 E3.6499
G1 X125.119 Y88.811 E3.6590
G1 X125.108 Y88.827 E3.6598
G1 X123.350 Y91.192 E3.7750
G1 X123.338 Y91.207 E3.7758
G1 X123.190 Y91.386 E3.7849
G1 X123.178 Y91.401 E3.7856
G1 X121.179 Y93.566 E3.9009
G1 X121.166 Y93.579 E3.9016
G1 X120.999 Y93.741 E3.9107
G1 X120.985 Y93.754 E3.9114
G1 X118.768 Y95.695 E4.0267
G1 X118.753 Y95.707 E4.0274
G1 X118.570 Y95.850 E4.0365
G1 X118.555 Y95.862 E4.0373
G1 X116.144 Y97.555 E4.1525
G1 X116.128 Y97.566 E4.1533
G1 X115.931 Y97.689 E4.1624
G1 X115.914 Y97.699 E4.1631
G1 X113.337 Y99.127 E4.2784
G1 X113.320 Y99.135 E4.2791
G1 X113.111 Y99.237 E4.2882
G1 X113.094 Y99.245 E4.2889
G1 X111.294 Y100.005 E4.3653
G1 X113.094 Y100.764 E4.4418
G1 X113.111 Y100.772 E4.4425
G1 X113.320 Y100.874 E4.4516
G1 X113.337 Y100.882 E4.4523
G1 X115.914 Y102.310 E4.5676
G1 X115.931 Y102.320 E4.5683
G1 X116.128 Y102.443 E4.5774
G1 X116.144 Y102.454 E4.5782
G1 X118.555 Y104.147 E4.6934
G1 X118.570 Y104.159 E4.6942
G1 X118.753 Y104.302 E4.7033
G1 X118.768 Y104.314 E4.7040
G1 X120.985 Y106.255 E4.8193
G1 X120.999 Y106.268 E4.8200
G1 X121.166 Y106.430 E4.8291
G1 X121.179 Y106.443 E4.8298
G1 X123.178 Y108.608 E4.9451
G1 X123.190 Y108.623 E4.9458
G1 X123.338 Y108.802 E4.9549
G1 X123.350 Y108.817 E4.9557
G1 X125.108 Y111.182 E5.0709
G1 X125.119 Y111.198 E5.0717
G1 X125.247 Y111.391 E5.0808
G1 X125.257 Y111.407 E5.0815
G1 X126.753 Y113.946 E5.1967
G1 X126.762 Y113.963 E5.1975
G1 X126.869 Y114.168 E5.2066
G1 X126.877 Y114.186 E5.2073
G1 X128.088 Y116.852 E5.3219
G1 X128.095 Y116.870 E5.3226
G1 X128.180 Y117.085 E5.3317
G1 X128.186 Y117.103 E5.3324
G1 X129.112 Y119.896 E5.4475
G1 X129.118 Y119.914 E5.4482
G1 X129.179 Y120.138 E5.4573
G1 X129.183 Y120.157 E5.4581
G1 X129.812 Y123.053 E5.5740
G1 X129.816 Y123.072 E5.5748
G1 X129.853 Y123.303 E5.5839
G1 X129.855 Y123.322 E5.5846
G1 X130.166 Y126.227 E5.6989
G1 X130.168 Y126.242 E5.6995
G1 X130.179 Y126.416 E5.7063
G1 X130.180 Y126.430 E5.7069
G1 X130.220 Y127.931 E5.7656
G1 X130.220 Y127.941 E5.7660
G1 X130.220 Y128.057 E5.7705
G1 X130.220 Y128.067 E5.7709
G1 X130.180 Y129.565 E5.8296
G1 X130.179 Y129.580 E5.8301
G1 X130.168 Y129.753 E5.8369
G1 X130.167 Y129.767 E5.8375
G1 X129.857 Y132.663 E5.9514
G1 X129.855 Y132.681 E5.9521
G1 X129.818 Y132.910 E5.9612
G1 X129.815 Y132.929 E5.9619
G1 X129.192 Y135.814 E6.0774
G1 X129.187 Y135.833 E6.0781
G1 X129.126 Y136.058 E6.0872
G1 X129.121 Y136.076 E6.0880
G1 X128.194 Y138.878 E6.2034
G1 X128.187 Y138.896 E6.2042
G1 X128.103 Y139.113 E6.2133
G1 X128.095 Y139.130 E6.2140
G1 X126.880 Y141.809 E6.3290
G1 X126.872 Y141.826 E6.3298
G1 X126.765 Y142.032 E6.3389
G1 X126.756 Y142.049 E6.3396
G1 X125.257 Y144.592 E6.4551
G1 X125.247 Y144.608 E6.4558
G1 X125.119 Y144.802 E6.4649
G1 X125.108 Y144.818 E6.4657
G1 X123.350 Y147.183 E6.5809
G1 X123.338 Y147.198 E6.5817
G1 X123.190 Y147.377 E6.5908
G1 X123.178 Y147.392 E6.5915
G1 X121.179 Y149.557 E6.7068
G1 X121.166 Y149.570 E6.7075
G1 X120.999 Y149.732 E6.7166
G1 X120.985 Y149.745 E6.7174
G1 X118.768 Y151.686 E6.8326
G1 X118.753 Y151.698 E6.8334
G1 X118.570 Y151.841 E6.8424
G1 X118.555 Y151.853 E6.8432
G1 X116.144 Y153.546 E6.9584
G1 X116.128 Y153.557 E6.9592
G1 X115.931 Y153.680 E6.9683
G1 X115.914 Y153.690 E6.9690
G1 X113.337 Y155.118 E7.0843
G1 X113.320 Y155.126 E7.0850
G1 X113.111 Y155.228 E7.0941
G1 X113.094 Y155.236 E7.0949
G1 X110.379 Y156.382 E7.2101
G1 X110.361 Y156.389 E7.2109
G1 X110.143 Y156.467 E7.2199
G1 X110.124 Y156.473 E7.2207
G1 X107.303 Y157.324 E7.3359
G1 X107.285 Y157.329 E7.3367
G1 X107.059 Y157.384 E7.3458
G1 X107.040 Y157.388 E7.3465
G1 X104.145 Y157.934 E7.4618
G1 X104.126 Y157.937 E7.4625
G1 X103.896 Y157.968 E7.4716
G1 X103.877 Y157.970 E7.4724
G1 X100.940 Y158.205 E7.5876
G1 X100.921 Y158.206 E7.5884
G1 X100.688 Y158.212 E7.5974
G1 X100.669 Y158.212 E7.5982
G1 X97.724 Y158.134 E7.7134
G1 X97.705 Y158.133 E7.7142
G1 X97.473 Y158.114 E7.7233
G1 X97.454 Y158.112 E7.7240
G1 X94.534 Y157.721 E7.8393
G1 X94.515 Y157.718 E7.8400
G1 X94.286 Y157.675 E7.8491
G1 X94.268 Y157.671 E7.8499
G1 X91.405 Y156.972 E7.9651
G1 X91.387 Y156.967 E7.9659
G1 X91.165 Y156.900 E7.9749
G1 X91.146 Y156.894 E7.9757
G1 X88.375 Y155.894 E8.0909
G1 X88.357 Y155.887 E8.0917
G1 X88.143 Y155.797 E8.1008
G1 X88.125 Y155.789 E8.1015
G1 X85.475 Y154.500 E8.2168
G1 X85.458 Y154.492 E8.2175
G1 X85.255 Y154.379 E8.2266
G1 X85.239 Y154.369 E8.2274
G1 X82.741 Y152.806 E8.3426
G1 X82.725 Y152.796 E8.3434
G1 X82.535 Y152.662 E8.3524
G1 X82.520 Y152.651 E8.3532
G1 X80.202 Y150.831 E8.4684
G1 X80.187 Y150.819 E8.4692
G1 X80.012 Y150.666 E8.4783
G1 X79.998 Y150.653 E8.4790
G1 X77.887 Y148.598 E8.5943
G1 X77.874 Y148.584 E8.5950
G1 X77.716 Y148.413 E8.6041
G1 X77.704 Y148.399 E8.6049
G1 X75.823 Y146.130 E8.7201
G1 X75.811 Y146.115 E8.7209
G1 X75.673 Y145.929 E8.7299
G1 X75.662 Y145.913 E8.7307
G1 X74.033 Y143.458 E8.8459
G1 X74.023 Y143.442 E8.8467
G1 X73.905 Y143.242 E8.8557
G1 X73.896 Y143.225 E8.8565
G1 X72.544 Y140.625 E8.9711
G1 X72.536 Y140.608 E8.9719
G1 X72.440 Y140.397 E8.9809
G1 X72.433 Y140.379 E8.9817
G1 X71.361 Y137.644 E9.0966
G1 X71.355 Y137.626 E9.0973
G1 X71.282 Y137.407 E9.1064
G1 X71.277 Y137.388 E9.1071
G1 X70.499 Y134.547 E9.2223
G1 X70.495 Y134.529 E9.2231
G1 X70.445 Y134.302 E9.2322
G1 X70.442 Y134.283 E9.2329
G1 X69.968 Y131.359 E9.3488
G1 X69.965 Y131.340 E9.3495
G1 X69.940 Y131.107 E9.3587
G1 X69.939 Y131.088 E9.3594
G1 X69.781 Y128.136 E9.4750
G1 X69.780 Y128.117 E9.4758
G1 X69.780 Y127.884 E9.4849
G1 X69.780 Y127.865 E9.4857
G1 X69.937 Y124.924 E9.6009
G1 X69.939 Y124.904 E9.6016
G1 X69.963 Y124.674 E9.6107
G1 X69.966 Y124.655 E9.6115
G1 X70.435 Y121.744 E9.7268
G1 X70.438 Y121.726 E9.7275
G1 X70.487 Y121.499 E9.7366
G1 X70.492 Y121.480 E9.7373
G1 X71.267 Y118.637 E9.8526
G1 X71.273 Y118.619 E9.8533
G1 X71.346 Y118.398 E9.8624
G1 X71.352 Y118.380 E9.8632
G1 X72.425 Y115.636 E9.9784
G1 X72.433 Y115.618 E9.9792
G1 X72.529 Y115.407 E9.9883
G1 X72.537 Y115.390 E9.9890
G1 X73.896 Y112.775 E10.1043
G1 X73.905 Y112.758 E10.1050
G1 X74.023 Y112.558 E10.1141
G1 X74.033 Y112.542 E10.1148
G1 X75.662 Y110.087 E10.2301
G1 X75.673 Y110.071 E10.2308
G1 X75.811 Y109.885 E10.2399
G1 X75.823 Y109.870 E10.2407
G1 X77.704 Y107.601 E10.3559
G1 X77.716 Y107.587 E10.3567
G1 X77.874 Y107.416 E10.3658
G1 X77.887 Y107.402 E10.3665
G1 X79.998 Y105.347 E10.4818
G1 X80.012 Y105.334 E10.4825
G1 X80.187 Y105.181 E10.4916
G1 X80.202 Y105.169 E10.4923
G1 X82.520 Y103.349 E10.6076
G1 X82.535 Y103.338 E10.6083
G1 X82.725 Y103.204 E10.6174
G1 X82.741 Y103.194 E10.6182
G1 X85.239 Y101.631 E10.7334
G1 X85.255 Y101.621 E10.7342
G1 X85.458 Y101.508 E10.7433
G1 X85.475 Y101.500 E10.7440
G1 X88.125 Y100.211 E10.8593
G1 X88.143 Y100.203 E10.8600
G1 X88.357 Y100.113 E10.8691
G1 X88.375 Y100.106 E10.8698
G1 X88.656 Y100.005 E10.8815
G1 X88.375 Y99.903 E10.8932
G1 X88.357 Y99.896 E10.8939
G1 X88.143 Y99.806 E10.9030
G1 X88.125 Y99.798 E10.9038
G1 X85.475 Y98.509 E11.0190
