; G-Code generated by Simplify3D(R) Version 3.1.1
; oct. 2, 2017 at 8:07:26 P. M.
; Settings Summary
;   processName,Process2
;   applyToModels,rodilla2,rodilla1
;   profileName,Gusty (modified)
;   profileVersion,2015-05-01 08:00:00
;   baseProfile,
;   printMaterial,
;   printQuality,
;   printExtruders,
;   extruderName,Primary Extruder
;   extruderToolheadNumber,0
;   extruderDiameter,0.4
;   extruderAutoWidth,1
;   extruderWidth,0.48
;   extrusionMultiplier,0.98
;   extruderUseRetract,1
;   extruderRetractionDistance,3
;   extruderExtraRestartDistance,0
;   extruderRetractionZLift,0
;   extruderRetractionSpeed,1800
;   extruderUseCoasting,0
;   extruderCoastingDistance,0.2
;   extruderUseWipe,0
;   extruderWipeDistance,5
;   primaryExtruder,0
;   layerHeight,0.15
;   topSolidLayers,4
;   bottomSolidLayers,3
;   perimeterOutlines,2
;   printPerimetersInsideOut,1
;   startPointOption,1
;   startPointOriginX,0
;   startPointOriginY,0
;   startPointOriginZ,300
;   sequentialIslands,0
;   spiralVaseMode,0
;   firstLayerHeightPercentage,90
;   firstLayerWidthPercentage,100
;   firstLayerUnderspeed,0.5
;   useRaft,0
;   raftExtruder,0
;   raftLayers,3
;   raftOffset,3
;   raftSeparationDistance,0.14
;   raftInfill,85
;   disableRaftBaseLayers,0
;   useSkirt,1
;   skirtExtruder,0
;   skirtLayers,1
;   skirtOutlines,1
;   skirtOffset,7
;   usePrimePillar,0
;   primePillarExtruder,999
;   primePillarWidth,12
;   primePillarLocation,7
;   primePillarSpeedMultiplier,1
;   useOozeShield,0
;   oozeShieldExtruder,999
;   oozeShieldOffset,2
;   oozeShieldOutlines,1
;   oozeShieldSidewallShape,1
;   oozeShieldSidewallAngle,30
;   oozeShieldSpeedMultiplier,1
;   infillExtruder,0
;   internalInfillPattern,Rectilinear
;   externalInfillPattern,Rectilinear
;   infillPercentage,10
;   outlineOverlapPercentage,15
;   infillExtrusionWidthPercentage,100
;   minInfillLength,5
;   infillLayerInterval,1
;   infillAngles,45,-45
;   overlapInfillAngles,0
;   generateSupport,1
;   supportExtruder,0
;   supportInfillPercentage,30
;   supportExtraInflation,0
;   denseSupportLayers,0
;   denseSupportInfillPercentage,60
;   supportLayerInterval,1
;   supportHorizontalPartOffset,0.15
;   supportUpperSeparationLayers,1
;   supportLowerSeparationLayers,1
;   supportType,0
;   supportGridSpacing,4
;   maxOverhangAngle,45
;   supportAngles,0
;   temperatureName,Primary Extruder,Cama
;   temperatureNumber,0,0
;   temperatureSetpointCount,2,1
;   temperatureSetpointLayers,1,2,1
;   temperatureSetpointTemperatures,195,180,60
;   temperatureStabilizeAtStartup,1,1
;   temperatureHeatedBed,0,1
;   temperatureRelayBetweenLayers,0,0
;   temperatureRelayBetweenLoops,0,0
;   fanLayers,1,2
;   fanSpeeds,0,100
;   blipFanToFullPower,0
;   adjustSpeedForCooling,1
;   minSpeedLayerTime,15
;   minCoolingSpeedSlowdown,20
;   increaseFanForCooling,0
;   minFanLayerTime,45
;   maxCoolingFanSpeed,100
;   increaseFanForBridging,0
;   bridgingFanSpeed,100
;   use5D,1
;   relativeEdistances,0
;   allowEaxisZeroing,1
;   independentExtruderAxes,0
;   includeM10123,0
;   stickySupport,1
;   applyToolheadOffsets,0
;   gcodeXoffset,0
;   gcodeYoffset,0
;   gcodeZoffset,0
;   overrideMachineDefinition,0
;   machineTypeOverride,0
;   strokeXoverride,200
;   strokeYoverride,200
;   strokeZoverride,200
;   originOffsetXoverride,0
;   originOffsetYoverride,0
;   originOffsetZoverride,0
;   homeXdirOverride,-1
;   homeYdirOverride,-1
;   homeZdirOverride,-1
;   flipXoverride,1
;   flipYoverride,-1
;   flipZoverride,1
;   toolheadOffsets,0,0|0,0|0,0|0,0|0,0|0,0
;   overrideFirmwareConfiguration,0
;   firmwareTypeOverride,RepRap (Marlin/Repetier/Sprinter)
;   GPXconfigOverride,r2
;   baudRateOverride,115200
;   overridePrinterModels,0
;   printerModelsOverride
;   startingGcode,G28 ; home all axes
;   layerChangeGcode,
;   retractionGcode,
;   toolChangeGcode,
;   endingGcode,M104 S0 ; turn off extruder,M140 S0 ; turn off bed,G28 X0  ; home X axis,M84 ; disable motors
;   exportFileFormat,gcode
;   celebration,0
;   celebrationSong,Random Song
;   postProcessing,
;   defaultSpeed,3600
;   outlineUnderspeed,0.5
;   solidInfillUnderspeed,0.8
;   supportUnderspeed,0.8
;   rapidXYspeed,6000
;   rapidZspeed,1800
;   minBridgingArea,50
;   bridgingExtraInflation,0
;   bridgingExtrusionMultiplier,1
;   bridgingSpeedMultiplier,1
;   filamentDiameter,1.75
;   filamentPricePerKg,46
;   filamentDensity,1.25
;   useMinPrintHeight,0
;   minPrintHeight,0
;   useMaxPrintHeight,0
;   maxPrintHeight,0
;   useDiaphragm,0
;   diaphragmLayerInterval,20
;   robustSlicing,1
;   mergeAllIntoSolid,0
;   onlyRetractWhenCrossingOutline,1
;   retractBetweenLayers,1
;   useRetractionMinTravel,0
;   retractionMinTravel,3
;   retractWhileWiping,0
;   onlyWipeOutlines,1
;   avoidCrossingOutline,0
;   maxMovementDetourFactor,3
;   toolChangeRetractionDistance,12
;   toolChangeExtraRestartDistance,-0.5
;   toolChangeRetractionSpeed,600
;   allowThinWallGapFill,1
;   thinWallAllowedOverlapPercentage,10
;   horizontalSizeCompensation,0
G90
M82
M106 S0
M140 S60
M190 S60
M104 S195 T0
M109 S195 T0
G28 ; home all axes
G92 E0
G1 E-3.0000 F1800
G1 Z0.135 F1800
; layer 1, Z = 0.135
T0
; tool H0.150 W0.480
; skirt
G1 X74.284 Y51.745 F6000
G1 E0.0000 F540
G92 E0
G1 X74.288 Y51.740 E0.0002 F1800
G1 X76.391 Y49.325 E0.0941
G1 X76.396 Y49.320 E0.0943
G1 X76.669 Y49.039 E0.1058
G1 X76.674 Y49.034 E0.1060
G1 X79.030 Y46.866 E0.2000
G1 X79.035 Y46.861 E0.2002
G1 X79.338 Y46.612 E0.2117
G1 X79.343 Y46.608 E0.2119
G1 X81.923 Y44.711 E0.3058
G1 X81.929 Y44.708 E0.3060
G1 X82.257 Y44.493 E0.3175
G1 X82.263 Y44.489 E0.3177
G1 X85.036 Y42.888 E0.4116
G1 X85.042 Y42.885 E0.4118
G1 X85.392 Y42.708 E0.4233
G1 X85.398 Y42.705 E0.4235
G1 X88.330 Y41.419 E0.5175
G1 X88.336 Y41.416 E0.5177
G1 X88.704 Y41.279 E0.5292
G1 X88.710 Y41.277 E0.5294
G1 X91.766 Y40.321 E0.6233
G1 X91.773 Y40.319 E0.6235
G1 X92.153 Y40.223 E0.6350
G1 X92.160 Y40.221 E0.6352
G1 X95.302 Y39.607 E0.7291
G1 X95.309 Y39.606 E0.7293
G1 X95.697 Y39.552 E0.7408
G1 X95.704 Y39.552 E0.7410
G1 X98.895 Y39.287 E0.8350
G1 X98.902 Y39.287 E0.8352
G1 X99.294 Y39.276 E0.8467
G1 X99.301 Y39.276 E0.8469
G1 X102.501 Y39.364 E0.9408
G1 X102.508 Y39.365 E0.9410
G1 X102.899 Y39.397 E0.9525
G1 X102.906 Y39.398 E0.9527
G1 X106.077 Y39.838 E1.0466
G1 X106.084 Y39.839 E1.0468
G1 X106.469 Y39.914 E1.0583
G1 X106.476 Y39.915 E1.0585
G1 X109.580 Y40.701 E1.1525
G1 X109.586 Y40.703 E1.1527
G1 X109.961 Y40.820 E1.1642
G1 X109.967 Y40.823 E1.1644
G1 X112.966 Y41.945 E1.2583
G1 X112.972 Y41.948 E1.2585
G1 X113.331 Y42.105 E1.2700
G1 X113.337 Y42.108 E1.2702
G1 X116.194 Y43.554 E1.3641
G1 X116.200 Y43.557 E1.3643
G1 X116.540 Y43.753 E1.3759
G1 X116.546 Y43.757 E1.3760
G1 X119.226 Y45.508 E1.4700
G1 X119.232 Y45.512 E1.4702
G1 X119.548 Y45.745 E1.4817
G1 X119.553 Y45.749 E1.4819
G1 X122.025 Y47.784 E1.5758
G1 X122.030 Y47.788 E1.5760
G1 X122.319 Y48.054 E1.5875
G1 X122.323 Y48.059 E1.5877
G1 X124.556 Y50.354 E1.6816
G1 X124.561 Y50.359 E1.6818
G1 X124.818 Y50.655 E1.6934
G1 X124.823 Y50.660 E1.6936
G1 X126.789 Y53.187 E1.7875
G1 X126.793 Y53.192 E1.7877
G1 X127.017 Y53.515 E1.7992
G1 X127.020 Y53.520 E1.7994
G1 X128.697 Y56.248 E1.8933
G1 X128.701 Y56.254 E1.8935
G1 X128.887 Y56.599 E1.9050
G1 X128.890 Y56.605 E1.9052
G1 X130.257 Y59.501 E1.9992
G1 X130.260 Y59.507 E1.9993
G1 X130.407 Y59.871 E2.0109
G1 X130.410 Y59.877 E2.0111
G1 X131.449 Y62.905 E2.1050
G1 X131.451 Y62.912 E2.1052
G1 X131.558 Y63.289 E2.1167
G1 X131.560 Y63.296 E2.1169
G1 X132.260 Y66.421 E2.2108
G1 X132.261 Y66.427 E2.2110
G1 X132.326 Y66.816 E2.2226
G1 X132.327 Y66.822 E2.2228
G1 X132.674 Y69.969 E2.3156
G1 X132.675 Y69.974 E2.3158
G1 X132.695 Y70.268 E2.3244
G1 X132.695 Y70.273 E2.3246
G1 X132.740 Y71.922 E2.3730
G1 X132.740 Y71.925 E2.3731
G1 X132.740 Y72.120 E2.3788
G1 X132.740 Y72.123 E2.3789
G1 X132.694 Y73.760 E2.4269
G1 X132.694 Y73.765 E2.4271
G1 X132.674 Y74.059 E2.4357
G1 X132.674 Y74.064 E2.4359
G1 X132.327 Y77.198 E2.5284
G1 X132.326 Y77.204 E2.5285
G1 X132.261 Y77.591 E2.5401
G1 X132.260 Y77.598 E2.5403
G1 X131.560 Y80.722 E2.6342
G1 X131.558 Y80.729 E2.6344
G1 X131.451 Y81.107 E2.6459
G1 X131.449 Y81.113 E2.6461
G1 X130.410 Y84.141 E2.7400
G1 X130.407 Y84.148 E2.7402
G1 X130.260 Y84.511 E2.7517
G1 X130.257 Y84.517 E2.7519
G1 X128.890 Y87.413 E2.8459
G1 X128.887 Y87.419 E2.8460
G1 X128.701 Y87.764 E2.8576
G1 X128.697 Y87.770 E2.8578
G1 X127.020 Y90.498 E2.9517
G1 X127.017 Y90.503 E2.9519
G1 X126.793 Y90.826 E2.9634
G1 X126.789 Y90.831 E2.9636
G1 X124.823 Y93.358 E3.0575
G1 X124.818 Y93.363 E3.0577
G1 X124.561 Y93.659 E3.0692
G1 X124.556 Y93.664 E3.0694
G1 X122.323 Y95.959 E3.1634
G1 X122.319 Y95.964 E3.1636
G1 X122.030 Y96.230 E3.1751
G1 X122.025 Y96.234 E3.1753
G1 X119.553 Y98.269 E3.2692
G1 X119.548 Y98.274 E3.2694
G1 X119.232 Y98.506 E3.2809
G1 X119.226 Y98.510 E3.2811
G1 X116.945 Y100.000 E3.3610
G1 X117.200 Y100.141 E3.3696
G1 X117.205 Y100.145 E3.3698
G1 X117.527 Y100.346 E3.3809
G1 X117.532 Y100.349 E3.3811
G1 X120.063 Y102.127 E3.4718
G1 X120.069 Y102.131 E3.4720
G1 X120.367 Y102.365 E3.4831
G1 X120.372 Y102.369 E3.4833
G1 X122.700 Y104.407 E3.5741
G1 X122.705 Y104.411 E3.5743
G1 X122.976 Y104.675 E3.5854
G1 X122.981 Y104.680 E3.5856
G1 X125.079 Y106.953 E3.6763
G1 X125.083 Y106.958 E3.6765
G1 X125.325 Y107.250 E3.6876
G1 X125.329 Y107.255 E3.6878
G1 X127.174 Y109.738 E3.7786
G1 X127.178 Y109.743 E3.7788
G1 X127.388 Y110.059 E3.7899
G1 X127.391 Y110.065 E3.7901
G1 X128.961 Y112.730 E3.8808
G1 X128.964 Y112.735 E3.8810
G1 X129.139 Y113.072 E3.8921
G1 X129.142 Y113.077 E3.8923
G1 X130.415 Y115.882 E3.9827
G1 X130.417 Y115.888 E3.9828
G1 X130.555 Y116.240 E3.9939
G1 X130.557 Y116.246 E3.9941
G1 X131.529 Y119.179 E4.0848
G1 X131.531 Y119.185 E4.0850
G1 X131.631 Y119.550 E4.0961
G1 X131.632 Y119.556 E4.0963
G1 X132.288 Y122.581 E4.1870
G1 X132.289 Y122.587 E4.1872
G1 X132.350 Y122.961 E4.1983
G1 X132.351 Y122.968 E4.1985
G1 X132.678 Y126.012 E4.2883
G1 X132.678 Y126.017 E4.2885
G1 X132.697 Y126.302 E4.2969
G1 X132.697 Y126.307 E4.2970
G1 X132.740 Y127.901 E4.3438
G1 X132.740 Y127.904 E4.3439
G1 X132.740 Y128.094 E4.3495
G1 X132.740 Y128.097 E4.3496
G1 X132.698 Y129.688 E4.3963
G1 X132.697 Y129.693 E4.3964
G1 X132.679 Y129.977 E4.4047
G1 X132.678 Y129.982 E4.4049
G1 X132.355 Y133.006 E4.4941
G1 X132.354 Y133.012 E4.4943
G1 X132.294 Y133.386 E4.5054
G1 X132.293 Y133.392 E4.5056
G1 X131.639 Y136.420 E4.5964
G1 X131.638 Y136.426 E4.5966
G1 X131.538 Y136.792 E4.6078
G1 X131.536 Y136.799 E4.6080
G1 X130.563 Y139.739 E4.6988
G1 X130.561 Y139.745 E4.6990
G1 X130.423 Y140.099 E4.7101
G1 X130.421 Y140.105 E4.7103
G1 X129.144 Y142.918 E4.8010
G1 X129.141 Y142.924 E4.8011
G1 X128.967 Y143.260 E4.8123
G1 X128.964 Y143.266 E4.8124
G1 X127.391 Y145.935 E4.9033
G1 X127.388 Y145.940 E4.9035
G1 X127.178 Y146.257 E4.9146
G1 X127.174 Y146.262 E4.9148
G1 X125.329 Y148.745 E5.0056
G1 X125.325 Y148.750 E5.0058
G1 X125.083 Y149.042 E5.0169
G1 X125.079 Y149.047 E5.0171
G1 X122.981 Y151.320 E5.1078
G1 X122.976 Y151.324 E5.1080
G1 X122.705 Y151.589 E5.1192
G1 X122.700 Y151.593 E5.1193
G1 X120.372 Y153.631 E5.2101
G1 X120.367 Y153.635 E5.2103
G1 X120.069 Y153.869 E5.2214
G1 X120.063 Y153.873 E5.2216
G1 X117.532 Y155.651 E5.3123
G1 X117.527 Y155.654 E5.3125
G1 X117.205 Y155.855 E5.3236
G1 X117.200 Y155.859 E5.3238
G1 X114.494 Y157.358 E5.4146
G1 X114.488 Y157.361 E5.4148
G1 X114.147 Y157.526 E5.4259
G1 X114.141 Y157.529 E5.4261
G1 X111.291 Y158.732 E5.5168
G1 X111.285 Y158.734 E5.5170
G1 X110.928 Y158.863 E5.5282
G1 X110.922 Y158.865 E5.5283
G1 X107.960 Y159.758 E5.6191
G1 X107.954 Y159.760 E5.6193
G1 X107.586 Y159.850 E5.6304
G1 X107.580 Y159.851 E5.6306
G1 X104.540 Y160.424 E5.7213
G1 X104.533 Y160.425 E5.7215
G1 X104.158 Y160.476 E5.7326
G1 X104.151 Y160.476 E5.7328
G1 X101.067 Y160.723 E5.8236
G1 X101.061 Y160.723 E5.8238
G1 X100.682 Y160.733 E5.8349
G1 X100.676 Y160.733 E5.8351
G1 X97.583 Y160.651 E5.9258
G1 X97.577 Y160.651 E5.9260
G1 X97.199 Y160.620 E5.9371
G1 X97.192 Y160.620 E5.9373
G1 X94.126 Y160.209 E6.0281
G1 X94.120 Y160.208 E6.0283
G1 X93.747 Y160.138 E6.0394
G1 X93.741 Y160.137 E6.0396
G1 X90.736 Y159.402 E6.1303
G1 X90.730 Y159.401 E6.1305
G1 X90.367 Y159.291 E6.1416
G1 X90.361 Y159.289 E6.1418
G1 X87.451 Y158.240 E6.2326
G1 X87.445 Y158.237 E6.2328
G1 X87.095 Y158.090 E6.2439
G1 X87.089 Y158.087 E6.2441
G1 X84.307 Y156.735 E6.3348
G1 X84.302 Y156.732 E6.3350
G1 X83.970 Y156.548 E6.3461
G1 X83.964 Y156.545 E6.3463
G1 X81.342 Y154.904 E6.4371
G1 X81.337 Y154.900 E6.4373
G1 X81.026 Y154.682 E6.4484
G1 X81.021 Y154.678 E6.4486
G1 X78.588 Y152.768 E6.5393
G1 X78.583 Y152.764 E6.5395
G1 X78.298 Y152.514 E6.5506
G1 X78.293 Y152.510 E6.5508
G1 X76.077 Y150.352 E6.6416
G1 X76.072 Y150.347 E6.6418
G1 X75.815 Y150.069 E6.6529
G1 X75.811 Y150.064 E6.6531
G1 X73.836 Y147.682 E6.7438
G1 X73.832 Y147.677 E6.7440
G1 X73.606 Y147.373 E6.7551
G1 X73.602 Y147.368 E6.7553
G1 X71.892 Y144.790 E6.8461
G1 X71.889 Y144.785 E6.8463
G1 X71.697 Y144.458 E6.8574
G1 X71.694 Y144.453 E6.8576
G1 X70.273 Y141.718 E6.9480
G1 X70.270 Y141.713 E6.9481
G1 X70.113 Y141.368 E6.9592
G1 X70.111 Y141.362 E6.9594
G1 X68.986 Y138.489 E7.0500
G1 X68.984 Y138.483 E7.0502
G1 X68.865 Y138.123 E7.0613
G1 X68.863 Y138.117 E7.0614
G1 X68.047 Y135.134 E7.1522
G1 X68.046 Y135.128 E7.1523
G1 X67.965 Y134.758 E7.1635
G1 X67.964 Y134.751 E7.1636
G1 X67.468 Y131.685 E7.2548
G1 X67.467 Y131.679 E7.2550
G1 X67.426 Y131.300 E7.2661
G1 X67.426 Y131.294 E7.2663
G1 X67.260 Y128.197 E7.3573
G1 X67.260 Y128.191 E7.3575
G1 X67.260 Y127.811 E7.3686
G1 X67.260 Y127.805 E7.3688
G1 X67.425 Y124.716 E7.4595
G1 X67.425 Y124.709 E7.4597
G1 X67.466 Y124.332 E7.4709
G1 X67.466 Y124.326 E7.4710
G1 X67.959 Y121.271 E7.5618
G1 X67.960 Y121.265 E7.5620
G1 X68.040 Y120.894 E7.5731
G1 X68.041 Y120.888 E7.5733
G1 X68.855 Y117.903 E7.6641
G1 X68.857 Y117.897 E7.6643
G1 X68.976 Y117.537 E7.6754
G1 X68.978 Y117.531 E7.6756
G1 X70.105 Y114.650 E7.7663
G1 X70.107 Y114.644 E7.7665
G1 X70.264 Y114.299 E7.7776
G1 X70.267 Y114.293 E7.7778
G1 X71.693 Y111.548 E7.8686
G1 X71.696 Y111.542 E7.8688
G1 X71.889 Y111.216 E7.8799
G1 X71.892 Y111.210 E7.8801
G1 X73.602 Y108.632 E7.9708
G1 X73.606 Y108.627 E7.9710
G1 X73.832 Y108.323 E7.9821
G1 X73.836 Y108.318 E7.9823
G1 X75.811 Y105.936 E8.0731
G1 X75.815 Y105.931 E8.0733
G1 X76.072 Y105.653 E8.0844
G1 X76.077 Y105.648 E8.0846
G1 X78.293 Y103.490 E8.1753
G1 X78.298 Y103.486 E8.1755
G1 X78.583 Y103.236 E8.1866
G1 X78.588 Y103.232 E8.1868
G1 X81.021 Y101.322 E8.2776
G1 X81.026 Y101.318 E8.2778
G1 X81.337 Y101.100 E8.2889
G1 X81.342 Y101.096 E8.2891
G1 X83.087 Y100.004 E8.3495
G1 X82.263 Y99.529 E8.3774
G1 X82.257 Y99.525 E8.3776
G1 X81.929 Y99.311 E8.3891
G1 X81.923 Y99.307 E8.3893
G1 X79.343 Y97.410 E8.4832
G1 X79.338 Y97.406 E8.4834
G1 X79.035 Y97.157 E8.4949
G1 X79.030 Y97.152 E8.4951
G1 X76.674 Y94.984 E8.5890
G1 X76.669 Y94.979 E8.5892
G1 X76.396 Y94.698 E8.6007
G1 X76.391 Y94.693 E8.6009
G1 X74.288 Y92.278 E8.6949
G1 X74.284 Y92.273 E8.6951
G1 X74.043 Y91.963 E8.7066
G1 X74.039 Y91.958 E8.7068
G1 X72.215 Y89.327 E8.8007
G1 X72.211 Y89.321 E8.8009
G1 X72.005 Y88.987 E8.8124
G1 X72.002 Y88.981 E8.8126
G1 X70.478 Y86.165 E8.9065
G1 X70.475 Y86.159 E8.9067
G1 X70.308 Y85.804 E8.9182
G1 X70.305 Y85.798 E8.9184
G1 X69.100 Y82.831 E9.0124
G1 X69.098 Y82.825 E9.0126
G1 X68.970 Y82.454 E9.0241
G1 X68.968 Y82.448 E9.0243
G1 X68.097 Y79.367 E9.1182
G1 X68.095 Y79.360 E9.1184
G1 X68.010 Y78.977 E9.1299
G1 X68.008 Y78.971 E9.1301
G1 X67.481 Y75.812 E9.2240
G1 X67.480 Y75.806 E9.2242
G1 X67.437 Y75.416 E9.2358
G1 X67.437 Y75.409 E9.2359
G1 X67.260 Y72.212 E9.3299
G1 X67.260 Y72.205 E9.3301
G1 X67.260 Y71.813 E9.3416
G1 X67.260 Y71.806 E9.3418
G1 X67.437 Y68.609 E9.4357
G1 X67.437 Y68.602 E9.4359
G1 X67.480 Y68.212 E9.4474
G1 X67.481 Y68.206 E9.4476
G1 X68.008 Y65.047 E9.5415
G1 X68.010 Y65.041 E9.5417
G1 X68.095 Y64.658 E9.5533
G1 X68.097 Y64.651 E9.5535
G1 X68.968 Y61.570 E9.6474
G1 X68.970 Y61.564 E9.6476
G1 X69.098 Y61.193 E9.6591
G1 X69.100 Y61.187 E9.6593
