; G-Code generated by Simplify3D(R) Version 4.0.0
; Jun 14, 2018 at 6:07:35 PM
; Settings Summary
;   processName,ABS Sin Sop
;   applyToModels,Rollo M2 motor
;   profileName,Gusty (modified)
;   profileVersion,2017-03-01 08:00:00
;   baseProfile,Default (modified)
;   printMaterial,ABS
;   printQuality,Medium
;   printExtruders,
;   extruderName,Primary Extruder
;   extruderToolheadNumber,0
;   extruderDiameter,0.4
;   extruderAutoWidth,1
;   extruderWidth,0.48
;   extrusionMultiplier,0.98
;   extruderUseRetract,1
;   extruderRetractionDistance,1
;   extruderExtraRestartDistance,0
;   extruderRetractionZLift,0
;   extruderRetractionSpeed,1800
;   extruderUseCoasting,0
;   extruderCoastingDistance,0.2
;   extruderUseWipe,0
;   extruderWipeDistance,5
;   primaryExtruder,0
;   layerHeight,0.15
;   topSolidLayers,4
;   bottomSolidLayers,3
;   perimeterOutlines,2
;   printPerimetersInsideOut,1
;   startPointOption,2
;   startPointOriginX,0
;   startPointOriginY,0
;   sequentialIslands,0
;   spiralVaseMode,0
;   firstLayerHeightPercentage,90
;   firstLayerWidthPercentage,100
;   firstLayerUnderspeed,0.5
;   useRaft,0
;   raftExtruder,0
;   raftTopLayers,3
;   raftBaseLayers,2
;   raftOffset,3
;   raftSeparationDistance,0.14
;   raftTopInfill,100
;   aboveRaftSpeedMultiplier,0.3
;   useSkirt,1
;   skirtExtruder,0
;   skirtLayers,1
;   skirtOutlines,1
;   skirtOffset,4
;   usePrimePillar,0
;   primePillarExtruder,999
;   primePillarWidth,12
;   primePillarLocation,7
;   primePillarSpeedMultiplier,1
;   useOozeShield,0
;   oozeShieldExtruder,999
;   oozeShieldOffset,2
;   oozeShieldOutlines,1
;   oozeShieldSidewallShape,1
;   oozeShieldSidewallAngle,30
;   oozeShieldSpeedMultiplier,1
;   infillExtruder,0
;   internalInfillPattern,Grid
;   externalInfillPattern,Rectilinear
;   infillPercentage,25
;   outlineOverlapPercentage,15
;   infillExtrusionWidthPercentage,100
;   minInfillLength,5
;   infillLayerInterval,1
;   internalInfillAngles,45,-45
;   overlapInternalInfillAngles,1
;   externalInfillAngles,45,-45
;   generateSupport,0
;   supportExtruder,0
;   supportInfillPercentage,30
;   supportExtraInflation,0
;   supportBaseLayers,0
;   denseSupportExtruder,0
;   denseSupportLayers,0
;   denseSupportInfillPercentage,70
;   supportLayerInterval,1
;   supportHorizontalPartOffset,0.3
;   supportUpperSeparationLayers,1
;   supportLowerSeparationLayers,1
;   supportType,0
;   supportGridSpacing,4
;   maxOverhangAngle,45
;   supportAngles,0
;   temperatureName,Primary Extruder,Cama
;   temperatureNumber,0,1
;   temperatureSetpointCount,1,1
;   temperatureSetpointLayers,1,1
;   temperatureSetpointTemperatures,230,100
;   temperatureStabilizeAtStartup,1,1
;   temperatureHeatedBed,0,1
;   temperatureRelayBetweenLayers,0,0
;   temperatureRelayBetweenLoops,1,1
;   fanLayers,1
;   fanSpeeds,0
;   blipFanToFullPower,0
;   adjustSpeedForCooling,1
;   minSpeedLayerTime,15
;   minCoolingSpeedSlowdown,20
;   increaseFanForCooling,0
;   minFanLayerTime,45
;   maxCoolingFanSpeed,100
;   increaseFanForBridging,0
;   bridgingFanSpeed,100
;   use5D,1
;   relativeEdistances,0
;   allowEaxisZeroing,1
;   independentExtruderAxes,0
;   includeM10123,0
;   stickySupport,1
;   applyToolheadOffsets,0
;   gcodeXoffset,0
;   gcodeYoffset,0
;   gcodeZoffset,0
;   overrideMachineDefinition,0
;   machineTypeOverride,0
;   strokeXoverride,200
;   strokeYoverride,200
;   strokeZoverride,200
;   originOffsetXoverride,0
;   originOffsetYoverride,0
;   originOffsetZoverride,0
;   homeXdirOverride,-1
;   homeYdirOverride,-1
;   homeZdirOverride,-1
;   flipXoverride,1
;   flipYoverride,-1
;   flipZoverride,1
;   toolheadOffsets,0,0|0,0|0,0|0,0|0,0|0,0
;   overrideFirmwareConfiguration,0
;   firmwareTypeOverride,RepRap (Marlin/Repetier/Sprinter)
;   GPXconfigOverride,r2
;   baudRateOverride,115200
;   overridePrinterModels,0
;   printerModelsOverride
;   startingGcode,G28 ; home all axes
;   layerChangeGcode,
;   retractionGcode,
;   toolChangeGcode,
;   endingGcode,G28 X; Home x,M104 S0 ; turn off extruder,M140 S0 ; turn off bed,M84 ; disable motors
;   exportFileFormat,gcode
;   celebration,0
;   celebrationSong,Random Song
;   postProcessing,
;   defaultSpeed,3600
;   outlineUnderspeed,0.5
;   solidInfillUnderspeed,0.8
;   supportUnderspeed,0.8
;   rapidXYspeed,4800
;   rapidZspeed,1000
;   minBridgingArea,50
;   bridgingExtraInflation,0
;   bridgingExtrusionMultiplier,1
;   bridgingSpeedMultiplier,1.1
;   useFixedBridgingAngle,0
;   fixedBridgingAngle,0
;   applyBridgingToPerimeters,0
;   filamentDiameters,1.75|1.75|1.75|1.75|1.75|1.75
;   filamentPricesPerKg,190|46|46|46|46|46
;   filamentDensities,1.25|1.25|1.25|1.25|1.25|1.25
;   useMinPrintHeight,0
;   minPrintHeight,0
;   useMaxPrintHeight,0
;   maxPrintHeight,0
;   useDiaphragm,0
;   diaphragmLayerInterval,20
;   robustSlicing,1
;   mergeAllIntoSolid,0
;   onlyRetractWhenCrossingOutline,1
;   retractBetweenLayers,1
;   useRetractionMinTravel,0
;   retractionMinTravel,3
;   retractWhileWiping,0
;   onlyWipeOutlines,1
;   avoidCrossingOutline,0
;   maxMovementDetourFactor,3
;   toolChangeRetractionDistance,12
;   toolChangeExtraRestartDistance,-0.5
;   toolChangeRetractionSpeed,600
;   externalThinWallType,0
;   internalThinWallType,2
;   thinWallAllowedOverlapPercentage,10
;   singleExtrusionMinLength,1
;   singleExtrusionMinPrintingWidthPercentage,50
;   singleExtrusionMaxPrintingWidthPercentage,200
;   singleExtrusionEndpointExtension,0.2
;   horizontalSizeCompensation,0
G90
M82
M106 S0
M140 S100
M190 S100
M104 S230 T0
M109 S230 T0
G28 ; home all axes
G92 E0
G1 E-1.0000 F1800
G1 Z0.135 F1000
; process ABS Sin Sop
; layer 1, Z = 0.135
T0
; tool H0.150 W0.480
; skirt
G1 X87.523 Y89.549 F4800
G1 E0.0000 F540
G92 E0
G1 X87.560 Y89.516 E0.0015 F1800
G1 X89.051 Y88.644 E0.0521
G1 X89.098 Y88.628 E0.0536
G1 X90.737 Y88.438 E0.1020
G1 X90.746 Y88.437 E0.1023
G1 X91.068 Y88.425 E0.1117
G1 X91.077 Y88.425 E0.1120
G1 X91.606 Y88.447 E0.1275
G1 X91.749 Y87.937 E0.1430
G1 X91.752 Y87.928 E0.1433
G1 X91.863 Y87.626 E0.1528
G1 X91.867 Y87.617 E0.1530
G1 X92.553 Y86.118 E0.2014
G1 X92.583 Y86.078 E0.2029
G1 X93.873 Y84.929 E0.2536
G1 X93.916 Y84.904 E0.2550
G1 X96.048 Y84.211 E0.3208
G1 X96.098 Y84.206 E0.3223
G1 X97.817 Y84.377 E0.3729
G1 X97.865 Y84.392 E0.3744
G1 X99.302 Y85.201 E0.4228
G1 X99.310 Y85.206 E0.4231
G1 X99.577 Y85.386 E0.4325
G1 X99.585 Y85.391 E0.4328
G1 X100.000 Y85.720 E0.4483
G1 X100.415 Y85.391 E0.4638
G1 X100.423 Y85.386 E0.4641
G1 X100.690 Y85.206 E0.4736
G1 X100.698 Y85.201 E0.4738
G1 X102.135 Y84.392 E0.5222
G1 X102.183 Y84.377 E0.5237
G1 X103.902 Y84.206 E0.5744
G1 X103.952 Y84.211 E0.5758
G1 X106.084 Y84.904 E0.6416
G1 X106.127 Y84.929 E0.6431
G1 X107.417 Y86.078 E0.6937
G1 X107.447 Y86.118 E0.6952
G1 X108.133 Y87.617 E0.7436
G1 X108.137 Y87.626 E0.7439
G1 X108.248 Y87.928 E0.7533
G1 X108.251 Y87.937 E0.7536
G1 X108.394 Y88.447 E0.7691
G1 X108.923 Y88.425 E0.7846
G1 X108.932 Y88.425 E0.7849
G1 X109.254 Y88.437 E0.7944
G1 X109.263 Y88.438 E0.7946
G1 X110.902 Y88.628 E0.8430
G1 X110.949 Y88.644 E0.8445
G1 X112.440 Y89.516 E0.8952
G1 X112.477 Y89.549 E0.8966
G1 X113.795 Y91.363 E0.9624
G1 X113.815 Y91.408 E0.9638
G1 X114.184 Y93.096 E1.0145
G1 X114.184 Y93.146 E1.0160
G1 X113.858 Y94.763 E1.0644
G1 X113.856 Y94.772 E1.0647
G1 X113.768 Y95.082 E1.0741
G1 X113.765 Y95.091 E1.0744
G1 X113.581 Y95.587 E1.0899
G1 X114.022 Y95.881 E1.1054
G1 X114.030 Y95.886 E1.1057
G1 X114.283 Y96.085 E1.1152
G1 X114.290 Y96.091 E1.1154
G1 X115.504 Y97.208 E1.1638
G1 X115.533 Y97.248 E1.1653
G1 X116.227 Y98.830 E1.2160
G1 X116.237 Y98.879 E1.2174
G1 X116.237 Y101.121 E1.2832
G1 X116.227 Y101.170 E1.2846
G1 X115.533 Y102.752 E1.3353
G1 X115.504 Y102.792 E1.3368
G1 X114.290 Y103.909 E1.3852
G1 X114.283 Y103.915 E1.3855
G1 X114.030 Y104.114 E1.3949
G1 X114.022 Y104.119 E1.3952
G1 X113.581 Y104.413 E1.4107
G1 X113.765 Y104.909 E1.4262
G1 X113.768 Y104.918 E1.4265
G1 X113.856 Y105.228 E1.4360
G1 X113.858 Y105.237 E1.4362
G1 X114.184 Y106.854 E1.4846
G1 X114.184 Y106.904 E1.4861
G1 X113.815 Y108.592 E1.5368
G1 X113.795 Y108.637 E1.5382
G1 X112.477 Y110.451 E1.6040
G1 X112.440 Y110.484 E1.6054
G1 X110.949 Y111.356 E1.6561
G1 X110.902 Y111.372 E1.6576
G1 X109.263 Y111.562 E1.7060
G1 X109.254 Y111.563 E1.7062
G1 X108.932 Y111.575 E1.7157
G1 X108.923 Y111.575 E1.7160
G1 X108.394 Y111.553 E1.7315
G1 X108.251 Y112.063 E1.7470
G1 X108.248 Y112.072 E1.7473
G1 X108.137 Y112.374 E1.7568
G1 X108.133 Y112.383 E1.7570
G1 X107.447 Y113.882 E1.8054
G1 X107.417 Y113.922 E1.8069
G1 X106.127 Y115.071 E1.8576
G1 X106.084 Y115.096 E1.8590
G1 X103.952 Y115.789 E1.9248
G1 X103.902 Y115.794 E1.9262
G1 X102.183 Y115.623 E1.9769
G1 X102.135 Y115.608 E1.9784
G1 X100.698 Y114.799 E2.0268
G1 X100.690 Y114.794 E2.0270
G1 X100.423 Y114.614 E2.0365
G1 X100.415 Y114.609 E2.0368
G1 X100.000 Y114.280 E2.0523
G1 X99.585 Y114.609 E2.0678
G1 X99.577 Y114.614 E2.0681
G1 X99.310 Y114.794 E2.0775
G1 X99.302 Y114.799 E2.0778
G1 X97.865 Y115.608 E2.1262
G1 X97.817 Y115.623 E2.1277
G1 X96.098 Y115.794 E2.1784
G1 X96.048 Y115.789 E2.1798
G1 X93.916 Y115.096 E2.2456
G1 X93.873 Y115.071 E2.2470
G1 X92.583 Y113.922 E2.2977
G1 X92.553 Y113.882 E2.2992
G1 X91.867 Y112.383 E2.3476
G1 X91.863 Y112.374 E2.3478
G1 X91.752 Y112.072 E2.3573
G1 X91.749 Y112.063 E2.3576
G1 X91.606 Y111.553 E2.3731
G1 X91.077 Y111.575 E2.3886
G1 X91.068 Y111.575 E2.3889
G1 X90.746 Y111.563 E2.3983
G1 X90.737 Y111.562 E2.3986
G1 X89.098 Y111.372 E2.4470
G1 X89.051 Y111.356 E2.4485
G1 X87.560 Y110.484 E2.4991
G1 X87.523 Y110.451 E2.5006
G1 X86.205 Y108.637 E2.5664
G1 X86.185 Y108.592 E2.5678
G1 X85.816 Y106.904 E2.6185
G1 X85.816 Y106.854 E2.6200
G1 X86.141 Y105.237 E2.6684
G1 X86.144 Y105.228 E2.6686
G1 X86.232 Y104.918 E2.6781
G1 X86.235 Y104.909 E2.6784
G1 X86.419 Y104.413 E2.6939
G1 X85.978 Y104.119 E2.7094
G1 X85.970 Y104.114 E2.7097
G1 X85.717 Y103.915 E2.7191
G1 X85.710 Y103.909 E2.7194
G1 X84.496 Y102.792 E2.7678
G1 X84.467 Y102.752 E2.7693
G1 X83.773 Y101.170 E2.8199
G1 X83.763 Y101.121 E2.8214
G1 X83.763 Y98.879 E2.8872
G1 X83.773 Y98.830 E2.8886
G1 X84.467 Y97.248 E2.9393
G1 X84.496 Y97.208 E2.9408
G1 X85.710 Y96.091 E2.9892
G1 X85.717 Y96.085 E2.9894
G1 X85.970 Y95.886 E2.9989
G1 X85.978 Y95.881 E2.9992
G1 X86.419 Y95.587 E3.0147
G1 X86.235 Y95.091 E3.0302
G1 X86.232 Y95.082 E3.0305
G1 X86.144 Y94.772 E3.0399
G1 X86.141 Y94.763 E3.0402
G1 X85.816 Y93.146 E3.0886
G1 X85.816 Y93.096 E3.0901
G1 X86.185 Y91.408 E3.1407
G1 X86.205 Y91.363 E3.1422
G1 X87.523 Y89.549 E3.2080
G92 E0
G1 E-1.0000 F1800
; inner perimeter
G1 X90.891 Y93.382 F4800
G1 E0.0000 F1800
G92 E0
G1 X91.603 Y93.411 E0.0209 F1350
G1 X92.105 Y93.511 E0.0359
G1 X92.585 Y93.688 E0.0509
G1 X93.032 Y93.938 E0.0659
G1 X93.434 Y94.254 E0.0810
G1 X93.783 Y94.629 E0.0960
G1 X94.563 Y95.788 E0.1369
G1 X95.734 Y94.733 E0.1832
G1 X96.309 Y94.315 E0.2040
G1 X97.674 Y93.527 E0.2503
G1 X96.813 Y92.427 E0.2913
G1 X96.564 Y91.980 E0.3063
G1 X96.388 Y91.500 E0.3213
G1 X96.288 Y90.998 E0.3363
G1 X96.268 Y90.486 E0.3513
G1 X96.328 Y89.978 E0.3663
G1 X96.521 Y89.292 E0.3872
G1 X97.080 Y89.734 E0.4081
G1 X97.427 Y90.110 E0.4232
G1 X97.711 Y90.535 E0.4382
G1 X97.926 Y91.000 E0.4532
G1 X98.066 Y91.492 E0.4682
G1 X98.127 Y92.000 E0.4832
G1 X98.077 Y93.396 E0.5242
G1 X99.645 Y93.231 E0.5704
G1 X100.355 Y93.231 E0.5912
G1 X101.923 Y93.396 E0.6375
G1 X101.873 Y92.000 E0.6785
G1 X101.934 Y91.492 E0.6935
G1 X102.074 Y91.000 E0.7085
G1 X102.289 Y90.535 E0.7235
G1 X102.573 Y90.110 E0.7385
G1 X102.920 Y89.734 E0.7535
G1 X103.479 Y89.292 E0.7744
G1 X103.672 Y89.978 E0.7954
G1 X103.732 Y90.486 E0.8104
G1 X103.712 Y90.998 E0.8254
G1 X103.612 Y91.500 E0.8404
G1 X103.436 Y91.980 E0.8554
G1 X103.187 Y92.427 E0.8704
G1 X102.326 Y93.527 E0.9114
G1 X103.691 Y94.315 E0.9577
G1 X104.266 Y94.733 E0.9785
G1 X105.437 Y95.788 E1.0247
G1 X106.217 Y94.629 E1.0657
G1 X106.566 Y94.254 E1.0807
G1 X106.968 Y93.938 E1.0957
G1 X107.415 Y93.688 E1.1107
G1 X107.895 Y93.511 E1.1257
G1 X108.397 Y93.411 E1.1408
G1 X109.109 Y93.382 E1.1617
G1 X108.861 Y94.050 E1.1826
G1 X108.611 Y94.497 E1.1976
G1 X108.294 Y94.899 E1.2126
G1 X107.919 Y95.246 E1.2276
G1 X107.494 Y95.531 E1.2426
G1 X107.030 Y95.747 E1.2576
G1 X105.686 Y96.131 E1.2986
G1 X106.328 Y97.571 E1.3449
G1 X106.547 Y98.246 E1.3657
G1 X106.875 Y99.788 E1.4119
G1 X108.187 Y99.309 E1.4529
G1 X108.689 Y99.211 E1.4679
G1 X109.201 Y99.191 E1.4830
G1 X109.709 Y99.252 E1.4980
G1 X110.201 Y99.391 E1.5130
G1 X110.666 Y99.605 E1.5280
G1 X111.259 Y100.000 E1.5489
G1 X110.666 Y100.395 E1.5698
G1 X110.201 Y100.609 E1.5848
G1 X109.709 Y100.748 E1.5998
G1 X109.201 Y100.809 E1.6148
G1 X108.689 Y100.789 E1.6299
G1 X108.187 Y100.691 E1.6449
G1 X106.875 Y100.212 E1.6858
G1 X106.547 Y101.754 E1.7321
G1 X106.328 Y102.429 E1.7529
G1 X105.686 Y103.869 E1.7992
G1 X107.030 Y104.253 E1.8402
G1 X107.494 Y104.469 E1.8552
G1 X107.919 Y104.754 E1.8702
G1 X108.294 Y105.101 E1.8852
G1 X108.611 Y105.503 E1.9002
G1 X108.861 Y105.950 E1.9152
G1 X109.109 Y106.618 E1.9361
G1 X108.397 Y106.589 E1.9570
G1 X107.895 Y106.489 E1.9720
G1 X107.415 Y106.312 E1.9871
G1 X106.968 Y106.062 E2.0021
G1 X106.566 Y105.746 E2.0171
G1 X106.217 Y105.371 E2.0321
G1 X105.437 Y104.212 E2.0731
G1 X104.266 Y105.267 E2.1193
G1 X103.691 Y105.685 E2.1401
G1 X102.326 Y106.473 E2.1864
G1 X103.187 Y107.573 E2.2274
G1 X103.436 Y108.020 E2.2424
G1 X103.612 Y108.500 E2.2574
G1 X103.712 Y109.002 E2.2724
G1 X103.732 Y109.514 E2.2874
G1 X103.672 Y110.022 E2.3024
G1 X103.479 Y110.708 E2.3233
G1 X102.920 Y110.266 E2.3443
G1 X102.573 Y109.890 E2.3593
G1 X102.289 Y109.465 E2.3743
G1 X102.074 Y109.000 E2.3893
G1 X101.934 Y108.508 E2.4043
G1 X101.873 Y108.000 E2.4193
G1 X101.923 Y106.604 E2.4603
G1 X100.355 Y106.769 E2.5066
G1 X99.645 Y106.769 E2.5274
G1 X98.077 Y106.604 E2.5736
G1 X98.127 Y108.000 E2.6146
G1 X98.066 Y108.508 E2.6296
G1 X97.926 Y109.000 E2.6446
G1 X97.711 Y109.465 E2.6596
G1 X97.427 Y109.890 E2.6746
G1 X97.080 Y110.266 E2.6897
G1 X96.521 Y110.708 E2.7106
G1 X96.328 Y110.022 E2.7315
G1 X96.268 Y109.514 E2.7465
G1 X96.288 Y109.002 E2.7615
G1 X96.388 Y108.500 E2.7765
G1 X96.564 Y108.020 E2.7915
G1 X96.813 Y107.573 E2.8065
G1 X97.674 Y106.473 E2.8475
G1 X96.309 Y105.685 E2.8938
G1 X95.734 Y105.267 E2.9146
G1 X94.563 Y104.212 E2.9608
G1 X93.783 Y105.371 E3.0018
G1 X93.434 Y105.746 E3.0168
G1 X93.032 Y106.062 E3.0319
G1 X92.585 Y106.312 E3.0469
G1 X92.105 Y106.489 E3.0619
G1 X91.603 Y106.589 E3.0769
G1 X90.891 Y106.618 E3.0978
G1 X91.139 Y105.950 E3.1187
G1 X91.389 Y105.503 E3.1337
G1 X91.706 Y105.101 E3.1487
G1 X92.081 Y104.754 E3.1637
G1 X92.506 Y104.469 E3.1788
G1 X92.970 Y104.253 E3.1938
G1 X94.314 Y103.869 E3.2347
G1 X93.672 Y102.429 E3.2810
G1 X93.453 Y101.754 E3.3018
G1 X93.125 Y100.212 E3.3481
G1 X91.813 Y100.691 E3.3891
G1 X91.311 Y100.789 E3.4041
G1 X90.799 Y100.809 E3.4191
G1 X90.291 Y100.748 E3.4341
G1 X89.799 Y100.609 E3.4491
G1 X89.334 Y100.395 E3.4641
G1 X88.741 Y100.000 E3.4850
G1 X89.334 Y99.605 E3.5059
G1 X89.799 Y99.391 E3.5209
G1 X90.291 Y99.252 E3.5360
G1 X90.799 Y99.191 E3.5510
G1 X91.311 Y99.211 E3.5660
G1 X91.813 Y99.309 E3.5810
G1 X93.125 Y99.788 E3.6220
G1 X93.453 Y98.246 E3.6682
G1 X93.670 Y97.578 E3.6888
G1 X94.313 Y96.130 E3.7353
G1 X92.970 Y95.747 E3.7763
G1 X92.506 Y95.531 E3.7913
G1 X92.081 Y95.246 E3.8063
G1 X91.706 Y94.899 E3.8213
G1 X91.389 Y94.497 E3.8363
G1 X91.139 Y94.050 E3.8513
G1 X90.891 Y93.382 E3.8722
; outer perimeter
G1 X90.498 Y93.702 F4800
G92 E0
G1 X90.399 Y93.212 E0.0147 F900
G1 X90.577 Y92.967 E0.0236
G1 X91.074 Y92.909 E0.0382
G1 X91.661 Y92.933 E0.0555
G1 X92.236 Y93.048 E0.0727
G1 X92.787 Y93.251 E0.0899
G1 X93.299 Y93.537 E0.1071
G1 X93.760 Y93.900 E0.1243
G1 X94.160 Y94.329 E0.1415
G1 X94.652 Y95.061 E0.1674
G1 X95.432 Y94.359 E0.1982
G1 X96.047 Y93.912 E0.2205
G1 X96.955 Y93.388 E0.2513
G1 X96.412 Y92.693 E0.2771
G1 X96.126 Y92.181 E0.2943
G1 X95.924 Y91.630 E0.3116
G1 X95.810 Y91.054 E0.3288
G1 X95.787 Y90.468 E0.3460
G1 X95.856 Y89.885 E0.3632
G1 X96.014 Y89.320 E0.3804
G1 X96.223 Y88.865 E0.3951
