; G-Code generated by Simplify3D(R) Version 4.0.0
; Nov 27, 2017 at 3:19:49 PM
; Settings Summary
;   processName,Sin Soporte
;   applyToModels,Rollo M2,Rollo M2(2),Rollo M2(3)
;   profileName,Gusty (modified)
;   profileVersion,2017-03-01 08:00:00
;   baseProfile,Default (modified)
;   printMaterial,PLA
;   printQuality,Medium
;   printExtruders,
;   extruderName,Primary Extruder
;   extruderToolheadNumber,0
;   extruderDiameter,0.4
;   extruderAutoWidth,1
;   extruderWidth,0.48
;   extrusionMultiplier,0.98
;   extruderUseRetract,1
;   extruderRetractionDistance,1
;   extruderExtraRestartDistance,0
;   extruderRetractionZLift,0
;   extruderRetractionSpeed,1800
;   extruderUseCoasting,0
;   extruderCoastingDistance,0.2
;   extruderUseWipe,0
;   extruderWipeDistance,5
;   primaryExtruder,0
;   layerHeight,0.15
;   topSolidLayers,4
;   bottomSolidLayers,3
;   perimeterOutlines,2
;   printPerimetersInsideOut,1
;   startPointOption,2
;   startPointOriginX,0
;   startPointOriginY,0
;   sequentialIslands,0
;   spiralVaseMode,0
;   firstLayerHeightPercentage,90
;   firstLayerWidthPercentage,100
;   firstLayerUnderspeed,0.5
;   useRaft,0
;   raftExtruder,0
;   raftTopLayers,3
;   raftBaseLayers,2
;   raftOffset,3
;   raftSeparationDistance,0.14
;   raftTopInfill,100
;   aboveRaftSpeedMultiplier,0.3
;   useSkirt,1
;   skirtExtruder,0
;   skirtLayers,1
;   skirtOutlines,2
;   skirtOffset,4
;   usePrimePillar,0
;   primePillarExtruder,999
;   primePillarWidth,12
;   primePillarLocation,7
;   primePillarSpeedMultiplier,1
;   useOozeShield,0
;   oozeShieldExtruder,999
;   oozeShieldOffset,2
;   oozeShieldOutlines,1
;   oozeShieldSidewallShape,1
;   oozeShieldSidewallAngle,30
;   oozeShieldSpeedMultiplier,1
;   infillExtruder,0
;   internalInfillPattern,Rectilinear
;   externalInfillPattern,Rectilinear
;   infillPercentage,15
;   outlineOverlapPercentage,15
;   infillExtrusionWidthPercentage,100
;   minInfillLength,5
;   infillLayerInterval,1
;   internalInfillAngles,45,-45
;   overlapInternalInfillAngles,0
;   externalInfillAngles,45,-45
;   generateSupport,0
;   supportExtruder,0
;   supportInfillPercentage,30
;   supportExtraInflation,0
;   supportBaseLayers,0
;   denseSupportExtruder,0
;   denseSupportLayers,0
;   denseSupportInfillPercentage,70
;   supportLayerInterval,1
;   supportHorizontalPartOffset,0.3
;   supportUpperSeparationLayers,1
;   supportLowerSeparationLayers,1
;   supportType,0
;   supportGridSpacing,4
;   maxOverhangAngle,45
;   supportAngles,0
;   temperatureName,Primary Extruder,Cama
;   temperatureNumber,0,1
;   temperatureSetpointCount,1,1
;   temperatureSetpointLayers,1,1
;   temperatureSetpointTemperatures,190,60
;   temperatureStabilizeAtStartup,1,1
;   temperatureHeatedBed,0,1
;   temperatureRelayBetweenLayers,0,0
;   temperatureRelayBetweenLoops,1,1
;   fanLayers,1,2
;   fanSpeeds,0,100
;   blipFanToFullPower,0
;   adjustSpeedForCooling,1
;   minSpeedLayerTime,15
;   minCoolingSpeedSlowdown,20
;   increaseFanForCooling,0
;   minFanLayerTime,45
;   maxCoolingFanSpeed,100
;   increaseFanForBridging,0
;   bridgingFanSpeed,100
;   use5D,1
;   relativeEdistances,0
;   allowEaxisZeroing,1
;   independentExtruderAxes,0
;   includeM10123,0
;   stickySupport,1
;   applyToolheadOffsets,0
;   gcodeXoffset,0
;   gcodeYoffset,0
;   gcodeZoffset,0
;   overrideMachineDefinition,0
;   machineTypeOverride,0
;   strokeXoverride,200
;   strokeYoverride,200
;   strokeZoverride,200
;   originOffsetXoverride,0
;   originOffsetYoverride,0
;   originOffsetZoverride,0
;   homeXdirOverride,-1
;   homeYdirOverride,-1
;   homeZdirOverride,-1
;   flipXoverride,1
;   flipYoverride,-1
;   flipZoverride,1
;   toolheadOffsets,0,0|0,0|0,0|0,0|0,0|0,0
;   overrideFirmwareConfiguration,0
;   firmwareTypeOverride,RepRap (Marlin/Repetier/Sprinter)
;   GPXconfigOverride,r2
;   baudRateOverride,115200
;   overridePrinterModels,0
;   printerModelsOverride
;   startingGcode,G28 ; home all axes
;   layerChangeGcode,
;   retractionGcode,
;   toolChangeGcode,
;   endingGcode,G28 X; Home x,M104 S0 ; turn off extruder,M140 S0 ; turn off bed,M84 ; disable motors
;   exportFileFormat,gcode
;   celebration,0
;   celebrationSong,Random Song
;   postProcessing,
;   defaultSpeed,3600
;   outlineUnderspeed,0.5
;   solidInfillUnderspeed,0.8
;   supportUnderspeed,0.8
;   rapidXYspeed,4800
;   rapidZspeed,1000
;   minBridgingArea,50
;   bridgingExtraInflation,0
;   bridgingExtrusionMultiplier,1
;   bridgingSpeedMultiplier,1.1
;   useFixedBridgingAngle,0
;   fixedBridgingAngle,0
;   applyBridgingToPerimeters,0
;   filamentDiameters,1.75|1.75|1.75|1.75|1.75|1.75
;   filamentPricesPerKg,46|46|46|46|46|46
;   filamentDensities,1.25|1.25|1.25|1.25|1.25|1.25
;   useMinPrintHeight,0
;   minPrintHeight,0
;   useMaxPrintHeight,0
;   maxPrintHeight,0
;   useDiaphragm,0
;   diaphragmLayerInterval,20
;   robustSlicing,1
;   mergeAllIntoSolid,0
;   onlyRetractWhenCrossingOutline,1
;   retractBetweenLayers,1
;   useRetractionMinTravel,0
;   retractionMinTravel,3
;   retractWhileWiping,0
;   onlyWipeOutlines,1
;   avoidCrossingOutline,0
;   maxMovementDetourFactor,3
;   toolChangeRetractionDistance,12
;   toolChangeExtraRestartDistance,-0.5
;   toolChangeRetractionSpeed,600
;   externalThinWallType,0
;   internalThinWallType,2
;   thinWallAllowedOverlapPercentage,10
;   singleExtrusionMinLength,1
;   singleExtrusionMinPrintingWidthPercentage,50
;   singleExtrusionMaxPrintingWidthPercentage,200
;   singleExtrusionEndpointExtension,0.2
;   horizontalSizeCompensation,0
G90
M82
M106 S0
M140 S60
M190 S60
M104 S190 T0
M109 S190 T0
G28 ; home all axes
G92 E0
G1 E-1.0000 F1800
G1 Z0.135 F1000
; process Sin Soporte
; layer 1, Z = 0.135
T0
; tool H0.150 W0.480
; skirt
G1 X85.787 Y63.142 F4800
G1 E0.0000 F540
G92 E0
G1 X87.164 Y61.248 E0.0687 F1800
G1 X87.274 Y61.148 E0.0731
G1 X88.852 Y60.225 E0.1267
G1 X88.994 Y60.178 E0.1311
G1 X90.691 Y59.981 E0.1812
G1 X90.719 Y59.979 E0.1820
G1 X91.059 Y59.966 E0.1920
G1 X91.088 Y59.967 E0.1928
G1 X91.247 Y59.973 E0.1975
G1 X91.290 Y59.820 E0.2022
G1 X91.298 Y59.793 E0.2030
G1 X91.416 Y59.473 E0.2130
G1 X91.426 Y59.447 E0.2138
G1 X92.138 Y57.894 E0.2639
G1 X92.227 Y57.774 E0.2683
G1 X93.591 Y56.558 E0.3219
G1 X93.721 Y56.484 E0.3263
G1 X95.947 Y55.760 E0.3950
G1 X96.096 Y55.744 E0.3994
G1 X97.914 Y55.926 E0.4530
G1 X98.057 Y55.971 E0.4574
G1 X99.545 Y56.809 E0.5075
G1 X99.569 Y56.824 E0.5083
G1 X99.852 Y57.014 E0.5183
G1 X99.875 Y57.030 E0.5191
G1 X100.000 Y57.129 E0.5238
G1 X100.125 Y57.030 E0.5285
G1 X100.148 Y57.014 E0.5293
G1 X100.431 Y56.824 E0.5393
G1 X100.455 Y56.809 E0.5401
G1 X101.943 Y55.971 E0.5902
G1 X102.086 Y55.926 E0.5946
G1 X103.904 Y55.744 E0.6482
G1 X104.053 Y55.760 E0.6526
G1 X106.279 Y56.484 E0.7213
G1 X106.409 Y56.558 E0.7257
G1 X107.773 Y57.774 E0.7793
G1 X107.862 Y57.894 E0.7837
G1 X108.574 Y59.447 E0.8338
G1 X108.584 Y59.473 E0.8346
G1 X108.702 Y59.793 E0.8446
G1 X108.710 Y59.820 E0.8454
G1 X108.753 Y59.973 E0.8501
G1 X108.912 Y59.967 E0.8548
G1 X108.941 Y59.966 E0.8556
G1 X109.281 Y59.979 E0.8656
G1 X109.309 Y59.981 E0.8664
G1 X111.006 Y60.178 E0.9165
G1 X111.148 Y60.225 E0.9209
G1 X112.726 Y61.148 E0.9745
G1 X112.836 Y61.248 E0.9789
G1 X114.213 Y63.142 E1.0476
G1 X114.274 Y63.278 E1.0520
G1 X114.663 Y65.064 E1.1056
G1 X114.664 Y65.213 E1.1100
G1 X114.327 Y66.888 E1.1601
G1 X114.321 Y66.915 E1.1609
G1 X114.227 Y67.243 E1.1709
G1 X114.219 Y67.270 E1.1717
G1 X114.163 Y67.419 E1.1764
G1 X114.296 Y67.507 E1.1811
G1 X114.319 Y67.524 E1.1819
G1 X114.587 Y67.734 E1.1919
G1 X114.608 Y67.753 E1.1927
G1 X115.865 Y68.909 E1.2428
G1 X115.952 Y69.031 E1.2472
G1 X116.687 Y70.704 E1.3008
G1 X116.717 Y70.850 E1.3052
G1 X116.717 Y73.192 E1.3739
G1 X116.687 Y73.338 E1.3783
G1 X115.952 Y75.011 E1.4319
G1 X115.865 Y75.133 E1.4363
G1 X114.608 Y76.290 E1.4864
G1 X114.587 Y76.308 E1.4872
G1 X114.319 Y76.518 E1.4972
G1 X114.296 Y76.535 E1.4980
G1 X114.163 Y76.623 E1.5027
G1 X114.219 Y76.772 E1.5074
G1 X114.227 Y76.799 E1.5082
G1 X114.321 Y77.127 E1.5182
G1 X114.327 Y77.154 E1.5190
G1 X114.664 Y78.829 E1.5691
G1 X114.663 Y78.978 E1.5735
G1 X114.274 Y80.764 E1.6271
G1 X114.213 Y80.900 E1.6315
G1 X112.836 Y82.794 E1.7002
G1 X112.726 Y82.895 E1.7046
G1 X111.148 Y83.817 E1.7582
G1 X111.006 Y83.864 E1.7626
G1 X109.309 Y84.061 E1.8127
G1 X109.281 Y84.063 E1.8135
G1 X108.941 Y84.076 E1.8235
G1 X108.913 Y84.076 E1.8243
G1 X108.753 Y84.069 E1.8290
G1 X108.710 Y84.222 E1.8337
G1 X108.702 Y84.249 E1.8345
G1 X108.584 Y84.569 E1.8445
G1 X108.574 Y84.595 E1.8453
G1 X107.925 Y86.011 E1.8910
G1 X108.574 Y87.426 E1.9366
G1 X108.584 Y87.452 E1.9375
G1 X108.702 Y87.772 E1.9475
G1 X108.710 Y87.799 E1.9483
G1 X108.753 Y87.952 E1.9530
G1 X108.913 Y87.945 E1.9576
G1 X108.941 Y87.945 E1.9585
G1 X109.281 Y87.958 E1.9685
G1 X109.309 Y87.960 E1.9693
G1 X111.006 Y88.157 E2.0194
G1 X111.148 Y88.204 E2.0238
G1 X112.726 Y89.127 E2.0774
G1 X112.837 Y89.227 E2.0818
G1 X114.213 Y91.121 E2.1505
G1 X114.274 Y91.257 E2.1548
G1 X114.663 Y93.043 E2.2084
G1 X114.664 Y93.192 E2.2128
G1 X114.327 Y94.867 E2.2629
G1 X114.321 Y94.894 E2.2638
G1 X114.227 Y95.222 E2.2738
G1 X114.219 Y95.249 E2.2746
G1 X114.163 Y95.398 E2.2793
G1 X114.296 Y95.486 E2.2839
G1 X114.319 Y95.503 E2.2848
G1 X114.587 Y95.713 E2.2948
G1 X114.608 Y95.731 E2.2956
G1 X115.865 Y96.888 E2.3457
G1 X115.952 Y97.010 E2.3501
G1 X116.687 Y98.683 E2.4037
G1 X116.717 Y98.829 E2.4081
G1 X116.717 Y101.171 E2.4768
G1 X116.687 Y101.317 E2.4811
G1 X115.952 Y102.990 E2.5347
G1 X115.865 Y103.112 E2.5391
G1 X114.608 Y104.269 E2.5893
G1 X114.587 Y104.287 E2.5901
G1 X114.319 Y104.497 E2.6001
G1 X114.296 Y104.514 E2.6009
G1 X114.163 Y104.602 E2.6056
G1 X114.219 Y104.751 E2.6102
G1 X114.227 Y104.778 E2.6111
G1 X114.321 Y105.106 E2.6211
G1 X114.327 Y105.133 E2.6219
G1 X114.664 Y106.808 E2.6720
G1 X114.663 Y106.957 E2.6764
G1 X114.274 Y108.743 E2.7300
G1 X114.213 Y108.879 E2.7344
G1 X112.837 Y110.773 E2.8031
G1 X112.726 Y110.873 E2.8074
G1 X111.148 Y111.796 E2.8610
G1 X111.006 Y111.843 E2.8654
G1 X109.309 Y112.040 E2.9156
G1 X109.281 Y112.042 E2.9164
G1 X108.941 Y112.055 E2.9264
G1 X108.913 Y112.055 E2.9272
G1 X108.753 Y112.048 E2.9319
G1 X108.710 Y112.201 E2.9365
G1 X108.702 Y112.228 E2.9374
G1 X108.584 Y112.548 E2.9474
G1 X108.574 Y112.574 E2.9482
G1 X107.925 Y113.989 E2.9939
G1 X108.574 Y115.405 E3.0395
G1 X108.584 Y115.431 E3.0403
G1 X108.702 Y115.751 E3.0503
G1 X108.710 Y115.777 E3.0512
G1 X108.753 Y115.931 E3.0558
G1 X108.912 Y115.924 E3.0605
G1 X108.941 Y115.924 E3.0613
G1 X109.281 Y115.937 E3.0713
G1 X109.309 Y115.939 E3.0722
G1 X111.006 Y116.136 E3.1223
G1 X111.148 Y116.183 E3.1267
G1 X112.726 Y117.105 E3.1803
G1 X112.837 Y117.206 E3.1847
G1 X114.213 Y119.100 E3.2533
G1 X114.274 Y119.236 E3.2577
G1 X114.663 Y121.021 E3.3113
G1 X114.664 Y121.171 E3.3157
G1 X114.327 Y122.846 E3.3658
G1 X114.321 Y122.873 E3.3666
G1 X114.227 Y123.201 E3.3766
G1 X114.219 Y123.228 E3.3775
G1 X114.163 Y123.377 E3.3821
G1 X114.296 Y123.465 E3.3868
G1 X114.319 Y123.482 E3.3876
G1 X114.587 Y123.692 E3.3976
G1 X114.608 Y123.710 E3.3985
G1 X115.865 Y124.867 E3.4486
G1 X115.952 Y124.989 E3.4530
G1 X116.687 Y126.662 E3.5066
G1 X116.717 Y126.808 E3.5110
G1 X116.717 Y129.149 E3.5796
G1 X116.687 Y129.296 E3.5840
G1 X115.952 Y130.969 E3.6376
G1 X115.865 Y131.091 E3.6420
G1 X114.608 Y132.247 E3.6921
G1 X114.587 Y132.266 E3.6930
G1 X114.319 Y132.476 E3.7030
G1 X114.296 Y132.493 E3.7038
G1 X114.163 Y132.581 E3.7084
G1 X114.219 Y132.730 E3.7131
G1 X114.227 Y132.757 E3.7139
G1 X114.321 Y133.085 E3.7239
G1 X114.327 Y133.112 E3.7248
G1 X114.664 Y134.787 E3.7749
G1 X114.663 Y134.936 E3.7793
G1 X114.274 Y136.722 E3.8329
G1 X114.213 Y136.858 E3.8373
G1 X112.837 Y138.752 E3.9059
G1 X112.726 Y138.852 E3.9103
G1 X111.148 Y139.775 E3.9639
G1 X111.006 Y139.822 E3.9683
G1 X109.309 Y140.019 E4.0184
G1 X109.281 Y140.021 E4.0193
G1 X108.941 Y140.034 E4.0293
G1 X108.912 Y140.033 E4.0301
G1 X108.753 Y140.027 E4.0347
G1 X108.710 Y140.180 E4.0394
G1 X108.702 Y140.207 E4.0402
G1 X108.584 Y140.527 E4.0502
G1 X108.574 Y140.553 E4.0511
G1 X107.862 Y142.106 E4.1012
G1 X107.773 Y142.226 E4.1056
G1 X106.409 Y143.442 E4.1592
G1 X106.279 Y143.516 E4.1636
G1 X104.052 Y144.240 E4.2322
G1 X103.904 Y144.256 E4.2366
G1 X102.086 Y144.074 E4.2902
G1 X101.943 Y144.029 E4.2946
G1 X100.454 Y143.191 E4.3447
G1 X100.431 Y143.176 E4.3456
G1 X100.148 Y142.986 E4.3555
G1 X100.125 Y142.970 E4.3564
G1 X100.000 Y142.871 E4.3610
G1 X99.875 Y142.970 E4.3657
G1 X99.852 Y142.986 E4.3665
G1 X99.569 Y143.176 E4.3765
G1 X99.546 Y143.191 E4.3774
G1 X98.057 Y144.029 E4.4275
G1 X97.914 Y144.074 E4.4319
G1 X96.096 Y144.256 E4.4855
G1 X95.948 Y144.240 E4.4899
G1 X93.721 Y143.516 E4.5585
G1 X93.591 Y143.442 E4.5629
G1 X92.227 Y142.226 E4.6165
G1 X92.138 Y142.106 E4.6209
G1 X91.426 Y140.553 E4.6710
G1 X91.415 Y140.527 E4.6719
G1 X91.298 Y140.207 E4.6818
G1 X91.290 Y140.180 E4.6827
G1 X91.247 Y140.027 E4.6873
G1 X91.088 Y140.033 E4.6920
G1 X91.059 Y140.034 E4.6928
G1 X90.719 Y140.021 E4.7028
G1 X90.691 Y140.019 E4.7037
G1 X88.994 Y139.822 E4.7538
G1 X88.852 Y139.775 E4.7582
G1 X87.274 Y138.852 E4.8118
G1 X87.163 Y138.752 E4.8162
G1 X85.787 Y136.858 E4.8848
G1 X85.726 Y136.722 E4.8892
G1 X85.337 Y134.936 E4.9428
G1 X85.336 Y134.787 E4.9472
G1 X85.673 Y133.112 E4.9973
G1 X85.679 Y133.085 E4.9982
G1 X85.773 Y132.757 E5.0081
G1 X85.781 Y132.730 E5.0090
G1 X85.837 Y132.581 E5.0136
G1 X85.704 Y132.493 E5.0183
G1 X85.681 Y132.476 E5.0191
G1 X85.413 Y132.266 E5.0291
G1 X85.392 Y132.247 E5.0300
G1 X84.135 Y131.091 E5.0801
G1 X84.048 Y130.969 E5.0845
G1 X83.313 Y129.296 E5.1381
G1 X83.283 Y129.149 E5.1425
G1 X83.283 Y126.808 E5.2111
G1 X83.313 Y126.662 E5.2155
G1 X84.048 Y124.989 E5.2691
G1 X84.135 Y124.867 E5.2735
G1 X85.392 Y123.710 E5.3236
G1 X85.413 Y123.692 E5.3245
G1 X85.681 Y123.482 E5.3345
G1 X85.704 Y123.465 E5.3353
G1 X85.837 Y123.377 E5.3399
G1 X85.781 Y123.228 E5.3446
G1 X85.773 Y123.201 E5.3454
G1 X85.679 Y122.873 E5.3554
G1 X85.673 Y122.846 E5.3563
G1 X85.336 Y121.171 E5.4064
G1 X85.337 Y121.021 E5.4108
G1 X85.726 Y119.236 E5.4644
G1 X85.787 Y119.100 E5.4688
G1 X87.163 Y117.206 E5.5374
G1 X87.274 Y117.105 E5.5418
G1 X88.852 Y116.183 E5.5954
G1 X88.994 Y116.136 E5.5998
G1 X90.691 Y115.939 E5.6499
G1 X90.719 Y115.937 E5.6508
G1 X91.059 Y115.924 E5.6608
G1 X91.088 Y115.924 E5.6616
G1 X91.247 Y115.931 E5.6662
G1 X91.290 Y115.777 E5.6709
G1 X91.298 Y115.751 E5.6717
G1 X91.416 Y115.431 E5.6817
G1 X91.426 Y115.405 E5.6826
G1 X92.075 Y113.989 E5.7282
G1 X91.426 Y112.574 E5.7739
G1 X91.415 Y112.548 E5.7747
G1 X91.298 Y112.228 E5.7847
G1 X91.290 Y112.201 E5.7856
G1 X91.247 Y112.048 E5.7902
G1 X91.087 Y112.055 E5.7949
G1 X91.059 Y112.055 E5.7957
G1 X90.719 Y112.042 E5.8057
G1 X90.691 Y112.040 E5.8065
G1 X88.994 Y111.843 E5.8567
G1 X88.852 Y111.796 E5.8610
G1 X87.274 Y110.873 E5.9146
G1 X87.164 Y110.773 E5.9190
G1 X85.787 Y108.879 E5.9877
G1 X85.726 Y108.743 E5.9921
G1 X85.337 Y106.957 E6.0457
G1 X85.336 Y106.808 E6.0501
G1 X85.673 Y105.133 E6.1002
G1 X85.679 Y105.106 E6.1010
G1 X85.773 Y104.778 E6.1110
G1 X85.781 Y104.751 E6.1119
G1 X85.837 Y104.602 E6.1165
G1 X85.704 Y104.514 E6.1212
G1 X85.681 Y104.497 E6.1220
G1 X85.413 Y104.287 E6.1320
G1 X85.392 Y104.269 E6.1328
G1 X84.135 Y103.112 E6.1830
G1 X84.048 Y102.990 E6.1873
G1 X83.313 Y101.317 E6.2409
G1 X83.283 Y101.171 E6.2453
G1 X83.283 Y98.829 E6.3140
G1 X83.313 Y98.683 E6.3184
G1 X84.048 Y97.010 E6.3720
G1 X84.135 Y96.888 E6.3764
G1 X85.392 Y95.731 E6.4265
G1 X85.413 Y95.713 E6.4273
G1 X85.681 Y95.503 E6.4373
G1 X85.704 Y95.486 E6.4382
G1 X85.837 Y95.398 E6.4428
G1 X85.781 Y95.249 E6.4475
G1 X85.773 Y95.222 E6.4483
G1 X85.679 Y94.894 E6.4583
G1 X85.673 Y94.867 E6.4591
G1 X85.336 Y93.192 E6.5093
G1 X85.337 Y93.043 E6.5136
G1 X85.726 Y91.257 E6.5673
G1 X85.787 Y91.121 E6.5716
G1 X87.164 Y89.227 E6.6403
G1 X87.274 Y89.127 E6.6447
G1 X88.852 Y88.204 E6.6983
G1 X88.994 Y88.157 E6.7027
G1 X90.691 Y87.960 E6.7528
G1 X90.719 Y87.958 E6.7536
G1 X91.059 Y87.945 E6.7636
G1 X91.087 Y87.945 E6.7645
G1 X91.247 Y87.952 E6.7691
G1 X91.290 Y87.799 E6.7738
