; G-Code generated by Simplify3D(R) Version 3.1.1
; oct. 21, 2017 at 8:18:41 P. M.
; Settings Summary
;   processName,Process2
;   applyToModels,Tobillo Trasversal costado,Tobillo Trasversal costado(2),Tobillo Trasversal costado(3),Tobillo Trasversal costado(4)
;   profileName,Gusty (modified)
;   profileVersion,2015-05-01 08:00:00
;   baseProfile,
;   printMaterial,
;   printQuality,
;   printExtruders,
;   extruderName,Primary Extruder
;   extruderToolheadNumber,0
;   extruderDiameter,0.4
;   extruderAutoWidth,1
;   extruderWidth,0.48
;   extrusionMultiplier,0.98
;   extruderUseRetract,1
;   extruderRetractionDistance,3
;   extruderExtraRestartDistance,0
;   extruderRetractionZLift,0
;   extruderRetractionSpeed,1800
;   extruderUseCoasting,0
;   extruderCoastingDistance,0.2
;   extruderUseWipe,0
;   extruderWipeDistance,5
;   primaryExtruder,0
;   layerHeight,0.15
;   topSolidLayers,4
;   bottomSolidLayers,3
;   perimeterOutlines,2
;   printPerimetersInsideOut,1
;   startPointOption,1
;   startPointOriginX,0
;   startPointOriginY,0
;   startPointOriginZ,300
;   sequentialIslands,0
;   spiralVaseMode,0
;   firstLayerHeightPercentage,90
;   firstLayerWidthPercentage,100
;   firstLayerUnderspeed,0.5
;   useRaft,0
;   raftExtruder,0
;   raftLayers,3
;   raftOffset,3
;   raftSeparationDistance,0.14
;   raftInfill,85
;   disableRaftBaseLayers,0
;   useSkirt,1
;   skirtExtruder,0
;   skirtLayers,1
;   skirtOutlines,1
;   skirtOffset,7
;   usePrimePillar,0
;   primePillarExtruder,999
;   primePillarWidth,12
;   primePillarLocation,7
;   primePillarSpeedMultiplier,1
;   useOozeShield,0
;   oozeShieldExtruder,999
;   oozeShieldOffset,2
;   oozeShieldOutlines,1
;   oozeShieldSidewallShape,1
;   oozeShieldSidewallAngle,30
;   oozeShieldSpeedMultiplier,1
;   infillExtruder,0
;   internalInfillPattern,Rectilinear
;   externalInfillPattern,Rectilinear
;   infillPercentage,10
;   outlineOverlapPercentage,15
;   infillExtrusionWidthPercentage,100
;   minInfillLength,5
;   infillLayerInterval,1
;   infillAngles,45,-45
;   overlapInfillAngles,0
;   generateSupport,1
;   supportExtruder,0
;   supportInfillPercentage,30
;   supportExtraInflation,0
;   denseSupportLayers,0
;   denseSupportInfillPercentage,60
;   supportLayerInterval,1
;   supportHorizontalPartOffset,0.15
;   supportUpperSeparationLayers,1
;   supportLowerSeparationLayers,1
;   supportType,0
;   supportGridSpacing,4
;   maxOverhangAngle,45
;   supportAngles,0
;   temperatureName,Primary Extruder,Cama
;   temperatureNumber,0,0
;   temperatureSetpointCount,2,1
;   temperatureSetpointLayers,1,2,1
;   temperatureSetpointTemperatures,195,180,60
;   temperatureStabilizeAtStartup,1,1
;   temperatureHeatedBed,0,1
;   temperatureRelayBetweenLayers,0,0
;   temperatureRelayBetweenLoops,0,0
;   fanLayers,1,2
;   fanSpeeds,0,100
;   blipFanToFullPower,0
;   adjustSpeedForCooling,1
;   minSpeedLayerTime,15
;   minCoolingSpeedSlowdown,20
;   increaseFanForCooling,0
;   minFanLayerTime,45
;   maxCoolingFanSpeed,100
;   increaseFanForBridging,0
;   bridgingFanSpeed,100
;   use5D,1
;   relativeEdistances,0
;   allowEaxisZeroing,1
;   independentExtruderAxes,0
;   includeM10123,0
;   stickySupport,1
;   applyToolheadOffsets,0
;   gcodeXoffset,0
;   gcodeYoffset,0
;   gcodeZoffset,0
;   overrideMachineDefinition,0
;   machineTypeOverride,0
;   strokeXoverride,200
;   strokeYoverride,200
;   strokeZoverride,200
;   originOffsetXoverride,0
;   originOffsetYoverride,0
;   originOffsetZoverride,0
;   homeXdirOverride,-1
;   homeYdirOverride,-1
;   homeZdirOverride,-1
;   flipXoverride,1
;   flipYoverride,-1
;   flipZoverride,1
;   toolheadOffsets,0,0|0,0|0,0|0,0|0,0|0,0
;   overrideFirmwareConfiguration,0
;   firmwareTypeOverride,RepRap (Marlin/Repetier/Sprinter)
;   GPXconfigOverride,r2
;   baudRateOverride,115200
;   overridePrinterModels,0
;   printerModelsOverride
;   startingGcode,G28 ; home all axes
;   layerChangeGcode,
;   retractionGcode,
;   toolChangeGcode,
;   endingGcode,M104 S0 ; turn off extruder,M140 S0 ; turn off bed,G28 X0  ; home X axis,M84 ; disable motors
;   exportFileFormat,gcode
;   celebration,0
;   celebrationSong,Random Song
;   postProcessing,
;   defaultSpeed,3600
;   outlineUnderspeed,0.5
;   solidInfillUnderspeed,0.8
;   supportUnderspeed,0.8
;   rapidXYspeed,6000
;   rapidZspeed,1800
;   minBridgingArea,50
;   bridgingExtraInflation,0
;   bridgingExtrusionMultiplier,1
;   bridgingSpeedMultiplier,1
;   filamentDiameter,1.75
;   filamentPricePerKg,46
;   filamentDensity,1.25
;   useMinPrintHeight,0
;   minPrintHeight,0
;   useMaxPrintHeight,0
;   maxPrintHeight,0
;   useDiaphragm,0
;   diaphragmLayerInterval,20
;   robustSlicing,1
;   mergeAllIntoSolid,0
;   onlyRetractWhenCrossingOutline,1
;   retractBetweenLayers,1
;   useRetractionMinTravel,0
;   retractionMinTravel,3
;   retractWhileWiping,0
;   onlyWipeOutlines,1
;   avoidCrossingOutline,0
;   maxMovementDetourFactor,3
;   toolChangeRetractionDistance,12
;   toolChangeExtraRestartDistance,-0.5
;   toolChangeRetractionSpeed,600
;   allowThinWallGapFill,1
;   thinWallAllowedOverlapPercentage,10
;   horizontalSizeCompensation,0
G90
M82
M106 S0
M140 S60
M190 S60
M104 S195 T0
M109 S195 T0
G28 ; home all axes
G92 E0
G1 E-3.0000 F1800
G1 Z0.135 F1800
; layer 1, Z = 0.135
T0
; tool H0.150 W0.480
; skirt
G1 X75.787 Y52.361 F6000
G1 E0.0000 F540
G92 E0
G1 X75.793 Y52.352 E0.0003 F1800
G1 X76.450 Y51.414 E0.0339
G1 X76.456 Y51.406 E0.0342
G1 X76.856 Y50.930 E0.0524
G1 X76.863 Y50.922 E0.0527
G1 X77.672 Y50.113 E0.0863
G1 X77.680 Y50.106 E0.0866
G1 X78.156 Y49.706 E0.1049
G1 X78.164 Y49.700 E0.1052
G1 X79.102 Y49.043 E0.1387
G1 X79.111 Y49.037 E0.1391
G1 X79.649 Y48.726 E0.1573
G1 X79.658 Y48.722 E0.1576
G1 X80.696 Y48.238 E0.1912
G1 X80.706 Y48.234 E0.1915
G1 X81.290 Y48.021 E0.2097
G1 X81.300 Y48.018 E0.2100
G1 X82.447 Y47.711 E0.2449
G1 X82.459 Y47.708 E0.2452
G1 X83.158 Y47.594 E0.2660
G1 X83.170 Y47.592 E0.2664
G1 X83.279 Y47.585 E0.2696
G1 X83.289 Y47.569 E0.2701
G1 X83.397 Y47.510 E0.2737
G1 X84.473 Y47.510 E0.3053
G1 X88.285 Y47.269 E0.4174
G1 X88.400 Y47.325 E0.4211
G1 X88.571 Y47.576 E0.4300
G1 X88.960 Y47.610 E0.4414
G1 X88.970 Y47.611 E0.4418
G1 X89.584 Y47.719 E0.4600
G1 X89.594 Y47.722 E0.4603
G1 X90.700 Y48.018 E0.4939
G1 X90.710 Y48.021 E0.4943
G1 X91.294 Y48.234 E0.5125
G1 X91.304 Y48.238 E0.5128
G1 X92.341 Y48.722 E0.5464
G1 X92.351 Y48.726 E0.5467
G1 X92.889 Y49.037 E0.5649
G1 X92.898 Y49.043 E0.5652
G1 X93.000 Y49.114 E0.5689
G1 X93.102 Y49.043 E0.5725
G1 X93.111 Y49.037 E0.5728
G1 X93.649 Y48.726 E0.5911
G1 X93.658 Y48.722 E0.5914
G1 X94.696 Y48.238 E0.6250
G1 X94.706 Y48.234 E0.6253
G1 X95.290 Y48.021 E0.6435
G1 X95.300 Y48.018 E0.6438
G1 X96.447 Y47.711 E0.6787
G1 X96.459 Y47.708 E0.6790
G1 X97.158 Y47.594 E0.6998
G1 X97.170 Y47.592 E0.7001
G1 X97.279 Y47.585 E0.7034
G1 X97.289 Y47.569 E0.7039
G1 X97.397 Y47.510 E0.7075
G1 X98.473 Y47.510 E0.7391
G1 X102.285 Y47.269 E0.8511
G1 X102.400 Y47.325 E0.8549
G1 X102.571 Y47.576 E0.8638
G1 X102.960 Y47.610 E0.8752
G1 X102.970 Y47.611 E0.8755
G1 X103.584 Y47.719 E0.8938
G1 X103.594 Y47.722 E0.8941
G1 X104.700 Y48.018 E0.9277
G1 X104.710 Y48.021 E0.9280
G1 X105.294 Y48.234 E0.9463
G1 X105.304 Y48.238 E0.9466
G1 X106.341 Y48.722 E0.9802
G1 X106.351 Y48.726 E0.9805
G1 X106.889 Y49.037 E0.9987
G1 X106.898 Y49.043 E0.9990
G1 X107.000 Y49.114 E1.0027
G1 X107.102 Y49.043 E1.0063
G1 X107.111 Y49.037 E1.0066
G1 X107.649 Y48.726 E1.0249
G1 X107.658 Y48.722 E1.0252
G1 X108.696 Y48.238 E1.0587
G1 X108.706 Y48.234 E1.0591
G1 X109.290 Y48.021 E1.0773
G1 X109.300 Y48.018 E1.0776
G1 X110.447 Y47.711 E1.1124
G1 X110.459 Y47.708 E1.1128
G1 X111.158 Y47.594 E1.1336
G1 X111.170 Y47.592 E1.1339
G1 X111.279 Y47.585 E1.1371
G1 X111.289 Y47.569 E1.1377
G1 X111.397 Y47.510 E1.1413
G1 X112.473 Y47.510 E1.1729
G1 X116.285 Y47.269 E1.2849
G1 X116.400 Y47.325 E1.2887
G1 X116.571 Y47.576 E1.2976
G1 X116.960 Y47.610 E1.3090
G1 X116.970 Y47.611 E1.3093
G1 X117.584 Y47.719 E1.3276
G1 X117.594 Y47.722 E1.3279
G1 X118.700 Y48.018 E1.3615
G1 X118.710 Y48.021 E1.3618
G1 X119.294 Y48.234 E1.3801
G1 X119.304 Y48.238 E1.3804
G1 X120.341 Y48.722 E1.4139
G1 X120.351 Y48.726 E1.4143
G1 X120.889 Y49.037 E1.4325
G1 X120.898 Y49.043 E1.4328
G1 X121.836 Y49.700 E1.4664
G1 X121.844 Y49.706 E1.4667
G1 X122.320 Y50.106 E1.4849
G1 X122.328 Y50.113 E1.4852
G1 X123.137 Y50.922 E1.5188
G1 X123.144 Y50.930 E1.5191
G1 X123.544 Y51.406 E1.5374
G1 X123.550 Y51.414 E1.5377
G1 X124.207 Y52.352 E1.5712
G1 X124.213 Y52.361 E1.5715
G1 X124.524 Y52.899 E1.5898
G1 X124.528 Y52.908 E1.5901
G1 X125.012 Y53.946 E1.6237
G1 X125.016 Y53.956 E1.6240
G1 X125.229 Y54.540 E1.6422
G1 X125.232 Y54.550 E1.6425
G1 X125.528 Y55.655 E1.6761
G1 X125.530 Y55.666 E1.6764
G1 X125.638 Y56.278 E1.6947
G1 X125.640 Y56.288 E1.6950
G1 X125.725 Y57.268 E1.7238
G1 X125.726 Y57.273 E1.7240
G1 X125.739 Y57.583 E1.7331
G1 X125.739 Y57.589 E1.7332
G1 X125.740 Y94.655 E2.8206
G1 X125.740 Y94.661 E2.8207
G1 X125.726 Y94.971 E2.8299
G1 X125.726 Y94.976 E2.8300
G1 X125.640 Y95.962 E2.8590
G1 X125.638 Y95.972 E2.8593
G1 X125.530 Y96.584 E2.8776
G1 X125.528 Y96.595 E2.8779
G1 X125.232 Y97.700 E2.9115
G1 X125.229 Y97.710 E2.9118
G1 X125.016 Y98.294 E2.9300
G1 X125.012 Y98.304 E2.9303
G1 X124.528 Y99.341 E2.9639
G1 X124.524 Y99.351 E2.9642
G1 X124.213 Y99.889 E2.9824
G1 X124.207 Y99.898 E2.9828
G1 X123.550 Y100.836 E3.0163
G1 X123.544 Y100.844 E3.0166
G1 X123.144 Y101.320 E3.0349
G1 X123.137 Y101.328 E3.0352
G1 X122.328 Y102.137 E3.0688
G1 X122.320 Y102.144 E3.0691
G1 X121.844 Y102.544 E3.0873
G1 X121.836 Y102.550 E3.0876
G1 X120.898 Y103.207 E3.1212
G1 X120.889 Y103.213 E3.1215
G1 X120.351 Y103.524 E3.1397
G1 X120.341 Y103.528 E3.1400
G1 X119.304 Y104.012 E3.1736
G1 X119.294 Y104.016 E3.1739
G1 X118.710 Y104.229 E3.1922
G1 X118.700 Y104.232 E3.1925
G1 X117.595 Y104.528 E3.2261
G1 X117.584 Y104.530 E3.2264
G1 X116.972 Y104.638 E3.2446
G1 X116.962 Y104.640 E3.2449
G1 X115.976 Y104.726 E3.2739
G1 X115.971 Y104.726 E3.2741
G1 X115.661 Y104.740 E3.2832
G1 X115.655 Y104.740 E3.2833
G1 X112.345 Y104.740 E3.3805
G1 X112.339 Y104.740 E3.3806
G1 X112.029 Y104.726 E3.3897
G1 X112.024 Y104.726 E3.3899
G1 X111.038 Y104.640 E3.4189
G1 X111.028 Y104.638 E3.4192
G1 X110.416 Y104.530 E3.4375
G1 X110.405 Y104.528 E3.4378
G1 X109.300 Y104.232 E3.4713
G1 X109.290 Y104.229 E3.4717
G1 X108.706 Y104.016 E3.4899
G1 X108.696 Y104.012 E3.4902
G1 X107.659 Y103.528 E3.5238
G1 X107.649 Y103.524 E3.5241
G1 X107.111 Y103.213 E3.5423
G1 X107.102 Y103.207 E3.5426
G1 X107.000 Y103.136 E3.5463
G1 X106.898 Y103.207 E3.5499
G1 X106.889 Y103.213 E3.5502
G1 X106.351 Y103.524 E3.5685
G1 X106.341 Y103.528 E3.5688
G1 X105.304 Y104.012 E3.6024
G1 X105.294 Y104.016 E3.6027
G1 X104.710 Y104.229 E3.6209
G1 X104.700 Y104.232 E3.6212
G1 X103.595 Y104.528 E3.6548
G1 X103.584 Y104.530 E3.6551
G1 X102.972 Y104.638 E3.6733
G1 X102.962 Y104.640 E3.6736
G1 X101.976 Y104.726 E3.7027
G1 X101.971 Y104.726 E3.7028
G1 X101.661 Y104.740 E3.7119
G1 X101.655 Y104.740 E3.7121
G1 X98.345 Y104.740 E3.8092
G1 X98.339 Y104.740 E3.8094
G1 X98.029 Y104.726 E3.8185
G1 X98.024 Y104.726 E3.8186
G1 X97.697 Y104.697 E3.8282
G1 X97.725 Y105.018 E3.8377
G1 X97.726 Y105.023 E3.8378
G1 X97.739 Y105.333 E3.8469
G1 X97.739 Y105.339 E3.8471
G1 X97.740 Y142.405 E4.9345
G1 X97.740 Y142.411 E4.9346
G1 X97.726 Y142.721 E4.9437
G1 X97.726 Y142.726 E4.9439
G1 X97.640 Y143.712 E4.9729
G1 X97.638 Y143.722 E4.9732
G1 X97.530 Y144.334 E4.9915
G1 X97.528 Y144.345 E4.9918
G1 X97.232 Y145.450 E5.0253
G1 X97.229 Y145.460 E5.0256
G1 X97.016 Y146.044 E5.0439
G1 X97.012 Y146.054 E5.0442
G1 X96.528 Y147.091 E5.0778
G1 X96.524 Y147.101 E5.0781
G1 X96.213 Y147.639 E5.0963
G1 X96.207 Y147.648 E5.0966
G1 X95.550 Y148.586 E5.1302
G1 X95.544 Y148.594 E5.1305
G1 X95.144 Y149.070 E5.1487
G1 X95.137 Y149.078 E5.1491
G1 X94.328 Y149.887 E5.1826
G1 X94.320 Y149.894 E5.1829
G1 X93.844 Y150.294 E5.2012
G1 X93.836 Y150.300 E5.2015
G1 X92.898 Y150.957 E5.2351
G1 X92.889 Y150.963 E5.2354
G1 X92.351 Y151.274 E5.2536
G1 X92.341 Y151.278 E5.2539
G1 X91.304 Y151.762 E5.2875
G1 X91.294 Y151.766 E5.2878
G1 X90.710 Y151.979 E5.3060
G1 X90.700 Y151.982 E5.3063
G1 X89.595 Y152.278 E5.3399
G1 X89.584 Y152.280 E5.3402
G1 X88.972 Y152.388 E5.3585
G1 X88.962 Y152.390 E5.3588
G1 X87.976 Y152.476 E5.3878
G1 X87.971 Y152.476 E5.3880
G1 X87.661 Y152.490 E5.3971
G1 X87.655 Y152.490 E5.3972
G1 X84.345 Y152.490 E5.4943
G1 X84.339 Y152.490 E5.4945
G1 X84.029 Y152.476 E5.5036
G1 X84.024 Y152.476 E5.5038
G1 X83.038 Y152.390 E5.5328
G1 X83.028 Y152.388 E5.5331
G1 X82.416 Y152.280 E5.5513
G1 X82.405 Y152.278 E5.5516
G1 X81.300 Y151.982 E5.5852
G1 X81.290 Y151.979 E5.5855
G1 X80.706 Y151.766 E5.6038
G1 X80.696 Y151.762 E5.6041
G1 X79.659 Y151.278 E5.6376
G1 X79.649 Y151.274 E5.6380
G1 X79.111 Y150.963 E5.6562
G1 X79.102 Y150.957 E5.6565
G1 X78.164 Y150.300 E5.6901
G1 X78.156 Y150.294 E5.6904
G1 X77.680 Y149.894 E5.7086
G1 X77.672 Y149.887 E5.7089
G1 X76.863 Y149.078 E5.7425
G1 X76.856 Y149.070 E5.7428
G1 X76.456 Y148.594 E5.7611
G1 X76.450 Y148.586 E5.7614
G1 X75.793 Y147.648 E5.7949
G1 X75.787 Y147.639 E5.7952
G1 X75.476 Y147.101 E5.8135
G1 X75.472 Y147.091 E5.8138
G1 X74.988 Y146.054 E5.8474
G1 X74.984 Y146.044 E5.8477
G1 X74.771 Y145.460 E5.8659
G1 X74.768 Y145.450 E5.8662
G1 X74.472 Y144.345 E5.8998
G1 X74.470 Y144.334 E5.9001
G1 X74.362 Y143.722 E5.9184
G1 X74.360 Y143.712 E5.9187
G1 X74.274 Y142.726 E5.9477
G1 X74.274 Y142.721 E5.9478
G1 X74.260 Y142.411 E5.9569
G1 X74.260 Y142.405 E5.9571
G1 X74.260 Y105.345 E7.0443
G1 X74.260 Y105.339 E7.0444
G1 X74.274 Y105.029 E7.0536
G1 X74.274 Y105.024 E7.0537
G1 X74.360 Y104.038 E7.0827
G1 X74.362 Y104.028 E7.0830
G1 X74.470 Y103.416 E7.1013
G1 X74.472 Y103.405 E7.1016
G1 X74.768 Y102.300 E7.1352
G1 X74.771 Y102.290 E7.1355
G1 X74.984 Y101.706 E7.1537
G1 X74.988 Y101.696 E7.1540
G1 X75.472 Y100.658 E7.1876
G1 X75.476 Y100.649 E7.1879
G1 X75.787 Y100.111 E7.2061
G1 X75.793 Y100.102 E7.2065
G1 X75.864 Y100.000 E7.2101
G1 X75.793 Y99.898 E7.2137
G1 X75.787 Y99.889 E7.2141
G1 X75.476 Y99.351 E7.2323
G1 X75.472 Y99.341 E7.2326
G1 X74.988 Y98.304 E7.2662
G1 X74.984 Y98.294 E7.2665
G1 X74.771 Y97.710 E7.2847
G1 X74.768 Y97.700 E7.2850
G1 X74.472 Y96.595 E7.3186
G1 X74.470 Y96.584 E7.3189
G1 X74.362 Y95.972 E7.3372
G1 X74.360 Y95.962 E7.3375
G1 X74.274 Y94.976 E7.3665
G1 X74.274 Y94.971 E7.3666
G1 X74.260 Y94.661 E7.3758
G1 X74.260 Y94.655 E7.3759
G1 X74.260 Y57.595 E8.4631
G1 X74.260 Y57.589 E8.4633
G1 X74.274 Y57.279 E8.4724
G1 X74.274 Y57.274 E8.4725
G1 X74.360 Y56.288 E8.5015
G1 X74.362 Y56.278 E8.5018
G1 X74.470 Y55.666 E8.5201
G1 X74.472 Y55.655 E8.5204
G1 X74.768 Y54.550 E8.5540
G1 X74.771 Y54.540 E8.5543
G1 X74.984 Y53.956 E8.5725
G1 X74.988 Y53.946 E8.5728
G1 X75.472 Y52.909 E8.6064
G1 X75.476 Y52.899 E8.6067
G1 X75.787 Y52.361 E8.6250
G92 E0
G1 E-3.0000 F1800
; inner perimeter
G1 X86.760 Y57.589 F6000
G1 E0.0000 F1800
G92 E0
G1 X87.111 Y57.425 E0.0114 F1350
G1 X87.429 Y57.203 E0.0227
G1 X87.703 Y56.929 E0.0341
G1 X87.925 Y56.611 E0.0455
G1 X88.089 Y56.260 E0.0568
G1 X88.189 Y55.886 E0.0682
G1 X88.216 Y55.581 E0.0772
G1 X88.639 Y55.778 E0.0909
G1 X88.964 Y56.006 E0.1025
G1 X89.244 Y56.286 E0.1142
G1 X89.472 Y56.611 E0.1258
G1 X89.640 Y56.971 E0.1375
G1 X89.743 Y57.355 E0.1491
G1 X89.779 Y57.776 E0.1615
G1 X89.780 Y62.118 E0.2889
G1 X89.479 Y62.185 E0.2979
G1 X89.224 Y61.639 E0.3156
G1 X88.852 Y61.107 E0.3346
G1 X88.393 Y60.648 E0.3537
G1 X87.861 Y60.276 E0.3727
G1 X87.273 Y60.002 E0.3917
G1 X86.646 Y59.834 E0.4108
G1 X86.000 Y59.777 E0.4298
G1 X85.354 Y59.834 E0.4489
G1 X84.727 Y60.002 E0.4679
G1 X84.139 Y60.276 E0.4869
G1 X83.607 Y60.648 E0.5060
G1 X83.148 Y61.107 E0.5250
G1 X82.776 Y61.639 E0.5440
G1 X82.521 Y62.186 E0.5617
G1 X82.220 Y62.119 E0.5708
G1 X82.220 Y57.781 E0.6980
G1 X82.257 Y57.355 E0.7106
G1 X82.360 Y56.971 E0.7222
G1 X82.528 Y56.611 E0.7339
G1 X82.756 Y56.286 E0.7455
G1 X83.036 Y56.006 E0.7572
G1 X83.361 Y55.778 E0.7688
G1 X83.784 Y55.581 E0.7825
G1 X83.811 Y55.886 E0.7915
G1 X83.911 Y56.260 E0.8029
