; G-Code generated by Simplify3D(R) Version 3.1.1
; oct. 21, 2017 at 4:41:12 P. M.
; Settings Summary
;   processName,Process2
;   applyToModels,Tobillo2
;   profileName,Gusty (modified)
;   profileVersion,2015-05-01 08:00:00
;   baseProfile,
;   printMaterial,
;   printQuality,
;   printExtruders,
;   extruderName,Primary Extruder
;   extruderToolheadNumber,0
;   extruderDiameter,0.4
;   extruderAutoWidth,1
;   extruderWidth,0.48
;   extrusionMultiplier,0.98
;   extruderUseRetract,1
;   extruderRetractionDistance,3
;   extruderExtraRestartDistance,0
;   extruderRetractionZLift,0
;   extruderRetractionSpeed,1800
;   extruderUseCoasting,0
;   extruderCoastingDistance,0.2
;   extruderUseWipe,0
;   extruderWipeDistance,5
;   primaryExtruder,0
;   layerHeight,0.15
;   topSolidLayers,4
;   bottomSolidLayers,3
;   perimeterOutlines,2
;   printPerimetersInsideOut,1
;   startPointOption,1
;   startPointOriginX,0
;   startPointOriginY,0
;   startPointOriginZ,300
;   sequentialIslands,0
;   spiralVaseMode,0
;   firstLayerHeightPercentage,90
;   firstLayerWidthPercentage,100
;   firstLayerUnderspeed,0.5
;   useRaft,0
;   raftExtruder,0
;   raftLayers,3
;   raftOffset,3
;   raftSeparationDistance,0.14
;   raftInfill,85
;   disableRaftBaseLayers,0
;   useSkirt,1
;   skirtExtruder,0
;   skirtLayers,1
;   skirtOutlines,1
;   skirtOffset,7
;   usePrimePillar,0
;   primePillarExtruder,999
;   primePillarWidth,12
;   primePillarLocation,7
;   primePillarSpeedMultiplier,1
;   useOozeShield,0
;   oozeShieldExtruder,999
;   oozeShieldOffset,2
;   oozeShieldOutlines,1
;   oozeShieldSidewallShape,1
;   oozeShieldSidewallAngle,30
;   oozeShieldSpeedMultiplier,1
;   infillExtruder,0
;   internalInfillPattern,Rectilinear
;   externalInfillPattern,Rectilinear
;   infillPercentage,10
;   outlineOverlapPercentage,15
;   infillExtrusionWidthPercentage,100
;   minInfillLength,5
;   infillLayerInterval,1
;   infillAngles,45,-45
;   overlapInfillAngles,0
;   generateSupport,1
;   supportExtruder,0
;   supportInfillPercentage,30
;   supportExtraInflation,0
;   denseSupportLayers,0
;   denseSupportInfillPercentage,60
;   supportLayerInterval,1
;   supportHorizontalPartOffset,0.15
;   supportUpperSeparationLayers,1
;   supportLowerSeparationLayers,1
;   supportType,0
;   supportGridSpacing,4
;   maxOverhangAngle,45
;   supportAngles,0
;   temperatureName,Primary Extruder,Cama
;   temperatureNumber,0,0
;   temperatureSetpointCount,2,1
;   temperatureSetpointLayers,1,2,1
;   temperatureSetpointTemperatures,195,180,60
;   temperatureStabilizeAtStartup,1,1
;   temperatureHeatedBed,0,1
;   temperatureRelayBetweenLayers,0,0
;   temperatureRelayBetweenLoops,0,0
;   fanLayers,1,2
;   fanSpeeds,0,100
;   blipFanToFullPower,0
;   adjustSpeedForCooling,1
;   minSpeedLayerTime,15
;   minCoolingSpeedSlowdown,20
;   increaseFanForCooling,0
;   minFanLayerTime,45
;   maxCoolingFanSpeed,100
;   increaseFanForBridging,0
;   bridgingFanSpeed,100
;   use5D,1
;   relativeEdistances,0
;   allowEaxisZeroing,1
;   independentExtruderAxes,0
;   includeM10123,0
;   stickySupport,1
;   applyToolheadOffsets,0
;   gcodeXoffset,0
;   gcodeYoffset,0
;   gcodeZoffset,0
;   overrideMachineDefinition,0
;   machineTypeOverride,0
;   strokeXoverride,200
;   strokeYoverride,200
;   strokeZoverride,200
;   originOffsetXoverride,0
;   originOffsetYoverride,0
;   originOffsetZoverride,0
;   homeXdirOverride,-1
;   homeYdirOverride,-1
;   homeZdirOverride,-1
;   flipXoverride,1
;   flipYoverride,-1
;   flipZoverride,1
;   toolheadOffsets,0,0|0,0|0,0|0,0|0,0|0,0
;   overrideFirmwareConfiguration,0
;   firmwareTypeOverride,RepRap (Marlin/Repetier/Sprinter)
;   GPXconfigOverride,r2
;   baudRateOverride,115200
;   overridePrinterModels,0
;   printerModelsOverride
;   startingGcode,G28 ; home all axes
;   layerChangeGcode,
;   retractionGcode,
;   toolChangeGcode,
;   endingGcode,M104 S0 ; turn off extruder,M140 S0 ; turn off bed,G28 X0  ; home X axis,M84 ; disable motors
;   exportFileFormat,gcode
;   celebration,0
;   celebrationSong,Random Song
;   postProcessing,
;   defaultSpeed,3600
;   outlineUnderspeed,0.5
;   solidInfillUnderspeed,0.8
;   supportUnderspeed,0.8
;   rapidXYspeed,6000
;   rapidZspeed,1800
;   minBridgingArea,50
;   bridgingExtraInflation,0
;   bridgingExtrusionMultiplier,1
;   bridgingSpeedMultiplier,1
;   filamentDiameter,1.75
;   filamentPricePerKg,46
;   filamentDensity,1.25
;   useMinPrintHeight,0
;   minPrintHeight,0
;   useMaxPrintHeight,0
;   maxPrintHeight,0
;   useDiaphragm,0
;   diaphragmLayerInterval,20
;   robustSlicing,1
;   mergeAllIntoSolid,0
;   onlyRetractWhenCrossingOutline,1
;   retractBetweenLayers,1
;   useRetractionMinTravel,0
;   retractionMinTravel,3
;   retractWhileWiping,0
;   onlyWipeOutlines,1
;   avoidCrossingOutline,0
;   maxMovementDetourFactor,3
;   toolChangeRetractionDistance,12
;   toolChangeExtraRestartDistance,-0.5
;   toolChangeRetractionSpeed,600
;   allowThinWallGapFill,1
;   thinWallAllowedOverlapPercentage,10
;   horizontalSizeCompensation,0
G90
M82
M106 S0
M140 S60
M190 S60
M104 S195 T0
M109 S195 T0
G28 ; home all axes
G92 E0
G1 E-3.0000 F1800
G1 Z0.135 F1800
; layer 1, Z = 0.135
T0
; tool H0.150 W0.480
; skirt
G1 X98.047 Y85.965 F6000
G1 E0.0000 F540
G92 E0
G1 X102.215 Y81.797 E0.1729 F1800
G1 X102.303 Y81.760 E0.1757
G1 X114.197 Y81.760 E0.5246
G1 X114.285 Y81.797 E0.5274
G1 X118.453 Y85.965 E0.7004
G1 X118.490 Y86.053 E0.7032
G1 X118.490 Y96.947 E1.0228
G1 X118.453 Y97.035 E1.0256
G1 X115.489 Y100.000 E1.1485
G1 X118.453 Y102.965 E1.2715
G1 X118.490 Y103.053 E1.2743
G1 X118.490 Y113.947 E1.5939
G1 X118.453 Y114.035 E1.5967
G1 X114.285 Y118.203 E1.7697
G1 X114.197 Y118.240 E1.7725
G1 X102.303 Y118.240 E2.1214
G1 X102.215 Y118.203 E2.1242
G1 X98.047 Y114.035 E2.2971
G1 X98.010 Y113.947 E2.2999
G1 X98.010 Y103.053 E2.6195
G1 X98.047 Y102.965 E2.6223
G1 X101.011 Y100.000 E2.7453
G1 X98.047 Y97.035 E2.8683
G1 X98.010 Y96.947 E2.8711
G1 X98.010 Y86.053 E3.1907
G1 X98.047 Y85.965 E3.1935
G92 E0
G1 E-3.0000 F1800
; inner perimeter
G1 X110.530 Y89.720 F6000
G1 E0.0000 F1800
G92 E0
G1 X110.530 Y93.280 E0.1044 F1350
G1 X105.970 Y93.280 E0.2382
G1 X105.970 Y89.720 E0.3426
G1 X110.530 Y89.720 E0.4764
; outer perimeter
G1 X111.010 Y89.240 F6000
G92 E0
G1 X111.010 Y93.760 E0.1326 F900
G1 X105.490 Y93.760 E0.2945
G1 X105.490 Y89.240 E0.4271
G1 X111.010 Y89.240 E0.5891
; solid layer
G1 X109.814 Y90.128 F6000
G92 E0
G1 X110.122 Y90.436 E0.0128 F1440
G1 X110.122 Y91.115 E0.0327
G1 X109.135 Y90.128 E0.0736
G1 X108.456 Y90.128 E0.0936
G1 X110.122 Y91.794 E0.1627
G1 X110.122 Y92.473 E0.1826
G1 X107.777 Y90.128 E0.2798
G1 X107.099 Y90.128 E0.2998
G1 X109.843 Y92.872 E0.4136
G1 X109.164 Y92.872 E0.4335
G1 X106.420 Y90.128 E0.5474
G1 X106.378 Y90.128 E0.5486
G1 X106.378 Y90.765 E0.5673
G1 X108.485 Y92.872 E0.6547
G1 X107.806 Y92.872 E0.6746
G1 X106.378 Y91.444 E0.7338
G1 X106.378 Y92.123 E0.7537
G1 X107.127 Y92.872 E0.7848
G1 X106.448 Y92.872 E0.8047
G1 X106.378 Y92.802 E0.8077
G92 E0
G1 E-3.0000 F1800
; inner perimeter
G1 X110.530 Y110.280 F6000
G1 E0.0000 F1800
G92 E0
G1 X105.970 Y110.280 E0.1338 F1350
G1 X105.970 Y106.720 E0.2382
G1 X110.530 Y106.720 E0.3720
G1 X110.530 Y110.280 E0.4764
; outer perimeter
G1 X111.010 Y110.760 F6000
G92 E0
G1 X105.490 Y110.760 E0.1619 F900
G1 X105.490 Y106.240 E0.2945
G1 X111.010 Y106.240 E0.4565
G1 X111.010 Y110.760 E0.5891
; solid layer
G1 X109.843 Y107.128 F6000
G92 E0
G1 X110.122 Y107.407 E0.0116 F1440
G1 X110.122 Y108.086 E0.0315
G1 X109.164 Y107.128 E0.0712
G1 X108.486 Y107.128 E0.0911
G1 X110.122 Y108.764 E0.1590
G1 X110.122 Y109.443 E0.1789
G1 X107.807 Y107.128 E0.2750
G1 X107.128 Y107.128 E0.2949
G1 X109.872 Y109.872 E0.4087
G1 X109.193 Y109.872 E0.4286
G1 X106.449 Y107.128 E0.5425
G1 X106.378 Y107.128 E0.5446
G1 X106.378 Y107.736 E0.5624
G1 X108.514 Y109.872 E0.6510
G1 X107.836 Y109.872 E0.6709
G1 X106.378 Y108.414 E0.7314
G1 X106.378 Y109.093 E0.7513
G1 X107.157 Y109.872 E0.7836
G1 X106.478 Y109.872 E0.8035
G1 X106.378 Y109.772 E0.8077
G92 E0
G1 E-3.0000 F1800
; support
G1 X105.380 Y116.000 F6000
G1 E0.0000 F1800
G92 E0
G1 X111.620 Y116.000 E0.1831 F1440
G1 X111.620 Y116.880 E0.2089
G1 X114.930 Y116.880 E0.3060
G1 X114.210 Y117.600 E0.3358
G1 X105.380 Y117.600 E0.5949
G92 E0
G1 E-3.0000 F1800
G1 X105.380 Y119.200 F6000
G1 E0.0000 F1800
G92 E0
G1 X116.620 Y119.200 E0.3297 F1440
G1 X116.620 Y119.120 E0.3321
G1 X117.620 Y119.120 E0.3614
G1 X117.620 Y118.120 E0.3907
G1 X118.620 Y118.120 E0.4201
G1 X118.620 Y117.600 E0.4353
G1 X115.568 Y117.600 E0.5249
G1 X117.168 Y116.000 E0.5913
G1 X119.620 Y116.000 E0.6632
G1 X119.620 Y115.120 E0.6890
G1 X120.620 Y115.120 E0.7183
G1 X120.620 Y114.400 E0.7395
G1 X118.768 Y114.400 E0.7938
G1 X118.860 Y114.307 E0.7977
G1 X118.970 Y114.043 E0.8061
G1 X118.970 Y112.800 E0.8425
G1 X121.620 Y112.800 E0.9202
G1 X121.620 Y112.120 E0.9402
G1 X122.620 Y112.120 E0.9695
G1 X122.620 Y111.200 E0.9965
G1 X119.380 Y111.200 E1.0916
G1 X119.380 Y109.880 E1.1303
G1 X120.380 Y109.880 E1.1596
G1 X120.380 Y109.600 E1.1678
G1 X123.620 Y109.600 E1.2629
G1 X123.620 Y108.120 E1.3063
G1 X124.620 Y108.120 E1.3356
G1 X124.620 Y108.000 E1.3392
G1 X120.380 Y108.000 E1.4635
G1 X120.380 Y106.880 E1.4964
G1 X121.380 Y106.880 E1.5257
G1 X121.380 Y106.400 E1.5398
G1 X124.620 Y106.400 E1.6349
G1 X124.620 Y104.800 E1.6818
G1 X121.380 Y104.800 E1.7768
G1 X121.380 Y103.200 E1.8238
G1 X124.620 Y103.200 E1.9188
G1 X124.620 Y103.120 E1.9212
G1 X125.620 Y103.120 E1.9505
G1 X125.620 Y101.600 E1.9951
G1 X122.380 Y101.600 E2.0901
G1 X122.380 Y100.000 E2.1371
G1 X125.620 Y100.000 E2.2321
G1 X125.620 Y98.400 E2.2791
G1 X122.380 Y98.400 E2.3741
G1 X122.380 Y97.120 E2.4117
G1 X121.380 Y97.120 E2.4410
G1 X121.380 Y96.800 E2.4504
G1 X124.620 Y96.800 E2.5454
G1 X124.620 Y95.200 E2.5924
G1 X121.380 Y95.200 E2.6874
G1 X121.380 Y93.600 E2.7344
G1 X124.620 Y93.600 E2.8294
G1 X124.620 Y92.000 E2.8763
G1 X120.380 Y92.000 E3.0007
G1 X120.380 Y90.400 E3.0477
G1 X123.620 Y90.400 E3.1427
G1 X123.620 Y89.880 E3.1580
G1 X122.620 Y89.880 E3.1873
G1 X122.620 Y88.800 E3.2190
G1 X119.380 Y88.800 E3.3140
G1 X119.380 Y88.120 E3.3340
G1 X118.970 Y88.120 E3.3460
G1 X118.970 Y87.200 E3.3730
G1 X121.620 Y87.200 E3.4507
G1 X121.620 Y85.880 E3.4894
G1 X120.620 Y85.880 E3.5188
G1 X120.620 Y85.600 E3.5270
G1 X118.768 Y85.600 E3.5813
G1 X117.168 Y84.000 E3.6477
G1 X119.620 Y84.000 E3.7197
G1 X119.620 Y82.880 E3.7525
G1 X118.620 Y82.880 E3.7818
G1 X118.620 Y82.400 E3.7959
G1 X115.568 Y82.400 E3.8855
G1 X114.557 Y81.390 E3.9274
G1 X114.293 Y81.280 E3.9358
G1 X105.380 Y81.280 E4.1972
G1 X105.380 Y80.800 E4.2113
G1 X116.620 Y80.800 E4.5411
G1 X116.620 Y79.880 E4.5680
G1 X114.620 Y79.880 E4.6267
G1 X114.620 Y79.200 E4.6467
G1 X105.380 Y79.200 E4.9177
G92 E0
G1 E-3.0000 F1800
G1 X105.380 Y82.400 F6000
G1 E0.0000 F1800
G92 E0
G1 X114.210 Y82.400 E0.2590 F1440
G1 X114.930 Y83.120 E0.2889
G1 X111.620 Y83.120 E0.3860
G1 X111.620 Y84.000 E0.4118
G1 X105.380 Y84.000 E0.5949
G92 E0
G1 E-3.0000 F1800
G1 X115.380 Y84.000 F6000
G1 E0.0000 F1800
G92 E0
G1 X115.810 Y84.000 E0.0126 F1440
G92 E0
G1 E-3.0000 F1800
G1 X116.380 Y85.600 F6000
G1 E0.0000 F1800
G92 E0
G1 X117.410 Y85.600 E0.0302 F1440
G92 E0
G1 E-3.0000 F1800
G1 X105.380 Y95.200 F6000
G1 E0.0000 F1800
G92 E0
G1 X111.620 Y95.200 E0.1831 F1440
G1 X111.620 Y96.800 E0.2300
G1 X105.380 Y96.800 E0.4130
G1 X105.380 Y98.400 E0.4600
G1 X111.620 Y98.400 E0.6430
G1 X111.620 Y100.000 E0.6900
G1 X105.380 Y100.000 E0.8730
G1 X105.380 Y101.600 E0.9200
G1 X111.620 Y101.600 E1.1030
G1 X111.620 Y103.200 E1.1499
G1 X105.380 Y103.200 E1.3330
G1 X105.380 Y104.800 E1.3799
G1 X111.620 Y104.800 E1.5630
G92 E0
G1 E-3.0000 F1800
G1 X116.380 Y114.400 F6000
G1 E0.0000 F1800
G92 E0
G1 X117.410 Y114.400 E0.0302 F1440
G92 E0
G1 E-3.0000 F1800
G1 X115.810 Y116.000 F6000
G1 E0.0000 F1800
G92 E0
G1 X115.380 Y116.000 E0.0126 F1440
G92 E0
G1 E-3.0000 F1800
G1 X109.620 Y124.000 F6000
G1 E0.0000 F1800
G92 E0
G1 X89.380 Y124.000 E0.5937 F1440
G1 X89.380 Y123.120 E0.6196
G1 X87.380 Y123.120 E0.6782
G1 X87.380 Y122.400 E0.6994
G1 X111.620 Y122.400 E1.4104
G1 X111.620 Y122.120 E1.4187
G1 X113.620 Y122.120 E1.4773
G1 X113.620 Y121.120 E1.5067
G1 X114.620 Y121.120 E1.5360
G1 X114.620 Y120.800 E1.5454
G1 X105.380 Y120.800 E1.8165
G1 X105.380 Y120.880 E1.8188
G1 X104.380 Y120.880 E1.8481
G1 X104.380 Y121.880 E1.8775
G1 X93.620 Y121.880 E2.1931
G1 X93.620 Y120.880 E2.2225
G1 X90.620 Y120.880 E2.3105
G1 X90.620 Y120.800 E2.3128
G1 X84.380 Y120.800 E2.4959
G1 X84.380 Y120.120 E2.5158
G1 X83.380 Y120.120 E2.5451
G1 X83.380 Y119.200 E2.5721
G1 X88.620 Y119.200 E2.7258
G1 X88.620 Y118.880 E2.7352
G1 X87.620 Y118.880 E2.7646
G1 X87.620 Y117.880 E2.7939
G1 X85.620 Y117.880 E2.8526
G1 X85.620 Y117.600 E2.8608
G1 X81.380 Y117.600 E2.9852
G1 X81.380 Y117.120 E2.9993
G1 X80.380 Y117.120 E3.0286
G1 X80.380 Y116.120 E3.0579
G1 X79.380 Y116.120 E3.0873
G1 X79.380 Y116.000 E3.0908
G1 X84.620 Y116.000 E3.2445
G1 X84.620 Y115.880 E3.2480
G1 X83.620 Y115.880 E3.2774
G1 X83.620 Y114.880 E3.3067
G1 X82.620 Y114.880 E3.3360
G1 X82.620 Y114.400 E3.3501
G1 X78.380 Y114.400 E3.4745
G1 X78.380 Y113.120 E3.5120
G1 X77.380 Y113.120 E3.5414
G1 X77.380 Y112.800 E3.5508
G1 X81.620 Y112.800 E3.6751
G1 X81.620 Y111.880 E3.7021
G1 X80.620 Y111.880 E3.7315
G1 X80.620 Y111.200 E3.7514
G1 X77.380 Y111.200 E3.8465
G1 X77.380 Y111.120 E3.8488
G1 X76.380 Y111.120 E3.8781
G1 X76.380 Y109.600 E3.9227
G1 X79.620 Y109.600 E4.0178
G1 X79.620 Y108.880 E4.0389
G1 X78.620 Y108.880 E4.0682
G1 X78.620 Y108.000 E4.0941
G1 X75.380 Y108.000 E4.1891
G1 X75.380 Y106.400 E4.2360
G1 X78.620 Y106.400 E4.3311
G1 X78.620 Y105.880 E4.3463
G1 X77.620 Y105.880 E4.3757
G1 X77.620 Y104.800 E4.4074
G1 X74.380 Y104.800 E4.5024
G1 X74.380 Y103.200 E4.5493
G1 X77.620 Y103.200 E4.6444
G1 X77.620 Y101.600 E4.6913
G1 X74.380 Y101.600 E4.7864
G1 X74.380 Y100.000 E4.8333
G1 X77.620 Y100.000 E4.9284
G1 X77.620 Y98.400 E4.9753
G1 X74.380 Y98.400 E5.0703
G1 X74.380 Y96.800 E5.1173
G1 X77.620 Y96.800 E5.2123
G1 X77.620 Y95.200 E5.2593
G1 X74.380 Y95.200 E5.3543
G1 X74.380 Y93.880 E5.3930
G1 X75.380 Y93.880 E5.4224
G1 X75.380 Y93.600 E5.4306
G1 X78.620 Y93.600 E5.5256
G1 X78.620 Y92.000 E5.5726
G1 X75.380 Y92.000 E5.6676
G1 X75.380 Y90.880 E5.7005
G1 X76.380 Y90.880 E5.7298
G1 X76.380 Y90.400 E5.7439
G1 X79.620 Y90.400 E5.8389
G1 X79.620 Y89.120 E5.8765
G1 X80.620 Y89.120 E5.9058
G1 X80.620 Y88.800 E5.9152
G1 X77.380 Y88.800 E6.0102
G1 X77.380 Y87.200 E6.0572
G1 X81.620 Y87.200 E6.1816
G1 X81.620 Y86.120 E6.2132
G1 X82.620 Y86.120 E6.2426
G1 X82.620 Y85.600 E6.2578
G1 X78.380 Y85.600 E6.3822
G1 X78.380 Y84.880 E6.4033
G1 X79.380 Y84.880 E6.4327
G1 X79.380 Y84.000 E6.4585
G1 X84.620 Y84.000 E6.6122
G1 X84.620 Y83.120 E6.6380
G1 X85.620 Y83.120 E6.6674
G1 X85.620 Y82.400 E6.6885
G1 X81.380 Y82.400 E6.8129
G1 X81.380 Y81.880 E6.8281
G1 X82.380 Y81.880 E6.8575
G1 X82.380 Y80.880 E6.8868
G1 X83.380 Y80.880 E6.9161
G1 X83.380 Y80.800 E6.9185
G1 X88.620 Y80.800 E7.0722
G1 X88.620 Y80.120 E7.0921
G1 X90.620 Y80.120 E7.1508
G1 X90.620 Y79.200 E7.1778
G1 X84.380 Y79.200 E7.3608
G1 X84.380 Y78.880 E7.3702
G1 X86.380 Y78.880 E7.4289
G1 X86.380 Y77.880 E7.4582
G1 X87.380 Y77.880 E7.4876
G1 X87.380 Y77.600 E7.4958
G1 X111.620 Y77.600 E8.2069
G1 X111.620 Y76.880 E8.2280
G1 X109.620 Y76.880 E8.2867
G1 X109.620 Y76.000 E8.3125
G1 X89.380 Y76.000 E8.9062
G92 E0
G1 E-3.0000 F1800
; layer 2, Z = 0.285
M104 S180 T0
M106 S255
; inner perimeter
G1 X105.970 Y93.280 F6000
G1 Z0.285 F1800
G1 E0.0000 F1800
G92 E0
G1 X105.970 Y89.720 E0.1044 F2700
G1 X110.530 Y89.720 E0.2382
G1 X110.530 Y93.280 E0.3426
G1 X105.970 Y93.280 E0.4764
; outer perimeter
G1 X105.490 Y93.760 F6000
G92 E0
G1 X105.490 Y89.240 E0.1326 F1800
G1 X111.010 Y89.240 E0.2945
G1 X111.010 Y93.760 E0.4271
G1 X105.490 Y93.760 E0.5891
; solid layer
G1 X106.378 Y90.228 F6000
G92 E0
G1 X106.478 Y90.128 E0.0041 F2880
G1 X107.157 Y90.128 E0.0241
G1 X106.378 Y90.907 E0.0564
G1 X106.378 Y91.586 E0.0763
G1 X107.836 Y90.128 E0.1367
G1 X108.514 Y90.128 E0.1567
G1 X106.378 Y92.264 E0.2453
