; G-Code generated by Simplify3D(R) Version 4.0.0
; Mar 25, 2018 at 7:03:08 PM
; Settings Summary
;   processName,Con Soporte
;   applyToModels,Tobillo1,Tobillo2
;   profileName,Gusty (modified)
;   profileVersion,2017-03-01 08:00:00
;   baseProfile,Default (modified)
;   printMaterial,PLA
;   printQuality,Medium
;   printExtruders,
;   extruderName,Primary Extruder
;   extruderToolheadNumber,0
;   extruderDiameter,0.4
;   extruderAutoWidth,1
;   extruderWidth,0.48
;   extrusionMultiplier,0.98
;   extruderUseRetract,1
;   extruderRetractionDistance,1
;   extruderExtraRestartDistance,0
;   extruderRetractionZLift,0
;   extruderRetractionSpeed,1800
;   extruderUseCoasting,0
;   extruderCoastingDistance,0.2
;   extruderUseWipe,0
;   extruderWipeDistance,5
;   primaryExtruder,0
;   layerHeight,0.15
;   topSolidLayers,4
;   bottomSolidLayers,3
;   perimeterOutlines,2
;   printPerimetersInsideOut,1
;   startPointOption,2
;   startPointOriginX,0
;   startPointOriginY,0
;   sequentialIslands,0
;   spiralVaseMode,0
;   firstLayerHeightPercentage,90
;   firstLayerWidthPercentage,100
;   firstLayerUnderspeed,0.5
;   useRaft,0
;   raftExtruder,0
;   raftTopLayers,3
;   raftBaseLayers,2
;   raftOffset,3
;   raftSeparationDistance,0.14
;   raftTopInfill,100
;   aboveRaftSpeedMultiplier,0.3
;   useSkirt,1
;   skirtExtruder,0
;   skirtLayers,1
;   skirtOutlines,2
;   skirtOffset,4
;   usePrimePillar,0
;   primePillarExtruder,999
;   primePillarWidth,12
;   primePillarLocation,7
;   primePillarSpeedMultiplier,1
;   useOozeShield,0
;   oozeShieldExtruder,999
;   oozeShieldOffset,2
;   oozeShieldOutlines,1
;   oozeShieldSidewallShape,1
;   oozeShieldSidewallAngle,30
;   oozeShieldSpeedMultiplier,1
;   infillExtruder,0
;   internalInfillPattern,Rectilinear
;   externalInfillPattern,Rectilinear
;   infillPercentage,15
;   outlineOverlapPercentage,15
;   infillExtrusionWidthPercentage,100
;   minInfillLength,5
;   infillLayerInterval,1
;   internalInfillAngles,45,-45
;   overlapInternalInfillAngles,0
;   externalInfillAngles,45,-45
;   generateSupport,1
;   supportExtruder,0
;   supportInfillPercentage,30
;   supportExtraInflation,0
;   supportBaseLayers,0
;   denseSupportExtruder,0
;   denseSupportLayers,0
;   denseSupportInfillPercentage,70
;   supportLayerInterval,1
;   supportHorizontalPartOffset,0.3
;   supportUpperSeparationLayers,1
;   supportLowerSeparationLayers,1
;   supportType,0
;   supportGridSpacing,4
;   maxOverhangAngle,45
;   supportAngles,0
;   temperatureName,Primary Extruder,Cama
;   temperatureNumber,0,1
;   temperatureSetpointCount,1,1
;   temperatureSetpointLayers,1,1
;   temperatureSetpointTemperatures,190,60
;   temperatureStabilizeAtStartup,1,1
;   temperatureHeatedBed,0,1
;   temperatureRelayBetweenLayers,0,0
;   temperatureRelayBetweenLoops,1,1
;   fanLayers,1,2
;   fanSpeeds,0,100
;   blipFanToFullPower,0
;   adjustSpeedForCooling,1
;   minSpeedLayerTime,15
;   minCoolingSpeedSlowdown,20
;   increaseFanForCooling,0
;   minFanLayerTime,45
;   maxCoolingFanSpeed,100
;   increaseFanForBridging,0
;   bridgingFanSpeed,100
;   use5D,1
;   relativeEdistances,0
;   allowEaxisZeroing,1
;   independentExtruderAxes,0
;   includeM10123,0
;   stickySupport,1
;   applyToolheadOffsets,0
;   gcodeXoffset,0
;   gcodeYoffset,0
;   gcodeZoffset,0
;   overrideMachineDefinition,0
;   machineTypeOverride,0
;   strokeXoverride,200
;   strokeYoverride,200
;   strokeZoverride,200
;   originOffsetXoverride,0
;   originOffsetYoverride,0
;   originOffsetZoverride,0
;   homeXdirOverride,-1
;   homeYdirOverride,-1
;   homeZdirOverride,-1
;   flipXoverride,1
;   flipYoverride,-1
;   flipZoverride,1
;   toolheadOffsets,0,0|0,0|0,0|0,0|0,0|0,0
;   overrideFirmwareConfiguration,0
;   firmwareTypeOverride,RepRap (Marlin/Repetier/Sprinter)
;   GPXconfigOverride,r2
;   baudRateOverride,115200
;   overridePrinterModels,0
;   printerModelsOverride
;   startingGcode,G28 ; home all axes
;   layerChangeGcode,
;   retractionGcode,
;   toolChangeGcode,
;   endingGcode,G28 X; Home X,M104 S0 ; turn off extruder,M140 S0 ; turn off bed,M84 ; disable motors
;   exportFileFormat,gcode
;   celebration,0
;   celebrationSong,Random Song
;   postProcessing,
;   defaultSpeed,3600
;   outlineUnderspeed,0.5
;   solidInfillUnderspeed,0.8
;   supportUnderspeed,0.8
;   rapidXYspeed,4800
;   rapidZspeed,1000
;   minBridgingArea,50
;   bridgingExtraInflation,0
;   bridgingExtrusionMultiplier,1
;   bridgingSpeedMultiplier,1.1
;   useFixedBridgingAngle,0
;   fixedBridgingAngle,0
;   applyBridgingToPerimeters,0
;   filamentDiameters,1.75|1.75|1.75|1.75|1.75|1.75
;   filamentPricesPerKg,190|46|46|46|46|46
;   filamentDensities,1.25|1.25|1.25|1.25|1.25|1.25
;   useMinPrintHeight,0
;   minPrintHeight,0
;   useMaxPrintHeight,0
;   maxPrintHeight,0
;   useDiaphragm,0
;   diaphragmLayerInterval,20
;   robustSlicing,1
;   mergeAllIntoSolid,0
;   onlyRetractWhenCrossingOutline,1
;   retractBetweenLayers,1
;   useRetractionMinTravel,0
;   retractionMinTravel,3
;   retractWhileWiping,0
;   onlyWipeOutlines,1
;   avoidCrossingOutline,0
;   maxMovementDetourFactor,3
;   toolChangeRetractionDistance,12
;   toolChangeExtraRestartDistance,-0.5
;   toolChangeRetractionSpeed,600
;   externalThinWallType,0
;   internalThinWallType,2
;   thinWallAllowedOverlapPercentage,10
;   singleExtrusionMinLength,1
;   singleExtrusionMinPrintingWidthPercentage,50
;   singleExtrusionMaxPrintingWidthPercentage,200
;   singleExtrusionEndpointExtension,0.2
;   horizontalSizeCompensation,0
G90
M82
M106 S0
M140 S60
M190 S60
M104 S190 T0
M109 S190 T0
G28 ; home all axes
G92 E0
G1 E-1.0000 F1800
G1 Z0.135 F1000
; process Con Soporte
; layer 1, Z = 0.135
T0
; tool H0.150 W0.480
; skirt
G1 X74.920 Y60.715 F4800
G1 E0.0000 F540
G92 E0
G1 X77.465 Y58.170 E0.1056 F1800
G1 X77.730 Y58.060 E0.1140
G1 X82.810 Y58.060 E0.2630
G1 X82.810 Y56.980 E0.2947
G1 X82.920 Y56.715 E0.3031
G1 X85.465 Y54.170 E0.4087
G1 X85.730 Y54.060 E0.4171
G1 X97.770 Y54.060 E0.7703
G1 X98.035 Y54.170 E0.7787
G1 X99.750 Y55.885 E0.8499
G1 X101.465 Y54.170 E0.9211
G1 X101.730 Y54.060 E0.9295
G1 X113.770 Y54.060 E1.2827
G1 X114.035 Y54.170 E1.2911
G1 X116.580 Y56.715 E1.3967
G1 X116.690 Y56.980 E1.4051
G1 X116.690 Y58.060 E1.4368
G1 X117.770 Y58.060 E1.4685
G1 X118.035 Y58.170 E1.4769
G1 X120.580 Y60.715 E1.5825
G1 X120.690 Y60.980 E1.5909
G1 X120.690 Y62.060 E1.6226
G1 X121.770 Y62.060 E1.6542
G1 X122.035 Y62.170 E1.6627
G1 X124.580 Y64.715 E1.7683
G1 X124.690 Y64.980 E1.7767
G1 X124.690 Y66.060 E1.8084
G1 X125.770 Y66.060 E1.8400
G1 X126.035 Y66.170 E1.8484
G1 X128.580 Y68.715 E1.9540
G1 X128.690 Y68.980 E1.9625
G1 X128.690 Y81.020 E2.3157
G1 X128.580 Y81.285 E2.3241
G1 X126.865 Y83.000 E2.3952
G1 X128.580 Y84.715 E2.4664
G1 X128.690 Y84.980 E2.4748
G1 X128.690 Y97.020 E2.8280
G1 X128.580 Y97.285 E2.8364
G1 X126.035 Y99.830 E2.9420
G1 X125.770 Y99.940 E2.9504
G1 X124.690 Y99.940 E2.9821
G1 X124.690 Y101.020 E3.0138
G1 X124.580 Y101.285 E3.0222
G1 X122.035 Y103.830 E3.1278
G1 X121.770 Y103.940 E3.1362
G1 X120.690 Y103.940 E3.1679
G1 X120.690 Y105.020 E3.1996
G1 X120.580 Y105.285 E3.2080
G1 X118.035 Y107.830 E3.3136
G1 X117.770 Y107.940 E3.3220
G1 X116.690 Y107.940 E3.3537
G1 X116.690 Y109.020 E3.3853
G1 X116.689 Y109.023 E3.3854
G1 X120.020 Y109.023 E3.4831
G1 X120.285 Y109.132 E3.4915
G1 X120.445 Y109.292 E3.4982
G1 X120.565 Y109.243 E3.5020
G1 X126.339 Y109.243 E3.6714
G1 X126.604 Y109.352 E3.6798
G1 X129.150 Y111.898 E3.7854
G1 X129.259 Y112.163 E3.7938
G1 X129.259 Y143.763 E4.7208
G1 X129.150 Y144.027 E4.7292
G1 X126.604 Y146.573 E4.8348
G1 X126.339 Y146.683 E4.8432
G1 X120.565 Y146.683 E5.0126
G1 X120.445 Y146.633 E5.0164
G1 X120.285 Y146.793 E5.0231
G1 X120.020 Y146.903 E5.0315
G1 X79.980 Y146.903 E6.2061
G1 X79.715 Y146.793 E6.2145
G1 X79.555 Y146.633 E6.2211
G1 X79.435 Y146.683 E6.2249
G1 X73.661 Y146.683 E6.3943
G1 X73.396 Y146.573 E6.4027
G1 X70.850 Y144.027 E6.5084
G1 X70.741 Y143.763 E6.5168
G1 X70.741 Y112.163 E7.4438
G1 X70.850 Y111.898 E7.4522
G1 X73.396 Y109.352 E7.5578
G1 X73.661 Y109.243 E7.5662
G1 X79.435 Y109.243 E7.7356
G1 X79.555 Y109.292 E7.7394
G1 X79.715 Y109.132 E7.7460
G1 X79.980 Y109.023 E7.7544
G1 X82.811 Y109.023 E7.8375
G1 X82.810 Y109.020 E7.8376
G1 X82.810 Y107.940 E7.8692
G1 X77.730 Y107.940 E8.0183
G1 X77.465 Y107.830 E8.0267
G1 X74.920 Y105.285 E8.1323
G1 X74.810 Y105.020 E8.1407
G1 X74.810 Y99.940 E8.2897
G1 X73.730 Y99.940 E8.3214
G1 X73.465 Y99.830 E8.3298
G1 X70.920 Y97.285 E8.4354
G1 X70.810 Y97.020 E8.4438
G1 X70.810 Y84.980 E8.7970
G1 X70.920 Y84.715 E8.8054
G1 X72.635 Y83.000 E8.8766
G1 X70.920 Y81.285 E8.9477
G1 X70.810 Y81.020 E8.9562
G1 X70.810 Y68.980 E9.3094
G1 X70.920 Y68.715 E9.3178
G1 X73.465 Y66.170 E9.4234
G1 X73.730 Y66.060 E9.4318
G1 X74.810 Y66.060 E9.4635
G1 X74.810 Y60.980 E9.6125
G1 X74.920 Y60.715 E9.6209
G1 X75.327 Y60.987 F4800
G92 E0
G1 X77.737 Y58.577 E0.1000 F1800
G1 X77.825 Y58.540 E0.1028
G1 X83.290 Y58.540 E0.2631
G1 X83.290 Y57.075 E0.3061
G1 X83.327 Y56.987 E0.3089
G1 X85.737 Y54.577 E0.4089
G1 X85.825 Y54.540 E0.4117
G1 X97.675 Y54.540 E0.7593
G1 X97.763 Y54.577 E0.7621
G1 X99.750 Y56.564 E0.8445
G1 X101.737 Y54.577 E0.9270
G1 X101.825 Y54.540 E0.9298
G1 X113.675 Y54.540 E1.2774
G1 X113.763 Y54.577 E1.2802
G1 X116.173 Y56.987 E1.3802
G1 X116.210 Y57.075 E1.3830
G1 X116.210 Y58.540 E1.4260
G1 X117.675 Y58.540 E1.4689
G1 X117.763 Y58.577 E1.4717
G1 X120.173 Y60.987 E1.5717
G1 X120.210 Y61.075 E1.5745
G1 X120.210 Y62.540 E1.6175
G1 X121.675 Y62.540 E1.6605
G1 X121.763 Y62.577 E1.6633
G1 X124.173 Y64.987 E1.7633
G1 X124.210 Y65.075 E1.7661
G1 X124.210 Y66.540 E1.8090
G1 X125.675 Y66.540 E1.8520
G1 X125.763 Y66.577 E1.8548
G1 X128.173 Y68.987 E1.9548
G1 X128.210 Y69.075 E1.9576
G1 X128.210 Y80.925 E2.3052
G1 X128.173 Y81.013 E2.3080
G1 X126.186 Y83.000 E2.3905
G1 X128.173 Y84.987 E2.4729
G1 X128.210 Y85.075 E2.4757
G1 X128.210 Y96.925 E2.8233
G1 X128.173 Y97.013 E2.8261
G1 X125.763 Y99.423 E2.9261
G1 X125.675 Y99.460 E2.9289
G1 X124.210 Y99.460 E2.9719
G1 X124.210 Y100.925 E3.0148
G1 X124.173 Y101.013 E3.0176
G1 X121.763 Y103.423 E3.1177
G1 X121.675 Y103.460 E3.1205
G1 X120.210 Y103.460 E3.1634
G1 X120.210 Y104.925 E3.2064
G1 X120.173 Y105.013 E3.2092
G1 X117.763 Y107.423 E3.3092
G1 X117.675 Y107.460 E3.3120
G1 X116.210 Y107.460 E3.3550
G1 X116.210 Y108.925 E3.3979
G1 X116.173 Y109.013 E3.4007
G1 X115.684 Y109.503 E3.4210
G1 X119.925 Y109.503 E3.5455
G1 X120.013 Y109.539 E3.5483
G1 X120.402 Y109.929 E3.5644
G1 X120.572 Y109.759 E3.5715
G1 X120.660 Y109.723 E3.5743
G1 X126.244 Y109.723 E3.7381
G1 X126.332 Y109.759 E3.7409
G1 X128.743 Y112.170 E3.8409
G1 X128.779 Y112.258 E3.8437
G1 X128.779 Y143.667 E4.7651
G1 X128.743 Y143.755 E4.7679
G1 X126.332 Y146.166 E4.8679
G1 X126.244 Y146.203 E4.8707
G1 X120.660 Y146.203 E5.0345
G1 X120.572 Y146.166 E5.0373
G1 X120.402 Y145.996 E5.0443
G1 X120.013 Y146.386 E5.0605
G1 X119.925 Y146.423 E5.0633
G1 X80.075 Y146.423 E6.2323
G1 X79.987 Y146.386 E6.2351
G1 X79.598 Y145.996 E6.2512
G1 X79.428 Y146.166 E6.2583
G1 X79.340 Y146.203 E6.2611
G1 X73.756 Y146.203 E6.4249
G1 X73.668 Y146.166 E6.4277
G1 X71.257 Y143.755 E6.5277
G1 X71.221 Y143.667 E6.5305
G1 X71.221 Y112.258 E7.4519
G1 X71.257 Y112.170 E7.4547
G1 X73.668 Y109.759 E7.5547
G1 X73.756 Y109.723 E7.5575
G1 X79.340 Y109.723 E7.7213
G1 X79.428 Y109.759 E7.7241
G1 X79.598 Y109.929 E7.7311
G1 X79.987 Y109.539 E7.7473
G1 X80.075 Y109.503 E7.7501
G1 X83.816 Y109.503 E7.8598
G1 X83.327 Y109.013 E7.8802
G1 X83.290 Y108.925 E7.8830
G1 X83.290 Y107.460 E7.9259
G1 X77.825 Y107.460 E8.0862
G1 X77.737 Y107.423 E8.0890
G1 X75.327 Y105.013 E8.1890
G1 X75.290 Y104.925 E8.1918
G1 X75.290 Y99.460 E8.3522
G1 X73.825 Y99.460 E8.3951
G1 X73.737 Y99.423 E8.3979
G1 X71.327 Y97.013 E8.4979
G1 X71.290 Y96.925 E8.5007
G1 X71.290 Y85.075 E8.8483
G1 X71.327 Y84.987 E8.8511
G1 X73.314 Y83.000 E8.9336
G1 X71.327 Y81.013 E9.0160
G1 X71.290 Y80.925 E9.0188
G1 X71.290 Y69.075 E9.3664
G1 X71.327 Y68.987 E9.3692
G1 X73.737 Y66.577 E9.4692
G1 X73.825 Y66.540 E9.4720
G1 X75.290 Y66.540 E9.5150
G1 X75.290 Y61.075 E9.6753
G1 X75.327 Y60.987 E9.6781
G92 E0
G1 E-1.0000 F1800
; inner perimeter
G1 X105.720 Y72.720 F4800
G1 E0.0000 F1800
G92 E0
G1 X110.280 Y72.720 E0.1338 F1350
G1 X110.280 Y76.280 E0.2382
G1 X105.720 Y76.280 E0.3720
G1 X105.720 Y72.720 E0.4764
; outer perimeter
G1 X105.240 Y72.240 F4800
G92 E0
G1 X110.760 Y72.240 E0.1619 F900
G1 X110.760 Y76.760 E0.2945
G1 X105.240 Y76.760 E0.4565
G1 X105.240 Y72.240 E0.5891
; solid layer
G1 X106.128 Y75.581 F4800
G92 E0
G1 X106.419 Y75.872 E0.0121 F1440
G1 X107.098 Y75.872 E0.0320
G1 X106.128 Y74.902 E0.0722
G1 X106.128 Y74.223 E0.0921
G1 X107.777 Y75.872 E0.1605
G1 X108.455 Y75.872 E0.1804
G1 X106.128 Y73.545 E0.2770
G1 X106.128 Y73.128 E0.2892
G1 X106.390 Y73.128 E0.2969
G1 X109.134 Y75.872 E0.4108
G1 X109.813 Y75.872 E0.4307
G1 X107.069 Y73.128 E0.5445
G1 X107.748 Y73.128 E0.5644
G1 X109.872 Y75.252 E0.6525
G1 X109.872 Y74.573 E0.6725
G1 X108.427 Y73.128 E0.7324
G1 X109.106 Y73.128 E0.7523
G1 X109.872 Y73.894 E0.7841
G1 X109.872 Y73.216 E0.8040
G1 X109.784 Y73.128 E0.8077
G92 E0
G1 E-1.0000 F1800
; inner perimeter
G1 X110.280 Y89.720 F4800
G1 E0.0000 F1800
G92 E0
G1 X110.280 Y93.280 E0.1044 F1350
G1 X105.720 Y93.280 E0.2382
G1 X105.720 Y89.720 E0.3426
G1 X110.280 Y89.720 E0.4764
; outer perimeter
G1 X110.760 Y89.240 F4800
G92 E0
G1 X110.760 Y93.760 E0.1326 F900
G1 X105.240 Y93.760 E0.2945
G1 X105.240 Y89.240 E0.4271
G1 X110.760 Y89.240 E0.5891
; solid layer
G1 X109.814 Y90.128 F4800
G92 E0
G1 X109.872 Y90.186 E0.0024 F1440
G1 X109.872 Y90.865 E0.0223
G1 X109.135 Y90.128 E0.0529
G1 X108.456 Y90.128 E0.0728
G1 X109.872 Y91.544 E0.1315
G1 X109.872 Y92.223 E0.1515
G1 X107.777 Y90.128 E0.2384
G1 X107.099 Y90.128 E0.2583
G1 X109.843 Y92.872 E0.3721
G1 X109.164 Y92.872 E0.3920
G1 X106.420 Y90.128 E0.5059
G1 X106.128 Y90.128 E0.5144
G1 X106.128 Y90.515 E0.5258
G1 X108.485 Y92.872 E0.6236
G1 X107.806 Y92.872 E0.6435
G1 X106.128 Y91.194 E0.7131
G1 X106.128 Y91.873 E0.7330
G1 X107.127 Y92.872 E0.7745
G1 X106.448 Y92.872 E0.7944
G1 X106.128 Y92.552 E0.8077
G92 E0
G1 E-1.0000 F1800
; inner perimeter
G1 X123.085 Y114.683 F4800
G1 E0.0000 F1800
G92 E0
G1 X123.819 Y114.683 E0.0215 F1350
G1 X123.819 Y141.243 E0.8007
G1 X123.085 Y141.243 E0.8222
G1 X123.085 Y114.683 E1.6014
; outer perimeter
G1 X122.605 Y114.203 F4800
G92 E0
G1 X124.299 Y114.203 E0.0497 F900
G1 X124.299 Y141.723 E0.8570
G1 X122.605 Y141.723 E0.9067
G1 X122.605 Y114.203 E1.7140
G92 E0
G1 E-1.0000 F1800
; inner perimeter
G1 X76.915 Y114.683 F4800
G1 E0.0000 F1800
G92 E0
G1 X76.915 Y141.243 E0.7791 F1350
G1 X76.181 Y141.243 E0.8007
G1 X76.181 Y114.683 E1.5798
G1 X76.915 Y114.683 E1.6014
; outer perimeter
G1 X77.395 Y114.203 F4800
G92 E0
G1 X77.395 Y141.723 E0.8073 F900
G1 X75.701 Y141.723 E0.8570
G1 X75.701 Y114.203 E1.6643
G1 X77.395 Y114.203 E1.7140
G92 E0
G1 E-1.0000 F1800
; support
G1 X82.020 Y114.400 F4800
G1 E0.0000 F1800
G92 E0
G1 X117.980 Y114.400 E1.0549 F1440
G1 X117.980 Y116.000 E1.1018
G1 X82.020 Y116.000 E2.1567
G1 X82.020 Y117.600 E2.2037
G1 X117.980 Y117.600 E3.2586
G1 X117.980 Y119.200 E3.3055
G1 X82.020 Y119.200 E4.3604
G1 X82.020 Y120.800 E4.4074
G1 X117.980 Y120.800 E5.4623
G1 X117.980 Y122.400 E5.5092
G1 X82.020 Y122.400 E6.5641
G1 X82.020 Y124.000 E6.6110
G1 X117.980 Y124.000 E7.6659
G1 X117.980 Y125.600 E7.7129
G1 X82.020 Y125.600 E8.7678
G1 X82.020 Y127.200 E8.8147
G1 X117.980 Y127.200 E9.8696
G1 X117.980 Y128.800 E9.9166
G1 X82.020 Y128.800 E10.9715
G1 X82.020 Y130.400 E11.0184
G1 X117.980 Y130.400 E12.0733
G1 X117.980 Y132.000 E12.1202
G1 X82.020 Y132.000 E13.1751
G1 X82.020 Y133.600 E13.2221
G1 X117.980 Y133.600 E14.2770
G1 X117.980 Y135.200 E14.3239
G1 X82.020 Y135.200 E15.3788
G1 X82.020 Y136.800 E15.4257
G1 X117.980 Y136.800 E16.4806
G1 X117.980 Y138.400 E16.5276
G1 X82.020 Y138.400 E17.5825
G1 X82.020 Y140.000 E17.6294
G1 X117.980 Y140.000 E18.6843
G1 X117.980 Y141.600 E18.7313
G1 X82.020 Y141.600 E19.7862
G92 E0
G1 E-1.0000 F1800
G1 X95.730 Y106.400 F4800
G1 E0.0000 F1800
G92 E0
