; G-Code generated by Simplify3D(R) Version 4.0.0
; Apr 20, 2018 at 3:24:19 PM
; Settings Summary
;   processName,Con Soporte
;   applyToModels,Trasversal,Tobillo1,Trasversal(2),Trasversal(3),Trasversal(4),Tobillo1(2)
;   profileName,Gusty (modified)
;   profileVersion,2017-03-01 08:00:00
;   baseProfile,Default (modified)
;   printMaterial,PLA
;   printQuality,Medium
;   printExtruders,
;   extruderName,Primary Extruder
;   extruderToolheadNumber,0
;   extruderDiameter,0.4
;   extruderAutoWidth,1
;   extruderWidth,0.48
;   extrusionMultiplier,0.98
;   extruderUseRetract,1
;   extruderRetractionDistance,1
;   extruderExtraRestartDistance,0
;   extruderRetractionZLift,0
;   extruderRetractionSpeed,1800
;   extruderUseCoasting,0
;   extruderCoastingDistance,0.2
;   extruderUseWipe,0
;   extruderWipeDistance,5
;   primaryExtruder,0
;   layerHeight,0.15
;   topSolidLayers,4
;   bottomSolidLayers,3
;   perimeterOutlines,2
;   printPerimetersInsideOut,1
;   startPointOption,2
;   startPointOriginX,0
;   startPointOriginY,0
;   sequentialIslands,0
;   spiralVaseMode,0
;   firstLayerHeightPercentage,90
;   firstLayerWidthPercentage,100
;   firstLayerUnderspeed,0.5
;   useRaft,0
;   raftExtruder,0
;   raftTopLayers,3
;   raftBaseLayers,2
;   raftOffset,3
;   raftSeparationDistance,0.14
;   raftTopInfill,100
;   aboveRaftSpeedMultiplier,0.3
;   useSkirt,1
;   skirtExtruder,0
;   skirtLayers,1
;   skirtOutlines,2
;   skirtOffset,4
;   usePrimePillar,0
;   primePillarExtruder,999
;   primePillarWidth,12
;   primePillarLocation,7
;   primePillarSpeedMultiplier,1
;   useOozeShield,0
;   oozeShieldExtruder,999
;   oozeShieldOffset,2
;   oozeShieldOutlines,1
;   oozeShieldSidewallShape,1
;   oozeShieldSidewallAngle,30
;   oozeShieldSpeedMultiplier,1
;   infillExtruder,0
;   internalInfillPattern,Rectilinear
;   externalInfillPattern,Rectilinear
;   infillPercentage,15
;   outlineOverlapPercentage,15
;   infillExtrusionWidthPercentage,100
;   minInfillLength,5
;   infillLayerInterval,1
;   internalInfillAngles,45,-45
;   overlapInternalInfillAngles,0
;   externalInfillAngles,45,-45
;   generateSupport,1
;   supportExtruder,0
;   supportInfillPercentage,30
;   supportExtraInflation,0
;   supportBaseLayers,0
;   denseSupportExtruder,0
;   denseSupportLayers,0
;   denseSupportInfillPercentage,70
;   supportLayerInterval,1
;   supportHorizontalPartOffset,0.3
;   supportUpperSeparationLayers,1
;   supportLowerSeparationLayers,1
;   supportType,0
;   supportGridSpacing,4
;   maxOverhangAngle,45
;   supportAngles,0
;   temperatureName,Primary Extruder,Cama
;   temperatureNumber,0,1
;   temperatureSetpointCount,1,1
;   temperatureSetpointLayers,1,1
;   temperatureSetpointTemperatures,190,60
;   temperatureStabilizeAtStartup,1,1
;   temperatureHeatedBed,0,1
;   temperatureRelayBetweenLayers,0,0
;   temperatureRelayBetweenLoops,1,1
;   fanLayers,1,2
;   fanSpeeds,0,100
;   blipFanToFullPower,0
;   adjustSpeedForCooling,1
;   minSpeedLayerTime,15
;   minCoolingSpeedSlowdown,20
;   increaseFanForCooling,0
;   minFanLayerTime,45
;   maxCoolingFanSpeed,100
;   increaseFanForBridging,0
;   bridgingFanSpeed,100
;   use5D,1
;   relativeEdistances,0
;   allowEaxisZeroing,1
;   independentExtruderAxes,0
;   includeM10123,0
;   stickySupport,1
;   applyToolheadOffsets,0
;   gcodeXoffset,0
;   gcodeYoffset,0
;   gcodeZoffset,0
;   overrideMachineDefinition,0
;   machineTypeOverride,0
;   strokeXoverride,200
;   strokeYoverride,200
;   strokeZoverride,200
;   originOffsetXoverride,0
;   originOffsetYoverride,0
;   originOffsetZoverride,0
;   homeXdirOverride,-1
;   homeYdirOverride,-1
;   homeZdirOverride,-1
;   flipXoverride,1
;   flipYoverride,-1
;   flipZoverride,1
;   toolheadOffsets,0,0|0,0|0,0|0,0|0,0|0,0
;   overrideFirmwareConfiguration,0
;   firmwareTypeOverride,RepRap (Marlin/Repetier/Sprinter)
;   GPXconfigOverride,r2
;   baudRateOverride,115200
;   overridePrinterModels,0
;   printerModelsOverride
;   startingGcode,G28 ; home all axes
;   layerChangeGcode,
;   retractionGcode,
;   toolChangeGcode,
;   endingGcode,G28 X; Home X,M104 S0 ; turn off extruder,M140 S0 ; turn off bed,M84 ; disable motors
;   exportFileFormat,gcode
;   celebration,0
;   celebrationSong,Random Song
;   postProcessing,
;   defaultSpeed,3600
;   outlineUnderspeed,0.5
;   solidInfillUnderspeed,0.8
;   supportUnderspeed,0.8
;   rapidXYspeed,4800
;   rapidZspeed,1000
;   minBridgingArea,50
;   bridgingExtraInflation,0
;   bridgingExtrusionMultiplier,1
;   bridgingSpeedMultiplier,1.1
;   useFixedBridgingAngle,0
;   fixedBridgingAngle,0
;   applyBridgingToPerimeters,0
;   filamentDiameters,1.75|1.75|1.75|1.75|1.75|1.75
;   filamentPricesPerKg,190|46|46|46|46|46
;   filamentDensities,1.25|1.25|1.25|1.25|1.25|1.25
;   useMinPrintHeight,0
;   minPrintHeight,0
;   useMaxPrintHeight,0
;   maxPrintHeight,0
;   useDiaphragm,0
;   diaphragmLayerInterval,20
;   robustSlicing,1
;   mergeAllIntoSolid,0
;   onlyRetractWhenCrossingOutline,1
;   retractBetweenLayers,1
;   useRetractionMinTravel,0
;   retractionMinTravel,3
;   retractWhileWiping,0
;   onlyWipeOutlines,1
;   avoidCrossingOutline,0
;   maxMovementDetourFactor,3
;   toolChangeRetractionDistance,12
;   toolChangeExtraRestartDistance,-0.5
;   toolChangeRetractionSpeed,600
;   externalThinWallType,0
;   internalThinWallType,2
;   thinWallAllowedOverlapPercentage,10
;   singleExtrusionMinLength,1
;   singleExtrusionMinPrintingWidthPercentage,50
;   singleExtrusionMaxPrintingWidthPercentage,200
;   singleExtrusionEndpointExtension,0.2
;   horizontalSizeCompensation,0
G90
M82
M106 S0
M140 S60
M190 S60
M104 S190 T0
M109 S190 T0
G28 ; home all axes
G92 E0
G1 E-1.0000 F1800
G1 Z0.135 F1000
; process Con Soporte
; layer 1, Z = 0.135
T0
; tool H0.150 W0.480
; skirt
G1 X69.670 Y40.715 F4800
G1 E0.0000 F540
G92 E0
G1 X72.215 Y38.170 E0.1056 F1800
G1 X72.480 Y38.060 E0.1140
G1 X84.520 Y38.060 E0.4672
G1 X84.785 Y38.170 E0.4756
G1 X85.500 Y38.885 E0.5053
G1 X86.215 Y38.170 E0.5350
G1 X86.480 Y38.060 E0.5434
G1 X98.520 Y38.060 E0.8966
G1 X98.785 Y38.170 E0.9050
G1 X99.500 Y38.885 E0.9347
G1 X100.215 Y38.170 E0.9643
G1 X100.480 Y38.060 E0.9727
G1 X112.520 Y38.060 E1.3259
G1 X112.785 Y38.170 E1.3343
G1 X113.500 Y38.885 E1.3640
G1 X114.215 Y38.170 E1.3937
G1 X114.480 Y38.060 E1.4021
G1 X126.520 Y38.060 E1.7553
G1 X126.785 Y38.170 E1.7637
G1 X129.330 Y40.715 E1.8693
G1 X129.440 Y40.980 E1.8777
G1 X129.440 Y49.020 E2.1136
G1 X129.400 Y49.117 E2.1166
G1 X129.707 Y50.232 E2.1506
G1 X129.720 Y50.328 E2.1534
G1 X129.720 Y84.621 E3.1594
G1 X129.720 Y84.637 E3.1599
G1 X129.711 Y84.827 E3.1655
G1 X129.710 Y84.843 E3.1659
G1 X129.640 Y85.648 E3.1896
G1 X129.636 Y85.679 E3.1906
G1 X129.570 Y86.054 E3.2017
G1 X129.563 Y86.085 E3.2027
G1 X129.329 Y86.958 E3.2292
G1 X129.320 Y86.988 E3.2301
G1 X129.189 Y87.345 E3.2413
G1 X129.177 Y87.374 E3.2422
G1 X128.795 Y88.193 E3.2687
G1 X128.781 Y88.221 E3.2696
G1 X128.591 Y88.551 E3.2808
G1 X128.574 Y88.577 E3.2817
G1 X128.055 Y89.318 E3.3082
G1 X128.036 Y89.343 E3.3091
G1 X128.034 Y89.345 E3.3092
G1 X129.150 Y90.461 E3.3555
G1 X129.259 Y90.726 E3.3639
G1 X129.259 Y124.326 E4.3496
G1 X129.150 Y124.591 E4.3580
G1 X128.714 Y125.026 E4.3761
G1 X129.150 Y125.461 E4.3941
G1 X129.259 Y125.726 E4.4025
G1 X129.259 Y159.326 E5.3882
G1 X129.150 Y159.591 E5.3966
G1 X126.604 Y162.136 E5.5022
G1 X126.339 Y162.246 E5.5106
G1 X120.565 Y162.246 E5.6800
G1 X120.300 Y162.136 E5.6884
G1 X119.630 Y161.466 E5.7162
G1 X80.370 Y161.466 E6.8679
G1 X79.700 Y162.136 E6.8957
G1 X79.435 Y162.246 E6.9041
G1 X73.661 Y162.246 E7.0735
G1 X73.396 Y162.136 E7.0819
G1 X70.850 Y159.591 E7.1876
G1 X70.741 Y159.326 E7.1960
G1 X70.741 Y125.726 E8.1816
G1 X70.850 Y125.461 E8.1900
G1 X71.286 Y125.026 E8.2081
G1 X70.850 Y124.591 E8.2262
G1 X70.741 Y124.326 E8.2346
G1 X70.741 Y90.726 E9.2202
G1 X70.850 Y90.461 E9.2286
G1 X71.442 Y89.870 E9.2532
G1 X71.230 Y89.657 E9.2620
G1 X71.209 Y89.634 E9.2629
G1 X70.964 Y89.343 E9.2741
G1 X70.945 Y89.318 E9.2750
G1 X70.426 Y88.577 E9.3015
G1 X70.409 Y88.551 E9.3024
G1 X70.219 Y88.221 E9.3136
G1 X70.205 Y88.193 E9.3145
G1 X69.823 Y87.374 E9.3410
G1 X69.811 Y87.345 E9.3420
G1 X69.680 Y86.988 E9.3531
G1 X69.671 Y86.958 E9.3540
G1 X69.437 Y86.085 E9.3806
G1 X69.430 Y86.054 E9.3815
G1 X69.364 Y85.679 E9.3926
G1 X69.360 Y85.648 E9.3936
G1 X69.290 Y84.843 E9.4173
G1 X69.289 Y84.827 E9.4177
G1 X69.280 Y84.637 E9.4233
G1 X69.280 Y84.621 E9.4238
G1 X69.280 Y50.328 E10.4298
G1 X69.293 Y50.232 E10.4326
G1 X69.600 Y49.117 E10.4666
G1 X69.560 Y49.020 E10.4696
G1 X69.560 Y40.980 E10.7055
G1 X69.670 Y40.715 E10.7139
G1 X70.077 Y40.987 F4800
G92 E0
G1 X72.487 Y38.577 E0.1000 F1800
G1 X72.575 Y38.540 E0.1028
G1 X84.425 Y38.540 E0.4504
G1 X84.513 Y38.577 E0.4532
G1 X85.500 Y39.564 E0.4942
G1 X86.487 Y38.577 E0.5351
G1 X86.575 Y38.540 E0.5379
G1 X98.425 Y38.540 E0.8855
G1 X98.513 Y38.577 E0.8883
G1 X99.500 Y39.564 E0.9293
G1 X100.487 Y38.577 E0.9702
G1 X100.575 Y38.540 E0.9730
G1 X112.425 Y38.540 E1.3206
G1 X112.513 Y38.577 E1.3234
G1 X113.500 Y39.564 E1.3644
G1 X114.487 Y38.577 E1.4054
G1 X114.575 Y38.540 E1.4082
G1 X126.425 Y38.540 E1.7558
G1 X126.513 Y38.577 E1.7586
G1 X128.923 Y40.987 E1.8586
G1 X128.960 Y41.075 E1.8614
G1 X128.960 Y48.925 E2.0916
G1 X128.923 Y49.013 E2.0944
G1 X128.847 Y49.090 E2.0976
G1 X128.928 Y49.226 E2.1023
G1 X128.940 Y49.255 E2.1032
G1 X129.236 Y50.329 E2.1359
G1 X129.240 Y50.361 E2.1368
G1 X129.240 Y84.616 E3.1417
G1 X129.240 Y84.621 E3.1419
G1 X129.232 Y84.801 E3.1471
G1 X129.232 Y84.806 E3.1473
G1 X129.163 Y85.596 E3.1705
G1 X129.161 Y85.606 E3.1708
G1 X129.099 Y85.960 E3.1814
G1 X129.096 Y85.971 E3.1817
G1 X128.868 Y86.823 E3.2076
G1 X128.865 Y86.833 E3.2079
G1 X128.742 Y87.171 E3.2185
G1 X128.738 Y87.181 E3.2188
G1 X128.365 Y87.981 E3.2447
G1 X128.360 Y87.990 E3.2450
G1 X128.180 Y88.302 E3.2555
G1 X128.174 Y88.311 E3.2558
G1 X127.668 Y89.034 E3.2817
G1 X127.662 Y89.042 E3.2820
G1 X127.431 Y89.318 E3.2926
G1 X127.423 Y89.325 E3.2929
G1 X127.379 Y89.370 E3.2947
G1 X128.743 Y90.733 E3.3513
G1 X128.779 Y90.821 E3.3541
G1 X128.779 Y124.231 E4.3342
G1 X128.743 Y124.319 E4.3370
G1 X128.036 Y125.026 E4.3663
G1 X128.743 Y125.733 E4.3957
G1 X128.779 Y125.821 E4.3985
G1 X128.779 Y159.231 E5.3785
G1 X128.743 Y159.319 E5.3813
G1 X126.332 Y161.729 E5.4813
G1 X126.244 Y161.766 E5.4841
G1 X120.660 Y161.766 E5.6479
G1 X120.572 Y161.729 E5.6507
G1 X119.829 Y160.986 E5.6816
G1 X80.171 Y160.986 E6.8449
G1 X79.428 Y161.729 E6.8758
G1 X79.340 Y161.766 E6.8786
G1 X73.756 Y161.766 E7.0424
G1 X73.668 Y161.729 E7.0452
G1 X71.257 Y159.319 E7.1452
G1 X71.221 Y159.231 E7.1480
G1 X71.221 Y125.821 E8.1281
G1 X71.257 Y125.733 E8.1309
G1 X71.964 Y125.026 E8.1602
G1 X71.257 Y124.319 E8.1895
G1 X71.221 Y124.231 E8.1923
G1 X71.221 Y90.821 E9.1724
G1 X71.257 Y90.733 E9.1752
G1 X72.121 Y89.870 E9.2111
G1 X71.577 Y89.325 E9.2336
G1 X71.569 Y89.318 E9.2339
G1 X71.338 Y89.042 E9.2445
G1 X71.332 Y89.034 E9.2448
G1 X70.826 Y88.311 E9.2707
G1 X70.820 Y88.302 E9.2710
G1 X70.640 Y87.990 E9.2816
G1 X70.635 Y87.981 E9.2819
G1 X70.262 Y87.181 E9.3078
G1 X70.258 Y87.171 E9.3081
G1 X70.135 Y86.833 E9.3186
G1 X70.132 Y86.823 E9.3189
G1 X69.903 Y85.971 E9.3448
G1 X69.901 Y85.960 E9.3451
G1 X69.839 Y85.606 E9.3557
G1 X69.837 Y85.596 E9.3560
G1 X69.768 Y84.806 E9.3792
G1 X69.768 Y84.801 E9.3794
G1 X69.760 Y84.621 E9.3847
G1 X69.760 Y84.616 E9.3848
G1 X69.760 Y50.361 E10.3897
G1 X69.764 Y50.329 E10.3907
G1 X70.060 Y49.255 E10.4233
G1 X70.072 Y49.226 E10.4243
G1 X70.153 Y49.090 E10.4289
G1 X70.077 Y49.013 E10.4321
G1 X70.040 Y48.925 E10.4349
G1 X70.040 Y41.075 E10.6652
G1 X70.077 Y40.987 E10.6680
G92 E0
G1 E-1.0000 F1800
; inner perimeter
G1 X76.074 Y49.573 F4800
G1 E0.0000 F1800
G92 E0
G1 X76.714 Y49.210 E0.0216 F1350
G1 X77.407 Y48.961 E0.0432
G1 X78.132 Y48.835 E0.0648
G1 X78.868 Y48.835 E0.0864
G1 X79.593 Y48.961 E0.1079
G1 X80.286 Y49.210 E0.1295
G1 X80.926 Y49.573 E0.1511
G1 X81.494 Y50.041 E0.1727
G1 X81.973 Y50.600 E0.1943
G1 X82.280 Y51.115 E0.2119
G1 X82.280 Y52.056 E0.2395
G1 X81.941 Y52.131 E0.2497
G1 X81.724 Y51.665 E0.2648
G1 X81.352 Y51.133 E0.2838
G1 X80.893 Y50.674 E0.3028
G1 X80.361 Y50.302 E0.3219
G1 X79.773 Y50.028 E0.3409
G1 X79.146 Y49.860 E0.3600
G1 X78.500 Y49.803 E0.3790
G1 X77.854 Y49.860 E0.3980
G1 X77.227 Y50.028 E0.4171
G1 X76.639 Y50.302 E0.4361
G1 X76.107 Y50.674 E0.4551
G1 X75.648 Y51.133 E0.4742
G1 X75.276 Y51.665 E0.4932
G1 X75.058 Y52.131 E0.5083
G1 X74.720 Y52.056 E0.5185
G1 X74.720 Y51.115 E0.5461
G1 X75.027 Y50.600 E0.5637
G1 X75.506 Y50.041 E0.5853
G1 X76.074 Y49.573 E0.6069
G92 E0
G1 E-1.0000 F1800
G1 X75.059 Y76.421 F4800
G1 E0.0000 F1800
G92 E0
G1 X75.276 Y76.887 E0.0151 F1350
G1 X75.648 Y77.419 E0.0341
G1 X76.107 Y77.878 E0.0532
G1 X76.639 Y78.250 E0.0722
G1 X77.227 Y78.524 E0.0912
G1 X77.854 Y78.692 E0.1103
G1 X78.500 Y78.749 E0.1293
G1 X79.146 Y78.692 E0.1484
G1 X79.773 Y78.524 E0.1674
G1 X80.361 Y78.250 E0.1864
G1 X80.893 Y77.878 E0.2055
G1 X81.352 Y77.419 E0.2245
G1 X81.724 Y76.887 E0.2435
G1 X81.941 Y76.421 E0.2586
G1 X82.280 Y76.496 E0.2688
G1 X82.280 Y84.495 E0.5034
G1 X82.243 Y84.921 E0.5160
G1 X82.140 Y85.305 E0.5277
G1 X81.972 Y85.665 E0.5393
G1 X81.744 Y85.990 E0.5509
G1 X81.464 Y86.270 E0.5626
G1 X81.139 Y86.498 E0.5742
G1 X80.779 Y86.666 E0.5859
G1 X80.395 Y86.769 E0.5975
G1 X79.969 Y86.806 E0.6101
G1 X77.031 Y86.806 E0.6963
G1 X76.605 Y86.769 E0.7088
G1 X76.221 Y86.666 E0.7205
G1 X75.861 Y86.498 E0.7321
G1 X75.536 Y86.270 E0.7438
G1 X75.256 Y85.990 E0.7554
G1 X75.028 Y85.665 E0.7671
G1 X74.860 Y85.305 E0.7787
G1 X74.757 Y84.921 E0.7903
G1 X74.720 Y84.495 E0.8029
G1 X74.720 Y76.496 E1.0376
G1 X75.058 Y76.421 E1.0477
; outer perimeter
G1 X74.240 Y84.516 F4800
G92 E0
G1 X74.240 Y50.983 E0.9837 F900
G1 X74.636 Y50.319 E1.0064
G1 X75.169 Y49.697 E1.0304
G1 X75.801 Y49.177 E1.0544
G1 X76.513 Y48.772 E1.0784
G1 X77.284 Y48.495 E1.1025
G1 X78.091 Y48.355 E1.1265
G1 X78.909 Y48.355 E1.1505
G1 X79.716 Y48.495 E1.1745
G1 X80.487 Y48.772 E1.1985
G1 X81.199 Y49.177 E1.2226
G1 X81.831 Y49.697 E1.2466
G1 X82.364 Y50.319 E1.2706
G1 X82.760 Y50.983 E1.2933
G1 X82.760 Y84.515 E2.2770
G1 X82.717 Y85.005 E2.2914
G1 X82.593 Y85.470 E2.3055
G1 X82.389 Y85.906 E2.3196
G1 X82.114 Y86.300 E2.3337
G1 X81.773 Y86.640 E2.3478
G1 X81.380 Y86.915 E2.3619
G1 X80.944 Y87.119 E2.3761
G1 X80.479 Y87.243 E2.3902
G1 X79.989 Y87.286 E2.4046
G1 X77.011 Y87.286 E2.4920
G1 X76.521 Y87.243 E2.5064
G1 X76.056 Y87.119 E2.5205
G1 X75.620 Y86.915 E2.5346
G1 X75.226 Y86.640 E2.5487
G1 X74.886 Y86.300 E2.5628
G1 X74.611 Y85.906 E2.5769
G1 X74.407 Y85.470 E2.5910
G1 X74.283 Y85.005 E2.6052
G1 X74.240 Y84.516 E2.6196
; inner perimeter
G1 X76.806 Y84.335 F4800
G92 E0
G1 X76.885 Y84.625 E0.0088 F1350
G1 X77.014 Y84.896 E0.0176
G1 X77.187 Y85.141 E0.0264
G1 X77.401 Y85.352 E0.0352
G1 X77.648 Y85.523 E0.0440
G1 X77.920 Y85.648 E0.0528
G1 X78.211 Y85.724 E0.0616
G1 X78.510 Y85.748 E0.0705
G1 X78.809 Y85.720 E0.0793
G1 X79.098 Y85.641 E0.0881
G1 X79.370 Y85.512 E0.0969
G1 X79.615 Y85.339 E0.1057
G1 X79.826 Y85.125 E0.1145
G1 X79.997 Y84.878 E0.1233
G1 X80.122 Y84.606 E0.1321
G1 X80.198 Y84.315 E0.1409
G1 X80.222 Y84.016 E0.1497
G1 X80.194 Y83.717 E0.1585
G1 X80.115 Y83.428 E0.1673
G1 X79.986 Y83.156 E0.1761
G1 X79.813 Y82.911 E0.1849
G1 X79.599 Y82.700 E0.1937
G1 X79.352 Y82.529 E0.2026
G1 X79.080 Y82.404 E0.2114
G1 X78.789 Y82.328 E0.2202
G1 X78.490 Y82.304 E0.2290
G1 X78.191 Y82.332 E0.2378
G1 X77.901 Y82.411 E0.2466
G1 X77.630 Y82.540 E0.2554
G1 X77.385 Y82.713 E0.2642
G1 X77.174 Y82.927 E0.2730
G1 X77.003 Y83.174 E0.2818
G1 X76.879 Y83.445 E0.2906
G1 X76.803 Y83.729 E0.2992
G1 X76.778 Y84.036 E0.3082
G1 X76.806 Y84.335 E0.3170
; outer perimeter
G1 X77.280 Y84.249 F4800
G92 E0
G1 X77.337 Y84.457 E0.0063 F900
G1 X77.429 Y84.653 E0.0127
G1 X77.554 Y84.829 E0.0190
G1 X77.708 Y84.981 E0.0254
G1 X77.886 Y85.104 E0.0317
G1 X78.083 Y85.194 E0.0381
G1 X78.292 Y85.249 E0.0444
G1 X78.507 Y85.266 E0.0507
G1 X78.723 Y85.246 E0.0571
G1 X78.931 Y85.189 E0.0634
G1 X79.126 Y85.097 E0.0698
G1 X79.303 Y84.972 E0.0761
G1 X79.455 Y84.818 E0.0825
