; G-Code generated by Simplify3D(R) Version 4.0.0
; Nov 23, 2018 at 2:19:34 PM
; Settings Summary
;   processName,Con Soporte
;   applyToModels,Tobillo1,Tobillo1(2)
;   profileName,Gusty (modified)
;   profileVersion,2017-03-01 08:00:00
;   baseProfile,Default (modified)
;   printMaterial,PLA
;   printQuality,Medium
;   printExtruders,
;   extruderName,Primary Extruder
;   extruderToolheadNumber,0
;   extruderDiameter,0.4
;   extruderAutoWidth,1
;   extruderWidth,0.48
;   extrusionMultiplier,0.98
;   extruderUseRetract,1
;   extruderRetractionDistance,1
;   extruderExtraRestartDistance,0
;   extruderRetractionZLift,0
;   extruderRetractionSpeed,1800
;   extruderUseCoasting,0
;   extruderCoastingDistance,0.2
;   extruderUseWipe,0
;   extruderWipeDistance,5
;   primaryExtruder,0
;   layerHeight,0.12
;   topSolidLayers,4
;   bottomSolidLayers,3
;   perimeterOutlines,2
;   printPerimetersInsideOut,1
;   startPointOption,2
;   startPointOriginX,0
;   startPointOriginY,0
;   sequentialIslands,0
;   spiralVaseMode,0
;   firstLayerHeightPercentage,90
;   firstLayerWidthPercentage,100
;   firstLayerUnderspeed,0.5
;   useRaft,0
;   raftExtruder,0
;   raftTopLayers,3
;   raftBaseLayers,2
;   raftOffset,3
;   raftSeparationDistance,0.14
;   raftTopInfill,100
;   aboveRaftSpeedMultiplier,0.3
;   useSkirt,1
;   skirtExtruder,0
;   skirtLayers,1
;   skirtOutlines,2
;   skirtOffset,4
;   usePrimePillar,0
;   primePillarExtruder,999
;   primePillarWidth,12
;   primePillarLocation,7
;   primePillarSpeedMultiplier,1
;   useOozeShield,0
;   oozeShieldExtruder,999
;   oozeShieldOffset,2
;   oozeShieldOutlines,1
;   oozeShieldSidewallShape,1
;   oozeShieldSidewallAngle,30
;   oozeShieldSpeedMultiplier,1
;   infillExtruder,0
;   internalInfillPattern,Rectilinear
;   externalInfillPattern,Rectilinear
;   infillPercentage,15
;   outlineOverlapPercentage,15
;   infillExtrusionWidthPercentage,100
;   minInfillLength,5
;   infillLayerInterval,1
;   internalInfillAngles,45,-45
;   overlapInternalInfillAngles,0
;   externalInfillAngles,45,-45
;   generateSupport,1
;   supportExtruder,0
;   supportInfillPercentage,30
;   supportExtraInflation,0
;   supportBaseLayers,0
;   denseSupportExtruder,0
;   denseSupportLayers,0
;   denseSupportInfillPercentage,70
;   supportLayerInterval,1
;   supportHorizontalPartOffset,0.3
;   supportUpperSeparationLayers,1
;   supportLowerSeparationLayers,1
;   supportType,0
;   supportGridSpacing,4
;   maxOverhangAngle,45
;   supportAngles,0
;   temperatureName,Primary Extruder,Cama
;   temperatureNumber,0,1
;   temperatureSetpointCount,1,1
;   temperatureSetpointLayers,1,1
;   temperatureSetpointTemperatures,190,60
;   temperatureStabilizeAtStartup,1,1
;   temperatureHeatedBed,0,1
;   temperatureRelayBetweenLayers,0,0
;   temperatureRelayBetweenLoops,1,1
;   fanLayers,1,2
;   fanSpeeds,0,100
;   blipFanToFullPower,0
;   adjustSpeedForCooling,1
;   minSpeedLayerTime,15
;   minCoolingSpeedSlowdown,20
;   increaseFanForCooling,0
;   minFanLayerTime,45
;   maxCoolingFanSpeed,100
;   increaseFanForBridging,0
;   bridgingFanSpeed,100
;   use5D,1
;   relativeEdistances,0
;   allowEaxisZeroing,1
;   independentExtruderAxes,0
;   includeM10123,0
;   stickySupport,1
;   applyToolheadOffsets,0
;   gcodeXoffset,0
;   gcodeYoffset,0
;   gcodeZoffset,0
;   overrideMachineDefinition,0
;   machineTypeOverride,0
;   strokeXoverride,200
;   strokeYoverride,200
;   strokeZoverride,200
;   originOffsetXoverride,0
;   originOffsetYoverride,0
;   originOffsetZoverride,0
;   homeXdirOverride,-1
;   homeYdirOverride,-1
;   homeZdirOverride,-1
;   flipXoverride,1
;   flipYoverride,-1
;   flipZoverride,1
;   toolheadOffsets,0,0|0,0|0,0|0,0|0,0|0,0
;   overrideFirmwareConfiguration,0
;   firmwareTypeOverride,RepRap (Marlin/Repetier/Sprinter)
;   GPXconfigOverride,r2
;   baudRateOverride,115200
;   overridePrinterModels,0
;   printerModelsOverride
;   startingGcode,G28 ; home all axes
;   layerChangeGcode,
;   retractionGcode,
;   toolChangeGcode,
;   endingGcode,G28 X; Home X,M104 S0 ; turn off extruder,M140 S0 ; turn off bed,M84 ; disable motors
;   exportFileFormat,gcode
;   celebration,0
;   celebrationSong,Random Song
;   postProcessing,
;   defaultSpeed,3600
;   outlineUnderspeed,0.5
;   solidInfillUnderspeed,0.8
;   supportUnderspeed,0.8
;   rapidXYspeed,4800
;   rapidZspeed,1000
;   minBridgingArea,50
;   bridgingExtraInflation,0
;   bridgingExtrusionMultiplier,1
;   bridgingSpeedMultiplier,1.1
;   useFixedBridgingAngle,0
;   fixedBridgingAngle,0
;   applyBridgingToPerimeters,0
;   filamentDiameters,1.75|1.75|1.75|1.75|1.75|1.75
;   filamentPricesPerKg,190|46|46|46|46|46
;   filamentDensities,1.25|1.25|1.25|1.25|1.25|1.25
;   useMinPrintHeight,0
;   minPrintHeight,0
;   useMaxPrintHeight,0
;   maxPrintHeight,0
;   useDiaphragm,0
;   diaphragmLayerInterval,20
;   robustSlicing,1
;   mergeAllIntoSolid,0
;   onlyRetractWhenCrossingOutline,1
;   retractBetweenLayers,1
;   useRetractionMinTravel,0
;   retractionMinTravel,3
;   retractWhileWiping,0
;   onlyWipeOutlines,1
;   avoidCrossingOutline,0
;   maxMovementDetourFactor,3
;   toolChangeRetractionDistance,12
;   toolChangeExtraRestartDistance,-0.5
;   toolChangeRetractionSpeed,600
;   externalThinWallType,0
;   internalThinWallType,2
;   thinWallAllowedOverlapPercentage,10
;   singleExtrusionMinLength,1
;   singleExtrusionMinPrintingWidthPercentage,50
;   singleExtrusionMaxPrintingWidthPercentage,200
;   singleExtrusionEndpointExtension,0.2
;   horizontalSizeCompensation,0
G90
M82
M106 S0
M140 S60
M190 S60
M104 S190 T0
M109 S190 T0
G28 ; home all axes
G92 E0
G1 E-1.0000 F1800
G1 Z0.108 F1000
; process Con Soporte
; layer 1, Z = 0.108
T0
; tool H0.120 W0.480
; skirt
G1 X70.844 Y65.435 F4800
G1 E0.0000 F540
G92 E0
G1 X73.390 Y62.890 E0.0845 F1800
G1 X73.654 Y62.780 E0.0912
G1 X79.428 Y62.780 E0.2267
G1 X79.553 Y62.832 E0.2299
G1 X79.715 Y62.670 E0.2353
G1 X79.980 Y62.560 E0.2420
G1 X120.020 Y62.560 E1.1817
G1 X120.285 Y62.670 E1.1884
G1 X120.447 Y62.832 E1.1938
G1 X120.572 Y62.780 E1.1969
G1 X126.346 Y62.780 E1.3325
G1 X126.610 Y62.890 E1.3392
G1 X129.156 Y65.435 E1.4237
G1 X129.266 Y65.700 E1.4304
G1 X129.266 Y77.651 E1.7108
G1 X130.830 Y79.215 E1.7628
G1 X130.940 Y79.480 E1.7695
G1 X130.940 Y85.520 E1.9113
G1 X130.830 Y85.785 E1.9180
G1 X129.266 Y87.349 E1.9699
G1 X129.266 Y99.300 E2.2504
G1 X129.156 Y99.565 E2.2571
G1 X128.721 Y100.000 E2.2715
G1 X129.156 Y100.435 E2.2860
G1 X129.266 Y100.700 E2.2927
G1 X129.266 Y112.651 E2.5732
G1 X130.830 Y114.215 E2.6251
G1 X130.940 Y114.480 E2.6318
G1 X130.940 Y120.520 E2.7736
G1 X130.830 Y120.785 E2.7803
G1 X129.266 Y122.349 E2.8322
G1 X129.266 Y134.300 E3.1127
G1 X129.156 Y134.565 E3.1194
G1 X126.610 Y137.110 E3.2039
G1 X126.346 Y137.220 E3.2106
G1 X120.572 Y137.220 E3.3461
G1 X120.447 Y137.168 E3.3493
G1 X120.285 Y137.330 E3.3547
G1 X120.020 Y137.440 E3.3614
G1 X79.980 Y137.440 E4.3011
G1 X79.715 Y137.330 E4.3078
G1 X79.553 Y137.168 E4.3132
G1 X79.428 Y137.220 E4.3164
G1 X73.654 Y137.220 E4.4519
G1 X73.390 Y137.110 E4.4586
G1 X70.844 Y134.565 E4.5431
G1 X70.734 Y134.300 E4.5498
G1 X70.734 Y100.700 E5.3383
G1 X70.844 Y100.435 E5.3451
G1 X71.279 Y100.000 E5.3595
G1 X70.844 Y99.565 E5.3740
G1 X70.734 Y99.300 E5.3807
G1 X70.734 Y87.349 E5.6611
G1 X69.170 Y85.785 E5.7131
G1 X69.060 Y85.520 E5.7198
G1 X69.060 Y79.480 E5.8615
G1 X69.170 Y79.215 E5.8683
G1 X70.734 Y77.651 E5.9202
G1 X70.734 Y65.700 E6.2007
G1 X70.844 Y65.435 E6.2074
G1 X71.251 Y65.707 F4800
G92 E0
G1 X73.661 Y63.297 E0.0800 F1800
G1 X73.750 Y63.260 E0.0822
G1 X79.333 Y63.260 E0.2133
G1 X79.421 Y63.297 E0.2155
G1 X79.594 Y63.470 E0.2213
G1 X79.987 Y63.077 E0.2343
G1 X80.075 Y63.040 E0.2365
G1 X119.925 Y63.040 E1.1717
G1 X120.013 Y63.077 E1.1740
G1 X120.406 Y63.470 E1.1870
G1 X120.579 Y63.297 E1.1928
G1 X120.667 Y63.260 E1.1950
G1 X126.250 Y63.260 E1.3260
G1 X126.338 Y63.297 E1.3283
G1 X128.749 Y65.707 E1.4083
G1 X128.786 Y65.795 E1.4105
G1 X128.786 Y77.849 E1.6934
G1 X130.423 Y79.487 E1.7478
G1 X130.460 Y79.575 E1.7500
G1 X130.460 Y85.425 E1.8873
G1 X130.423 Y85.513 E1.8895
G1 X128.786 Y87.151 E1.9439
G1 X128.786 Y99.205 E2.2268
G1 X128.749 Y99.293 E2.2290
G1 X128.042 Y100.000 E2.2525
G1 X128.749 Y100.707 E2.2760
G1 X128.786 Y100.795 E2.2782
G1 X128.786 Y112.849 E2.5611
G1 X130.423 Y114.487 E2.6154
G1 X130.460 Y114.575 E2.6177
G1 X130.460 Y120.425 E2.7549
G1 X130.423 Y120.513 E2.7572
G1 X128.786 Y122.151 E2.8115
G1 X128.786 Y134.205 E3.0944
G1 X128.749 Y134.293 E3.0967
G1 X126.338 Y136.703 E3.1767
G1 X126.250 Y136.740 E3.1789
G1 X120.667 Y136.740 E3.3100
G1 X120.579 Y136.703 E3.3122
G1 X120.406 Y136.530 E3.3179
G1 X120.013 Y136.923 E3.3310
G1 X119.925 Y136.960 E3.3332
G1 X80.075 Y136.960 E4.2684
G1 X79.987 Y136.923 E4.2707
G1 X79.594 Y136.530 E4.2837
G1 X79.421 Y136.703 E4.2894
G1 X79.333 Y136.740 E4.2917
G1 X73.750 Y136.740 E4.4227
G1 X73.661 Y136.703 E4.4250
G1 X71.251 Y134.293 E4.5050
G1 X71.214 Y134.205 E4.5072
G1 X71.214 Y100.795 E5.2913
G1 X71.251 Y100.707 E5.2935
G1 X71.958 Y100.000 E5.3170
G1 X71.251 Y99.293 E5.3404
G1 X71.214 Y99.205 E5.3427
G1 X71.214 Y87.150 E5.6256
G1 X69.577 Y85.513 E5.6799
G1 X69.540 Y85.425 E5.6822
G1 X69.540 Y79.575 E5.8194
G1 X69.577 Y79.487 E5.8217
G1 X71.214 Y77.850 E5.8760
G1 X71.214 Y65.795 E6.1589
G1 X71.251 Y65.707 E6.1612
G92 E0
G1 E-1.0000 F1800
; inner perimeter
G1 X76.174 Y68.220 F4800
G1 E0.0000 F1800
G92 E0
G1 X76.908 Y68.220 E0.0172 F1350
G1 X76.908 Y96.780 E0.6875
G1 X76.174 Y96.780 E0.7047
G1 X76.174 Y68.220 E1.3750
; outer perimeter
G1 X75.694 Y67.740 F4800
G92 E0
G1 X77.388 Y67.740 E0.0398 F900
G1 X77.388 Y97.260 E0.7325
G1 X75.694 Y97.260 E0.7723
G1 X75.694 Y67.740 E1.4651
G92 E0
G1 E-1.0000 F1800
; inner perimeter
G1 X76.174 Y103.220 F4800
G1 E0.0000 F1800
G92 E0
G1 X76.908 Y103.220 E0.0172 F1350
G1 X76.908 Y131.780 E0.6875
G1 X76.174 Y131.780 E0.7047
G1 X76.174 Y103.220 E1.3750
; outer perimeter
G1 X75.694 Y102.740 F4800
G92 E0
G1 X77.388 Y102.740 E0.0398 F900
G1 X77.388 Y132.260 E0.7325
G1 X75.694 Y132.260 E0.7723
G1 X75.694 Y102.740 E1.4651
G92 E0
G1 E-1.0000 F1800
; inner perimeter
G1 X123.092 Y103.220 F4800
G1 E0.0000 F1800
G92 E0
G1 X123.826 Y103.220 E0.0172 F1350
G1 X123.826 Y131.780 E0.6875
G1 X123.092 Y131.780 E0.7047
G1 X123.092 Y103.220 E1.3750
; outer perimeter
G1 X122.612 Y102.740 F4800
G92 E0
G1 X124.306 Y102.740 E0.0398 F900
G1 X124.306 Y132.260 E0.7325
G1 X122.612 Y132.260 E0.7723
G1 X122.612 Y102.740 E1.4651
G92 E0
G1 E-1.0000 F1800
; inner perimeter
G1 X123.092 Y96.780 F4800
G1 E0.0000 F1800
G92 E0
G1 X123.092 Y68.220 E0.6703 F1350
G1 X123.826 Y68.220 E0.6875
G1 X123.826 Y96.780 E1.3577
G1 X123.092 Y96.780 E1.3750
; outer perimeter
G1 X122.612 Y97.260 F4800
G92 E0
G1 X122.612 Y67.740 E0.6928 F900
G1 X124.306 Y67.740 E0.7325
G1 X124.306 Y97.260 E1.4253
G1 X122.612 Y97.260 E1.4651
G92 E0
G1 E-1.0000 F1800
; support
G1 X117.980 Y96.800 F4800
G1 E0.0000 F1800
G92 E0
G1 X82.020 Y96.800 E0.8439 F1440
G1 X82.020 Y95.200 E0.8815
G1 X117.980 Y95.200 E1.7254
G1 X117.980 Y93.600 E1.7629
G1 X82.020 Y93.600 E2.6069
G1 X82.020 Y92.000 E2.6444
G1 X117.980 Y92.000 E3.4883
G1 X117.980 Y90.400 E3.5259
G1 X82.020 Y90.400 E4.3698
G1 X82.020 Y88.800 E4.4074
G1 X117.980 Y88.800 E5.2513
G1 X117.980 Y87.200 E5.2888
G1 X82.020 Y87.200 E6.1327
G1 X82.020 Y85.600 E6.1703
G1 X117.980 Y85.600 E7.0142
G1 X117.980 Y84.000 E7.0518
G1 X82.020 Y84.000 E7.8957
G1 X82.020 Y82.400 E7.9332
G1 X117.980 Y82.400 E8.7772
G1 X117.980 Y80.800 E8.8147
G1 X82.020 Y80.800 E9.6586
G1 X82.020 Y79.200 E9.6962
G1 X117.980 Y79.200 E10.5401
G1 X117.980 Y77.600 E10.5777
G1 X82.020 Y77.600 E11.4216
G1 X82.020 Y76.000 E11.4591
G1 X117.980 Y76.000 E12.3030
G1 X117.980 Y74.400 E12.3406
G1 X82.020 Y74.400 E13.1845
G1 X82.020 Y72.800 E13.2221
G1 X117.980 Y72.800 E14.0660
G1 X117.980 Y71.200 E14.1035
G1 X82.020 Y71.200 E14.9475
G1 X82.020 Y69.600 E14.9850
G1 X117.980 Y69.600 E15.8289
G1 X117.980 Y68.000 E15.8665
G1 X82.020 Y68.000 E16.7104
G92 E0
G1 E-1.0000 F1800
G1 X74.914 Y82.400 F4800
G1 E0.0000 F1800
G92 E0
G1 X74.020 Y82.400 E0.0210 F1440
G92 E0
G1 E-1.0000 F1800
G1 X82.020 Y103.200 F4800
G1 E0.0000 F1800
G92 E0
G1 X117.980 Y103.200 E0.8439 F1440
G1 X117.980 Y104.800 E0.8815
G1 X82.020 Y104.800 E1.7254
G1 X82.020 Y106.400 E1.7629
G1 X117.980 Y106.400 E2.6069
G1 X117.980 Y108.000 E2.6444
G1 X82.020 Y108.000 E3.4883
G1 X82.020 Y109.600 E3.5259
G1 X117.980 Y109.600 E4.3698
G1 X117.980 Y111.200 E4.4074
G1 X82.020 Y111.200 E5.2513
G1 X82.020 Y112.800 E5.2888
G1 X117.980 Y112.800 E6.1327
G1 X117.980 Y114.400 E6.1703
G1 X82.020 Y114.400 E7.0142
G1 X82.020 Y116.000 E7.0518
G1 X117.980 Y116.000 E7.8957
G1 X117.980 Y117.600 E7.9332
G1 X82.020 Y117.600 E8.7772
G1 X82.020 Y119.200 E8.8147
G1 X117.980 Y119.200 E9.6586
G1 X117.980 Y120.800 E9.6962
G1 X82.020 Y120.800 E10.5401
G1 X82.020 Y122.400 E10.5777
G1 X117.980 Y122.400 E11.4216
G1 X117.980 Y124.000 E11.4591
G1 X82.020 Y124.000 E12.3030
G1 X82.020 Y125.600 E12.3406
G1 X117.980 Y125.600 E13.1845
G1 X117.980 Y127.200 E13.2221
G1 X82.020 Y127.200 E14.0660
G1 X82.020 Y128.800 E14.1035
G1 X117.980 Y128.800 E14.9475
G1 X117.980 Y130.400 E14.9850
G1 X82.020 Y130.400 E15.8289
G1 X82.020 Y132.000 E15.8665
G1 X117.980 Y132.000 E16.7104
G92 E0
G1 E-1.0000 F1800
G1 X125.086 Y117.600 F4800
G1 E0.0000 F1800
G92 E0
G1 X125.980 Y117.600 E0.0210 F1440
G92 E0
G1 E-1.0000 F1800
G1 X125.980 Y82.400 F4800
G1 E0.0000 F1800
G92 E0
G1 X125.086 Y82.400 E0.0210 F1440
G92 E0
G1 E-1.0000 F1800
; layer 2, Z = 0.228
M106 S255
; inner perimeter
G1 X123.774 Y68.220 F4800
G1 Z0.228 F1000
G1 E0.0000 F1800
G92 E0
G1 X123.774 Y96.780 E0.6703 F2700
G1 X123.034 Y96.780 E0.6876
G1 X123.034 Y68.220 E1.3579
G1 X123.774 Y68.220 E1.3752
; outer perimeter
G1 X124.254 Y67.740 F4800
G92 E0
G1 X124.254 Y97.260 E0.6928 F1800
G1 X122.554 Y97.260 E0.7327
G1 X122.554 Y67.740 E1.4254
G1 X124.254 Y67.740 E1.4653
G92 E0
G1 E-1.0000 F1800
; inner perimeter
G1 X123.774 Y103.220 F4800
G1 E0.0000 F1800
G92 E0
G1 X123.774 Y131.780 E0.6703 F2700
G1 X123.034 Y131.780 E0.6876
G1 X123.034 Y103.220 E1.3579
G1 X123.774 Y103.220 E1.3752
; outer perimeter
G1 X124.254 Y102.740 F4800
G92 E0
G1 X124.254 Y132.260 E0.6928 F1800
G1 X122.554 Y132.260 E0.7327
G1 X122.554 Y102.740 E1.4254
G1 X124.254 Y102.740 E1.4653
G92 E0
G1 E-1.0000 F1800
; inner perimeter
G1 X76.966 Y103.220 F4800
G1 E0.0000 F1800
G92 E0
G1 X76.966 Y131.780 E0.6703 F2700
G1 X76.226 Y131.780 E0.6876
G1 X76.226 Y103.220 E1.3579
G1 X76.966 Y103.220 E1.3752
; outer perimeter
G1 X77.446 Y102.740 F4800
G92 E0
G1 X77.446 Y132.260 E0.6928 F1800
G1 X75.746 Y132.260 E0.7327
G1 X75.746 Y102.740 E1.4255
G1 X77.446 Y102.740 E1.4653
G92 E0
G1 E-1.0000 F1800
; inner perimeter
G1 X76.966 Y96.780 F4800
G1 E0.0000 F1800
G92 E0
G1 X76.226 Y96.780 E0.0174 F2700
G1 X76.226 Y68.220 E0.6876
G1 X76.966 Y68.220 E0.7050
G1 X76.966 Y96.780 E1.3752
; outer perimeter
G1 X77.446 Y97.260 F4800
G92 E0
G1 X75.746 Y97.260 E0.0399 F1800
G1 X75.746 Y67.740 E0.7327
G1 X77.446 Y67.740 E0.7726
G1 X77.446 Y97.260 E1.4653
G92 E0
G1 E-1.0000 F1800
; support
G1 X82.020 Y103.200 F4800
G1 E0.0000 F1800
G92 E0
G1 X117.980 Y103.200 E0.8439 F2880
G1 X117.980 Y104.800 E0.8815
G1 X82.020 Y104.800 E1.7254
G1 X82.020 Y106.400 E1.7629
G1 X117.980 Y106.400 E2.6069
G1 X117.980 Y108.000 E2.6444
G1 X82.020 Y108.000 E3.4883
G1 X82.020 Y109.600 E3.5259
G1 X117.980 Y109.600 E4.3698
G1 X117.980 Y111.200 E4.4074
G1 X82.020 Y111.200 E5.2513
G1 X82.020 Y112.800 E5.2888
G1 X117.980 Y112.800 E6.1327
G1 X117.980 Y114.400 E6.1703
G1 X82.020 Y114.400 E7.0142
G1 X82.020 Y116.000 E7.0518
G1 X117.980 Y116.000 E7.8957
G1 X117.980 Y117.600 E7.9332
G1 X82.020 Y117.600 E8.7772
G1 X82.020 Y119.200 E8.8147
G1 X117.980 Y119.200 E9.6586
G1 X117.980 Y120.800 E9.6962
G1 X82.020 Y120.800 E10.5401
G1 X82.020 Y122.400 E10.5777
G1 X117.980 Y122.400 E11.4216
G1 X117.980 Y124.000 E11.4591
G1 X82.020 Y124.000 E12.3030
G1 X82.020 Y125.600 E12.3406
G1 X117.980 Y125.600 E13.1845
G1 X117.980 Y127.200 E13.2221
G1 X82.020 Y127.200 E14.0660
G1 X82.020 Y128.800 E14.1035
G1 X117.980 Y128.800 E14.9475
