; G-Code generated by Simplify3D(R) Version 3.1.1
; oct. 21, 2017 at 4:42:16 P. M.
; Settings Summary
;   processName,Process2
;   applyToModels,Tobillo Trasversal costado,Tobillo Trasversal costado(2)
;   profileName,Gusty (modified)
;   profileVersion,2015-05-01 08:00:00
;   baseProfile,
;   printMaterial,
;   printQuality,
;   printExtruders,
;   extruderName,Primary Extruder
;   extruderToolheadNumber,0
;   extruderDiameter,0.4
;   extruderAutoWidth,1
;   extruderWidth,0.48
;   extrusionMultiplier,0.98
;   extruderUseRetract,1
;   extruderRetractionDistance,3
;   extruderExtraRestartDistance,0
;   extruderRetractionZLift,0
;   extruderRetractionSpeed,1800
;   extruderUseCoasting,0
;   extruderCoastingDistance,0.2
;   extruderUseWipe,0
;   extruderWipeDistance,5
;   primaryExtruder,0
;   layerHeight,0.15
;   topSolidLayers,4
;   bottomSolidLayers,3
;   perimeterOutlines,2
;   printPerimetersInsideOut,1
;   startPointOption,1
;   startPointOriginX,0
;   startPointOriginY,0
;   startPointOriginZ,300
;   sequentialIslands,0
;   spiralVaseMode,0
;   firstLayerHeightPercentage,90
;   firstLayerWidthPercentage,100
;   firstLayerUnderspeed,0.5
;   useRaft,0
;   raftExtruder,0
;   raftLayers,3
;   raftOffset,3
;   raftSeparationDistance,0.14
;   raftInfill,85
;   disableRaftBaseLayers,0
;   useSkirt,1
;   skirtExtruder,0
;   skirtLayers,1
;   skirtOutlines,1
;   skirtOffset,7
;   usePrimePillar,0
;   primePillarExtruder,999
;   primePillarWidth,12
;   primePillarLocation,7
;   primePillarSpeedMultiplier,1
;   useOozeShield,0
;   oozeShieldExtruder,999
;   oozeShieldOffset,2
;   oozeShieldOutlines,1
;   oozeShieldSidewallShape,1
;   oozeShieldSidewallAngle,30
;   oozeShieldSpeedMultiplier,1
;   infillExtruder,0
;   internalInfillPattern,Rectilinear
;   externalInfillPattern,Rectilinear
;   infillPercentage,10
;   outlineOverlapPercentage,15
;   infillExtrusionWidthPercentage,100
;   minInfillLength,5
;   infillLayerInterval,1
;   infillAngles,45,-45
;   overlapInfillAngles,0
;   generateSupport,1
;   supportExtruder,0
;   supportInfillPercentage,30
;   supportExtraInflation,0
;   denseSupportLayers,0
;   denseSupportInfillPercentage,60
;   supportLayerInterval,1
;   supportHorizontalPartOffset,0.15
;   supportUpperSeparationLayers,1
;   supportLowerSeparationLayers,1
;   supportType,0
;   supportGridSpacing,4
;   maxOverhangAngle,45
;   supportAngles,0
;   temperatureName,Primary Extruder,Cama
;   temperatureNumber,0,0
;   temperatureSetpointCount,2,1
;   temperatureSetpointLayers,1,2,1
;   temperatureSetpointTemperatures,195,180,60
;   temperatureStabilizeAtStartup,1,1
;   temperatureHeatedBed,0,1
;   temperatureRelayBetweenLayers,0,0
;   temperatureRelayBetweenLoops,0,0
;   fanLayers,1,2
;   fanSpeeds,0,100
;   blipFanToFullPower,0
;   adjustSpeedForCooling,1
;   minSpeedLayerTime,15
;   minCoolingSpeedSlowdown,20
;   increaseFanForCooling,0
;   minFanLayerTime,45
;   maxCoolingFanSpeed,100
;   increaseFanForBridging,0
;   bridgingFanSpeed,100
;   use5D,1
;   relativeEdistances,0
;   allowEaxisZeroing,1
;   independentExtruderAxes,0
;   includeM10123,0
;   stickySupport,1
;   applyToolheadOffsets,0
;   gcodeXoffset,0
;   gcodeYoffset,0
;   gcodeZoffset,0
;   overrideMachineDefinition,0
;   machineTypeOverride,0
;   strokeXoverride,200
;   strokeYoverride,200
;   strokeZoverride,200
;   originOffsetXoverride,0
;   originOffsetYoverride,0
;   originOffsetZoverride,0
;   homeXdirOverride,-1
;   homeYdirOverride,-1
;   homeZdirOverride,-1
;   flipXoverride,1
;   flipYoverride,-1
;   flipZoverride,1
;   toolheadOffsets,0,0|0,0|0,0|0,0|0,0|0,0
;   overrideFirmwareConfiguration,0
;   firmwareTypeOverride,RepRap (Marlin/Repetier/Sprinter)
;   GPXconfigOverride,r2
;   baudRateOverride,115200
;   overridePrinterModels,0
;   printerModelsOverride
;   startingGcode,G28 ; home all axes
;   layerChangeGcode,
;   retractionGcode,
;   toolChangeGcode,
;   endingGcode,M104 S0 ; turn off extruder,M140 S0 ; turn off bed,G28 X0  ; home X axis,M84 ; disable motors
;   exportFileFormat,gcode
;   celebration,0
;   celebrationSong,Random Song
;   postProcessing,
;   defaultSpeed,3600
;   outlineUnderspeed,0.5
;   solidInfillUnderspeed,0.8
;   supportUnderspeed,0.8
;   rapidXYspeed,6000
;   rapidZspeed,1800
;   minBridgingArea,50
;   bridgingExtraInflation,0
;   bridgingExtrusionMultiplier,1
;   bridgingSpeedMultiplier,1
;   filamentDiameter,1.75
;   filamentPricePerKg,46
;   filamentDensity,1.25
;   useMinPrintHeight,0
;   minPrintHeight,0
;   useMaxPrintHeight,0
;   maxPrintHeight,0
;   useDiaphragm,0
;   diaphragmLayerInterval,20
;   robustSlicing,1
;   mergeAllIntoSolid,0
;   onlyRetractWhenCrossingOutline,1
;   retractBetweenLayers,1
;   useRetractionMinTravel,0
;   retractionMinTravel,3
;   retractWhileWiping,0
;   onlyWipeOutlines,1
;   avoidCrossingOutline,0
;   maxMovementDetourFactor,3
;   toolChangeRetractionDistance,12
;   toolChangeExtraRestartDistance,-0.5
;   toolChangeRetractionSpeed,600
;   allowThinWallGapFill,1
;   thinWallAllowedOverlapPercentage,10
;   horizontalSizeCompensation,0
G90
M82
M106 S0
M140 S60
M190 S60
M104 S195 T0
M109 S195 T0
G28 ; home all axes
G92 E0
G1 E-3.0000 F1800
G1 Z0.135 F1800
; layer 1, Z = 0.135
T0
; tool H0.150 W0.480
; skirt
G1 X90.456 Y75.281 F6000
G1 E0.0000 F540
G92 E0
G1 X90.856 Y74.805 E0.0182 F1800
G1 X90.863 Y74.797 E0.0185
G1 X91.672 Y73.988 E0.0521
G1 X91.680 Y73.981 E0.0524
G1 X92.156 Y73.581 E0.0707
G1 X92.164 Y73.575 E0.0710
G1 X93.102 Y72.918 E0.1046
G1 X93.111 Y72.912 E0.1049
G1 X93.649 Y72.601 E0.1231
G1 X93.658 Y72.597 E0.1234
G1 X94.696 Y72.113 E0.1570
G1 X94.706 Y72.109 E0.1573
G1 X95.290 Y71.896 E0.1755
G1 X95.300 Y71.893 E0.1758
G1 X96.447 Y71.586 E0.2107
G1 X96.459 Y71.583 E0.2110
G1 X97.158 Y71.469 E0.2318
G1 X97.170 Y71.467 E0.2322
G1 X97.279 Y71.460 E0.2354
G1 X97.289 Y71.444 E0.2359
G1 X97.397 Y71.385 E0.2396
G1 X98.473 Y71.385 E0.2711
G1 X102.285 Y71.144 E0.3832
G1 X102.400 Y71.200 E0.3869
G1 X102.571 Y71.451 E0.3958
G1 X102.960 Y71.485 E0.4073
G1 X102.970 Y71.486 E0.4076
G1 X103.584 Y71.594 E0.4258
G1 X103.594 Y71.597 E0.4262
G1 X104.700 Y71.893 E0.4598
G1 X104.710 Y71.896 E0.4601
G1 X105.294 Y72.109 E0.4783
G1 X105.304 Y72.113 E0.4786
G1 X106.341 Y72.597 E0.5122
G1 X106.351 Y72.601 E0.5125
G1 X106.889 Y72.912 E0.5307
G1 X106.898 Y72.918 E0.5310
G1 X107.500 Y73.339 E0.5526
G1 X108.102 Y72.918 E0.5742
G1 X108.111 Y72.912 E0.5745
G1 X108.649 Y72.601 E0.5927
G1 X108.658 Y72.597 E0.5930
G1 X109.696 Y72.113 E0.6266
G1 X109.706 Y72.109 E0.6269
G1 X110.290 Y71.896 E0.6451
G1 X110.300 Y71.893 E0.6454
G1 X111.447 Y71.586 E0.6803
G1 X111.459 Y71.583 E0.6806
G1 X112.158 Y71.469 E0.7014
G1 X112.170 Y71.467 E0.7018
G1 X112.279 Y71.460 E0.7050
G1 X112.289 Y71.444 E0.7055
G1 X112.397 Y71.385 E0.7092
G1 X113.473 Y71.385 E0.7407
G1 X117.285 Y71.144 E0.8528
G1 X117.400 Y71.200 E0.8565
G1 X117.571 Y71.451 E0.8654
G1 X117.960 Y71.485 E0.8769
G1 X117.970 Y71.486 E0.8772
G1 X118.584 Y71.594 E0.8954
G1 X118.594 Y71.597 E0.8958
G1 X119.700 Y71.893 E0.9294
G1 X119.710 Y71.896 E0.9297
G1 X120.294 Y72.109 E0.9479
G1 X120.304 Y72.113 E0.9482
G1 X121.341 Y72.597 E0.9818
G1 X121.351 Y72.601 E0.9821
G1 X121.889 Y72.912 E1.0003
G1 X121.898 Y72.918 E1.0006
G1 X122.836 Y73.575 E1.0342
G1 X122.844 Y73.581 E1.0345
G1 X123.320 Y73.981 E1.0528
G1 X123.328 Y73.988 E1.0531
G1 X124.137 Y74.797 E1.0866
G1 X124.144 Y74.805 E1.0870
G1 X124.544 Y75.281 E1.1052
G1 X124.550 Y75.289 E1.1055
G1 X125.207 Y76.227 E1.1391
G1 X125.213 Y76.236 E1.1394
G1 X125.524 Y76.774 E1.1576
G1 X125.528 Y76.783 E1.1579
G1 X126.012 Y77.821 E1.1915
G1 X126.016 Y77.831 E1.1918
G1 X126.229 Y78.415 E1.2101
G1 X126.232 Y78.425 E1.2104
G1 X126.528 Y79.530 E1.2439
G1 X126.530 Y79.541 E1.2443
G1 X126.638 Y80.153 E1.2625
G1 X126.640 Y80.163 E1.2628
G1 X126.725 Y81.143 E1.2916
G1 X126.726 Y81.148 E1.2918
G1 X126.739 Y81.458 E1.3009
G1 X126.739 Y81.464 E1.3011
G1 X126.740 Y118.530 E2.3884
G1 X126.740 Y118.536 E2.3886
G1 X126.726 Y118.846 E2.3977
G1 X126.726 Y118.851 E2.3979
G1 X126.640 Y119.837 E2.4269
G1 X126.638 Y119.847 E2.4272
G1 X126.530 Y120.459 E2.4454
G1 X126.528 Y120.470 E2.4457
G1 X126.232 Y121.575 E2.4793
G1 X126.229 Y121.585 E2.4796
G1 X126.016 Y122.169 E2.4978
G1 X126.012 Y122.179 E2.4982
G1 X125.528 Y123.216 E2.5317
G1 X125.524 Y123.226 E2.5320
G1 X125.213 Y123.764 E2.5503
G1 X125.207 Y123.773 E2.5506
G1 X124.550 Y124.711 E2.5842
G1 X124.544 Y124.719 E2.5845
G1 X124.144 Y125.195 E2.6027
G1 X124.137 Y125.203 E2.6030
G1 X123.328 Y126.012 E2.6366
G1 X123.320 Y126.019 E2.6369
G1 X122.844 Y126.419 E2.6551
G1 X122.836 Y126.425 E2.6554
G1 X121.898 Y127.082 E2.6890
G1 X121.889 Y127.088 E2.6893
G1 X121.351 Y127.399 E2.7076
G1 X121.341 Y127.403 E2.7079
G1 X120.304 Y127.887 E2.7415
G1 X120.294 Y127.891 E2.7418
G1 X119.710 Y128.104 E2.7600
G1 X119.700 Y128.107 E2.7603
G1 X118.595 Y128.403 E2.7939
G1 X118.584 Y128.405 E2.7942
G1 X117.972 Y128.513 E2.8124
G1 X117.962 Y128.515 E2.8127
G1 X116.976 Y128.601 E2.8418
G1 X116.971 Y128.601 E2.8419
G1 X116.661 Y128.615 E2.8510
G1 X116.655 Y128.615 E2.8512
G1 X113.345 Y128.615 E2.9483
G1 X113.339 Y128.615 E2.9485
G1 X113.029 Y128.601 E2.9576
G1 X113.024 Y128.601 E2.9577
G1 X112.038 Y128.515 E2.9867
G1 X112.028 Y128.513 E2.9871
G1 X111.416 Y128.405 E3.0053
G1 X111.405 Y128.403 E3.0056
G1 X110.300 Y128.107 E3.0392
G1 X110.290 Y128.104 E3.0395
G1 X109.706 Y127.891 E3.0577
G1 X109.696 Y127.887 E3.0580
G1 X108.659 Y127.403 E3.0916
G1 X108.649 Y127.399 E3.0919
G1 X108.111 Y127.088 E3.1102
G1 X108.102 Y127.082 E3.1105
G1 X107.500 Y126.661 E3.1320
G1 X106.898 Y127.082 E3.1536
G1 X106.889 Y127.088 E3.1539
G1 X106.351 Y127.399 E3.1721
G1 X106.341 Y127.403 E3.1724
G1 X105.304 Y127.887 E3.2060
G1 X105.294 Y127.891 E3.2063
G1 X104.710 Y128.104 E3.2246
G1 X104.700 Y128.107 E3.2249
G1 X103.595 Y128.403 E3.2584
G1 X103.584 Y128.405 E3.2588
G1 X102.972 Y128.513 E3.2770
G1 X102.962 Y128.515 E3.2773
G1 X101.976 Y128.601 E3.3063
G1 X101.971 Y128.601 E3.3065
G1 X101.661 Y128.615 E3.3156
G1 X101.655 Y128.615 E3.3157
G1 X98.345 Y128.615 E3.4129
G1 X98.339 Y128.615 E3.4130
G1 X98.029 Y128.601 E3.4221
G1 X98.024 Y128.601 E3.4223
G1 X97.038 Y128.515 E3.4513
G1 X97.028 Y128.513 E3.4516
G1 X96.416 Y128.405 E3.4698
G1 X96.405 Y128.403 E3.4702
G1 X95.300 Y128.107 E3.5037
G1 X95.290 Y128.104 E3.5040
G1 X94.706 Y127.891 E3.5223
G1 X94.696 Y127.887 E3.5226
G1 X93.659 Y127.403 E3.5562
G1 X93.649 Y127.399 E3.5565
G1 X93.111 Y127.088 E3.5747
G1 X93.102 Y127.082 E3.5750
G1 X92.164 Y126.425 E3.6086
G1 X92.156 Y126.419 E3.6089
G1 X91.680 Y126.019 E3.6271
G1 X91.672 Y126.012 E3.6274
G1 X90.863 Y125.203 E3.6610
G1 X90.856 Y125.195 E3.6613
G1 X90.456 Y124.719 E3.6796
G1 X90.450 Y124.711 E3.6799
G1 X89.793 Y123.773 E3.7135
G1 X89.787 Y123.764 E3.7138
G1 X89.476 Y123.226 E3.7320
G1 X89.472 Y123.216 E3.7323
G1 X88.988 Y122.179 E3.7659
G1 X88.984 Y122.169 E3.7662
G1 X88.771 Y121.585 E3.7844
G1 X88.768 Y121.575 E3.7847
G1 X88.472 Y120.470 E3.8183
G1 X88.470 Y120.459 E3.8186
G1 X88.362 Y119.847 E3.8369
G1 X88.360 Y119.837 E3.8372
G1 X88.274 Y118.851 E3.8662
G1 X88.274 Y118.846 E3.8664
G1 X88.260 Y118.536 E3.8755
G1 X88.260 Y118.530 E3.8756
G1 X88.260 Y81.470 E4.9628
G1 X88.260 Y81.464 E4.9630
G1 X88.274 Y81.154 E4.9721
G1 X88.274 Y81.149 E4.9722
G1 X88.360 Y80.163 E5.0012
G1 X88.362 Y80.153 E5.0016
G1 X88.470 Y79.541 E5.0198
G1 X88.472 Y79.530 E5.0201
G1 X88.768 Y78.425 E5.0537
G1 X88.771 Y78.415 E5.0540
G1 X88.984 Y77.831 E5.0722
G1 X88.988 Y77.821 E5.0725
G1 X89.472 Y76.783 E5.1061
G1 X89.476 Y76.774 E5.1064
G1 X89.787 Y76.236 E5.1247
G1 X89.793 Y76.227 E5.1250
G1 X90.450 Y75.289 E5.1585
G1 X90.456 Y75.281 E5.1589
G92 E0
G1 E-3.0000 F1800
; inner perimeter
G1 X96.257 Y81.230 F6000
G1 E0.0000 F1800
G92 E0
G1 X96.360 Y80.846 E0.0116 F1350
G1 X96.528 Y80.486 E0.0233
G1 X96.756 Y80.161 E0.0349
G1 X97.036 Y79.881 E0.0466
G1 X97.361 Y79.653 E0.0582
G1 X97.784 Y79.456 E0.0719
G1 X97.811 Y79.761 E0.0809
G1 X97.911 Y80.135 E0.0923
G1 X98.075 Y80.486 E0.1036
G1 X98.297 Y80.804 E0.1150
G1 X98.571 Y81.078 E0.1264
G1 X98.889 Y81.300 E0.1377
G1 X99.240 Y81.464 E0.1491
G1 X99.614 Y81.564 E0.1605
G1 X100.000 Y81.598 E0.1718
G1 X100.386 Y81.564 E0.1832
G1 X100.760 Y81.464 E0.1946
G1 X101.111 Y81.300 E0.2059
G1 X101.429 Y81.078 E0.2173
G1 X101.703 Y80.804 E0.2287
G1 X101.925 Y80.486 E0.2400
G1 X102.089 Y80.135 E0.2514
G1 X102.189 Y79.761 E0.2628
G1 X102.216 Y79.456 E0.2718
G1 X102.639 Y79.653 E0.2854
G1 X102.964 Y79.881 E0.2971
G1 X103.244 Y80.161 E0.3087
G1 X103.472 Y80.486 E0.3204
G1 X103.640 Y80.846 E0.3320
G1 X103.743 Y81.230 E0.3437
G1 X103.779 Y81.651 E0.3561
G1 X103.780 Y85.993 E0.4835
G1 X103.479 Y86.060 E0.4925
G1 X103.224 Y85.514 E0.5102
G1 X102.852 Y84.982 E0.5292
G1 X102.393 Y84.523 E0.5482
G1 X101.861 Y84.151 E0.5673
G1 X101.273 Y83.877 E0.5863
G1 X100.646 Y83.709 E0.6054
G1 X100.000 Y83.652 E0.6244
G1 X99.354 Y83.709 E0.6434
G1 X98.727 Y83.877 E0.6625
G1 X98.139 Y84.151 E0.6815
G1 X97.607 Y84.523 E0.7005
G1 X97.148 Y84.982 E0.7196
G1 X96.776 Y85.514 E0.7386
G1 X96.521 Y86.061 E0.7563
G1 X96.220 Y85.994 E0.7654
G1 X96.220 Y81.656 E0.8926
G1 X96.257 Y81.230 E0.9052
G1 X96.521 Y110.189 F6000
G92 E0
G1 X96.776 Y110.736 E0.0177 F1350
G1 X97.148 Y111.268 E0.0367
G1 X97.607 Y111.727 E0.0558
G1 X98.139 Y112.099 E0.0748
G1 X98.727 Y112.373 E0.0939
G1 X99.354 Y112.541 E0.1129
G1 X100.000 Y112.598 E0.1319
G1 X100.646 Y112.541 E0.1510
G1 X101.273 Y112.373 E0.1700
G1 X101.861 Y112.099 E0.1890
G1 X102.393 Y111.727 E0.2081
G1 X102.852 Y111.268 E0.2271
G1 X103.224 Y110.736 E0.2461
G1 X103.479 Y110.189 E0.2638
G1 X103.780 Y110.256 E0.2729
G1 X103.780 Y118.344 E0.5101
G1 X103.743 Y118.770 E0.5227
G1 X103.640 Y119.154 E0.5343
G1 X103.472 Y119.514 E0.5460
G1 X103.244 Y119.839 E0.5576
G1 X102.964 Y120.119 E0.5693
G1 X102.639 Y120.347 E0.5809
G1 X102.279 Y120.515 E0.5926
G1 X101.895 Y120.618 E0.6042
G1 X101.469 Y120.655 E0.6168
G1 X98.531 Y120.655 E0.7029
G1 X98.105 Y120.618 E0.7155
G1 X97.721 Y120.515 E0.7272
G1 X97.361 Y120.347 E0.7388
G1 X97.036 Y120.119 E0.7505
G1 X96.756 Y119.839 E0.7621
G1 X96.528 Y119.514 E0.7737
G1 X96.360 Y119.154 E0.7854
G1 X96.257 Y118.770 E0.7970
G1 X96.220 Y118.344 E0.8096
G1 X96.220 Y110.256 E1.0469
G1 X96.521 Y110.189 E1.0559
; outer perimeter
G1 X95.783 Y81.146 F6000
G92 E0
G1 X95.907 Y80.681 E0.0141 F900
G1 X96.111 Y80.245 E0.0282
G1 X96.386 Y79.852 E0.0423
G1 X96.727 Y79.511 E0.0564
G1 X97.120 Y79.236 E0.0705
G1 X97.556 Y79.032 E0.0847
G1 X98.021 Y78.908 E0.0988
G1 X98.337 Y78.880 E0.1081
G1 X98.286 Y79.073 E0.1139
G1 X98.259 Y79.375 E0.1228
G1 X98.286 Y79.677 E0.1317
G1 X98.364 Y79.970 E0.1406
G1 X98.492 Y80.245 E0.1495
G1 X98.666 Y80.494 E0.1584
G1 X98.881 Y80.709 E0.1673
G1 X99.130 Y80.883 E0.1762
G1 X99.405 Y81.011 E0.1851
G1 X99.698 Y81.089 E0.1940
G1 X100.000 Y81.116 E0.2029
G1 X100.302 Y81.089 E0.2118
G1 X100.595 Y81.011 E0.2207
G1 X100.870 Y80.883 E0.2296
G1 X101.119 Y80.709 E0.2385
G1 X101.334 Y80.494 E0.2475
G1 X101.508 Y80.245 E0.2564
G1 X101.636 Y79.970 E0.2653
G1 X101.714 Y79.677 E0.2742
G1 X101.741 Y79.375 E0.2831
G1 X101.714 Y79.073 E0.2920
G1 X101.663 Y78.880 E0.2978
G1 X101.979 Y78.908 E0.3071
G1 X102.444 Y79.032 E0.3212
G1 X102.880 Y79.236 E0.3353
G1 X103.273 Y79.511 E0.3494
G1 X103.614 Y79.852 E0.3636
G1 X103.889 Y80.245 E0.3777
G1 X104.093 Y80.681 E0.3918
G1 X104.217 Y81.146 E0.4059
G1 X104.259 Y81.630 E0.4201
G1 X104.260 Y118.364 E1.4978
G1 X104.217 Y118.854 E1.5122
G1 X104.093 Y119.319 E1.5263
G1 X103.889 Y119.755 E1.5404
G1 X103.614 Y120.148 E1.5545
G1 X103.273 Y120.489 E1.5686
G1 X102.880 Y120.764 E1.5827
G1 X102.444 Y120.968 E1.5968
G1 X101.979 Y121.092 E1.6109
G1 X101.489 Y121.135 E1.6254
G1 X98.511 Y121.135 E1.7127
G1 X98.021 Y121.092 E1.7272
G1 X97.556 Y120.968 E1.7413
G1 X97.120 Y120.764 E1.7554
G1 X96.727 Y120.489 E1.7695
G1 X96.386 Y120.148 E1.7836
G1 X96.111 Y119.755 E1.7977
G1 X95.907 Y119.319 E1.8118
G1 X95.783 Y118.854 E1.8259
G1 X95.740 Y118.364 E1.8403
G1 X95.740 Y81.636 E2.9178
G1 X95.783 Y81.146 E2.9322
; inner perimeter
; outer perimeter
G1 X98.380 Y84.568 F6000
G92 E0
