; G-Code generated by Simplify3D(R) Version 4.0.0
; Dec 8, 2018 at 4:46:05 PM
; Settings Summary
;   processName,Sin Soporte
;   applyToModels,Trasversal,Trasversal(2),Trasversal(3),Trasversal(4)
;   profileName,Gusty (modified)
;   profileVersion,2017-03-01 08:00:00
;   baseProfile,Default (modified)
;   printMaterial,PLA
;   printQuality,Medium
;   printExtruders,
;   extruderName,Primary Extruder
;   extruderToolheadNumber,0
;   extruderDiameter,0.4
;   extruderAutoWidth,1
;   extruderWidth,0.48
;   extrusionMultiplier,0.98
;   extruderUseRetract,1
;   extruderRetractionDistance,1
;   extruderExtraRestartDistance,0
;   extruderRetractionZLift,0
;   extruderRetractionSpeed,1800
;   extruderUseCoasting,0
;   extruderCoastingDistance,0.2
;   extruderUseWipe,0
;   extruderWipeDistance,5
;   primaryExtruder,0
;   layerHeight,0.15
;   topSolidLayers,6
;   bottomSolidLayers,3
;   perimeterOutlines,2
;   printPerimetersInsideOut,1
;   startPointOption,2
;   startPointOriginX,0
;   startPointOriginY,0
;   sequentialIslands,0
;   spiralVaseMode,0
;   firstLayerHeightPercentage,90
;   firstLayerWidthPercentage,100
;   firstLayerUnderspeed,0.5
;   useRaft,0
;   raftExtruder,0
;   raftTopLayers,3
;   raftBaseLayers,2
;   raftOffset,3
;   raftSeparationDistance,0.14
;   raftTopInfill,100
;   aboveRaftSpeedMultiplier,0.3
;   useSkirt,1
;   skirtExtruder,0
;   skirtLayers,1
;   skirtOutlines,2
;   skirtOffset,4
;   usePrimePillar,0
;   primePillarExtruder,999
;   primePillarWidth,12
;   primePillarLocation,7
;   primePillarSpeedMultiplier,1
;   useOozeShield,0
;   oozeShieldExtruder,999
;   oozeShieldOffset,2
;   oozeShieldOutlines,1
;   oozeShieldSidewallShape,1
;   oozeShieldSidewallAngle,30
;   oozeShieldSpeedMultiplier,1
;   infillExtruder,0
;   internalInfillPattern,Rectilinear
;   externalInfillPattern,Rectilinear
;   infillPercentage,15
;   outlineOverlapPercentage,15
;   infillExtrusionWidthPercentage,100
;   minInfillLength,5
;   infillLayerInterval,1
;   internalInfillAngles,45,-45
;   overlapInternalInfillAngles,0
;   externalInfillAngles,45,-45
;   generateSupport,0
;   supportExtruder,0
;   supportInfillPercentage,30
;   supportExtraInflation,0
;   supportBaseLayers,0
;   denseSupportExtruder,0
;   denseSupportLayers,0
;   denseSupportInfillPercentage,70
;   supportLayerInterval,1
;   supportHorizontalPartOffset,0.3
;   supportUpperSeparationLayers,1
;   supportLowerSeparationLayers,1
;   supportType,0
;   supportGridSpacing,4
;   maxOverhangAngle,45
;   supportAngles,0
;   temperatureName,Primary Extruder,Cama
;   temperatureNumber,0,1
;   temperatureSetpointCount,1,1
;   temperatureSetpointLayers,1,1
;   temperatureSetpointTemperatures,190,60
;   temperatureStabilizeAtStartup,1,1
;   temperatureHeatedBed,0,1
;   temperatureRelayBetweenLayers,0,0
;   temperatureRelayBetweenLoops,1,1
;   fanLayers,1,2
;   fanSpeeds,0,100
;   blipFanToFullPower,0
;   adjustSpeedForCooling,1
;   minSpeedLayerTime,15
;   minCoolingSpeedSlowdown,20
;   increaseFanForCooling,0
;   minFanLayerTime,45
;   maxCoolingFanSpeed,100
;   increaseFanForBridging,0
;   bridgingFanSpeed,100
;   use5D,1
;   relativeEdistances,0
;   allowEaxisZeroing,1
;   independentExtruderAxes,0
;   includeM10123,0
;   stickySupport,1
;   applyToolheadOffsets,0
;   gcodeXoffset,0
;   gcodeYoffset,0
;   gcodeZoffset,0
;   overrideMachineDefinition,0
;   machineTypeOverride,0
;   strokeXoverride,200
;   strokeYoverride,200
;   strokeZoverride,200
;   originOffsetXoverride,0
;   originOffsetYoverride,0
;   originOffsetZoverride,0
;   homeXdirOverride,-1
;   homeYdirOverride,-1
;   homeZdirOverride,-1
;   flipXoverride,1
;   flipYoverride,-1
;   flipZoverride,1
;   toolheadOffsets,0,0|0,0|0,0|0,0|0,0|0,0
;   overrideFirmwareConfiguration,0
;   firmwareTypeOverride,RepRap (Marlin/Repetier/Sprinter)
;   GPXconfigOverride,r2
;   baudRateOverride,115200
;   overridePrinterModels,0
;   printerModelsOverride
;   startingGcode,G28 ; home all axes
;   layerChangeGcode,
;   retractionGcode,
;   toolChangeGcode,
;   endingGcode,G28 X; Home x,M104 S0 ; turn off extruder,M140 S0 ; turn off bed,M84 ; disable motors
;   exportFileFormat,gcode
;   celebration,0
;   celebrationSong,Random Song
;   postProcessing,
;   defaultSpeed,3600
;   outlineUnderspeed,0.5
;   solidInfillUnderspeed,0.8
;   supportUnderspeed,0.8
;   rapidXYspeed,4800
;   rapidZspeed,1000
;   minBridgingArea,50
;   bridgingExtraInflation,0
;   bridgingExtrusionMultiplier,1
;   bridgingSpeedMultiplier,1.1
;   useFixedBridgingAngle,0
;   fixedBridgingAngle,0
;   applyBridgingToPerimeters,0
;   filamentDiameters,1.75|1.75|1.75|1.75|1.75|1.75
;   filamentPricesPerKg,190|46|46|46|46|46
;   filamentDensities,1.25|1.25|1.25|1.25|1.25|1.25
;   useMinPrintHeight,0
;   minPrintHeight,0
;   useMaxPrintHeight,0
;   maxPrintHeight,0
;   useDiaphragm,0
;   diaphragmLayerInterval,20
;   robustSlicing,1
;   mergeAllIntoSolid,0
;   onlyRetractWhenCrossingOutline,1
;   retractBetweenLayers,1
;   useRetractionMinTravel,0
;   retractionMinTravel,3
;   retractWhileWiping,0
;   onlyWipeOutlines,1
;   avoidCrossingOutline,0
;   maxMovementDetourFactor,3
;   toolChangeRetractionDistance,12
;   toolChangeExtraRestartDistance,-0.5
;   toolChangeRetractionSpeed,600
;   externalThinWallType,0
;   internalThinWallType,2
;   thinWallAllowedOverlapPercentage,10
;   singleExtrusionMinLength,1
;   singleExtrusionMinPrintingWidthPercentage,50
;   singleExtrusionMaxPrintingWidthPercentage,200
;   singleExtrusionEndpointExtension,0.2
;   horizontalSizeCompensation,0
G90
M82
M106 S0
M140 S60
M190 S60
M104 S190 T0
M109 S190 T0
G28 ; home all axes
G92 E0
G1 E-1.0000 F1800
G1 Z0.135 F1000
; process Sin Soporte
; layer 1, Z = 0.135
T0
; tool H0.150 W0.480
; skirt
G1 X76.890 Y77.537 F4800
G1 E0.0000 F540
G92 E0
G1 X79.435 Y74.991 E0.1056 F1800
G1 X79.700 Y74.882 E0.1140
G1 X87.300 Y74.882 E0.3370
G1 X87.565 Y74.991 E0.3454
G1 X89.000 Y76.427 E0.4049
G1 X90.435 Y74.991 E0.4645
G1 X90.700 Y74.882 E0.4729
G1 X98.300 Y74.882 E0.6958
G1 X98.565 Y74.991 E0.7042
G1 X100.000 Y76.427 E0.7638
G1 X101.435 Y74.991 E0.8233
G1 X101.700 Y74.882 E0.8317
G1 X109.300 Y74.882 E1.0547
G1 X109.565 Y74.991 E1.0631
G1 X111.000 Y76.427 E1.1226
G1 X112.435 Y74.991 E1.1822
G1 X112.700 Y74.882 E1.1906
G1 X120.300 Y74.882 E1.4135
G1 X120.565 Y74.991 E1.4219
G1 X123.110 Y77.537 E1.5275
G1 X123.220 Y77.802 E1.5359
G1 X123.220 Y85.447 E1.7602
G1 X124.110 Y86.337 E1.7972
G1 X124.220 Y86.602 E1.8056
G1 X124.220 Y121.793 E2.8379
G1 X124.110 Y122.057 E2.8463
G1 X121.565 Y124.603 E2.9519
G1 X121.300 Y124.712 E2.9603
G1 X111.700 Y124.712 E3.2419
G1 X111.435 Y124.603 E3.2503
G1 X111.000 Y124.168 E3.2684
G1 X110.565 Y124.603 E3.2864
G1 X110.300 Y124.712 E3.2949
G1 X100.700 Y124.712 E3.5765
G1 X100.435 Y124.603 E3.5849
G1 X100.000 Y124.168 E3.6029
G1 X99.565 Y124.603 E3.6210
G1 X99.300 Y124.712 E3.6294
G1 X89.700 Y124.712 E3.9110
G1 X89.435 Y124.603 E3.9194
G1 X89.000 Y124.168 E3.9375
G1 X88.565 Y124.603 E3.9555
G1 X88.300 Y124.712 E3.9639
G1 X78.700 Y124.712 E4.2456
G1 X78.435 Y124.603 E4.2540
G1 X75.890 Y122.057 E4.3596
G1 X75.780 Y121.793 E4.3680
G1 X75.780 Y86.602 E5.4003
G1 X75.890 Y86.337 E5.4087
G1 X76.780 Y85.447 E5.4457
G1 X76.780 Y77.802 E5.6699
G1 X76.890 Y77.537 E5.6783
G1 X77.297 Y77.809 F4800
G92 E0
G1 X79.707 Y75.398 E0.1000 F1800
G1 X79.795 Y75.362 E0.1028
G1 X87.205 Y75.362 E0.3202
G1 X87.293 Y75.398 E0.3230
G1 X89.000 Y77.105 E0.3938
G1 X90.707 Y75.398 E0.4646
G1 X90.795 Y75.362 E0.4674
G1 X98.205 Y75.362 E0.6848
G1 X98.293 Y75.398 E0.6876
G1 X100.000 Y77.105 E0.7584
G1 X101.707 Y75.398 E0.8292
G1 X101.795 Y75.362 E0.8320
G1 X109.205 Y75.362 E1.0494
G1 X109.293 Y75.398 E1.0522
G1 X111.000 Y77.105 E1.1230
G1 X112.707 Y75.398 E1.1938
G1 X112.795 Y75.362 E1.1966
G1 X120.205 Y75.362 E1.4140
G1 X120.293 Y75.398 E1.4168
G1 X122.703 Y77.809 E1.5168
G1 X122.740 Y77.897 E1.5196
G1 X122.740 Y85.646 E1.7469
G1 X123.703 Y86.609 E1.7869
G1 X123.740 Y86.697 E1.7897
G1 X123.740 Y121.697 E2.8164
G1 X123.703 Y121.785 E2.8192
G1 X121.293 Y124.196 E2.9192
G1 X121.205 Y124.232 E2.9220
G1 X111.795 Y124.232 E3.1980
G1 X111.707 Y124.196 E3.2008
G1 X111.000 Y123.489 E3.2302
G1 X110.293 Y124.196 E3.2595
G1 X110.205 Y124.232 E3.2623
G1 X100.795 Y124.232 E3.5383
G1 X100.707 Y124.196 E3.5411
G1 X100.000 Y123.489 E3.5705
G1 X99.293 Y124.196 E3.5998
G1 X99.205 Y124.232 E3.6026
G1 X89.795 Y124.232 E3.8786
G1 X89.707 Y124.196 E3.8814
G1 X89.000 Y123.489 E3.9108
G1 X88.293 Y124.196 E3.9401
G1 X88.205 Y124.232 E3.9429
G1 X78.795 Y124.232 E4.2189
G1 X78.707 Y124.196 E4.2217
G1 X76.297 Y121.785 E4.3218
G1 X76.260 Y121.697 E4.3246
G1 X76.260 Y86.697 E5.3513
G1 X76.297 Y86.609 E5.3541
G1 X77.260 Y85.646 E5.3941
G1 X77.260 Y77.897 E5.6214
G1 X77.297 Y77.809 E5.6242
G92 E0
G1 E-1.0000 F1800
; inner perimeter
G1 X82.220 Y80.322 F4800
G1 E0.0000 F1800
G92 E0
G1 X84.780 Y80.322 E0.0751 F1350
G1 X84.780 Y89.122 E0.3333
G1 X85.780 Y89.122 E0.3626
G1 X85.780 Y119.272 E1.2471
G1 X85.220 Y119.272 E1.2635
G1 X85.220 Y109.932 E1.5375
G1 X81.780 Y109.932 E1.6384
G1 X81.780 Y119.272 E1.9124
G1 X81.220 Y119.272 E1.9288
G1 X81.220 Y89.122 E2.8133
G1 X82.220 Y89.122 E2.8427
G1 X82.220 Y80.322 E3.1008
; outer perimeter
G1 X81.740 Y79.842 F4800
G92 E0
G1 X85.260 Y79.842 E0.1033 F900
G1 X85.260 Y88.642 E0.3614
G1 X86.260 Y88.642 E0.3908
G1 X86.260 Y119.752 E1.3034
G1 X84.740 Y119.752 E1.3480
G1 X84.740 Y110.412 E1.6220
G1 X82.260 Y110.412 E1.6947
G1 X82.260 Y119.752 E1.9687
G1 X80.740 Y119.752 E2.0133
G1 X80.740 Y88.642 E2.9260
G1 X81.740 Y88.642 E2.9553
G1 X81.740 Y79.842 E3.2135
; solid layer
G1 X84.124 Y80.730 F4800
G92 E0
G1 X84.372 Y80.978 E0.0103 F1440
G1 X84.372 Y81.657 E0.0302
G1 X83.445 Y80.730 E0.0687
G1 X82.766 Y80.730 E0.0886
G1 X84.372 Y82.336 E0.1552
G1 X84.372 Y83.014 E0.1751
G1 X82.628 Y81.270 E0.2475
G1 X82.628 Y81.949 E0.2674
G1 X84.372 Y83.693 E0.3397
G1 X84.372 Y84.372 E0.3596
G1 X82.628 Y82.628 E0.4320
G1 X82.628 Y83.307 E0.4519
G1 X84.372 Y85.051 E0.5243
G1 X84.372 Y85.730 E0.5442
G1 X82.628 Y83.986 E0.6165
G1 X82.628 Y84.664 E0.6364
G1 X84.372 Y86.408 E0.7088
G1 X84.372 Y87.087 E0.7287
G1 X82.628 Y85.343 E0.8011
G1 X82.628 Y86.022 E0.8210
G1 X84.372 Y87.766 E0.8933
G1 X84.372 Y88.445 E0.9132
G1 X82.628 Y86.701 E0.9856
G1 X82.628 Y87.380 E1.0055
G1 X84.372 Y89.124 E1.0779
G1 X84.372 Y89.530 E1.0898
G1 X84.778 Y89.530 E1.1017
G1 X85.372 Y90.124 E1.1263
G1 X85.372 Y90.803 E1.1462
G1 X82.628 Y88.059 E1.2601
G1 X82.628 Y88.737 E1.2800
G1 X85.372 Y91.481 E1.3938
G1 X85.372 Y92.160 E1.4138
G1 X82.628 Y89.416 E1.5276
G1 X82.628 Y89.530 E1.5309
G1 X82.063 Y89.530 E1.5475
G1 X85.372 Y92.839 E1.6848
G1 X85.372 Y93.518 E1.7047
G1 X81.628 Y89.774 E1.8600
G1 X81.628 Y90.453 E1.8799
G1 X85.372 Y94.197 E2.0353
G1 X85.372 Y94.875 E2.0552
G1 X81.628 Y91.131 E2.2105
G1 X81.628 Y91.810 E2.2304
G1 X85.372 Y95.554 E2.3857
G1 X85.372 Y96.233 E2.4057
G1 X81.628 Y92.489 E2.5610
G1 X81.628 Y93.168 E2.5809
G1 X85.372 Y96.912 E2.7362
G1 X85.372 Y97.591 E2.7561
G1 X81.628 Y93.847 E2.9115
G1 X81.628 Y94.526 E2.9314
G1 X85.372 Y98.270 E3.0867
G1 X85.372 Y98.948 E3.1066
G1 X81.628 Y95.204 E3.2619
G1 X81.628 Y95.883 E3.2818
G1 X85.372 Y99.627 E3.4372
G1 X85.372 Y100.306 E3.4571
G1 X81.628 Y96.562 E3.6124
G1 X81.628 Y97.241 E3.6323
G1 X85.372 Y100.985 E3.7877
G1 X85.372 Y101.664 E3.8076
G1 X81.628 Y97.920 E3.9629
G1 X81.628 Y98.599 E3.9828
G1 X85.372 Y102.343 E4.1381
G1 X85.372 Y103.021 E4.1580
G1 X81.628 Y99.277 E4.3134
G1 X81.628 Y99.956 E4.3333
G1 X85.372 Y103.700 E4.4886
G1 X85.372 Y104.379 E4.5085
G1 X81.628 Y100.635 E4.6638
G1 X81.628 Y101.314 E4.6838
G1 X85.372 Y105.058 E4.8391
G1 X85.372 Y105.737 E4.8590
G1 X81.628 Y101.993 E5.0143
G1 X81.628 Y102.671 E5.0342
G1 X85.372 Y106.415 E5.1896
G1 X85.372 Y107.094 E5.2095
G1 X81.628 Y103.350 E5.3648
G1 X81.628 Y104.029 E5.3847
G1 X85.372 Y107.773 E5.5400
G1 X85.372 Y108.452 E5.5600
G1 X81.628 Y104.708 E5.7153
G1 X81.628 Y105.387 E5.7352
G1 X85.372 Y109.131 E5.8905
G1 X85.372 Y109.524 E5.9021
G1 X85.087 Y109.524 E5.9104
G1 X81.628 Y106.066 E6.0539
G1 X81.628 Y106.744 E6.0738
G1 X84.408 Y109.524 E6.1892
G1 X83.729 Y109.524 E6.2091
G1 X81.628 Y107.423 E6.2962
G1 X81.628 Y108.102 E6.3161
G1 X83.050 Y109.524 E6.3751
G1 X82.371 Y109.524 E6.3951
G1 X81.628 Y108.781 E6.4259
G1 X81.628 Y109.460 E6.4458
G1 X81.692 Y109.524 E6.4485
G92 E0
G1 E-1.0000 F1800
; inner perimeter
G1 X92.780 Y109.932 F4800
G1 E0.0000 F1800
G92 E0
G1 X92.780 Y119.272 E0.2740 F1350
G1 X92.220 Y119.272 E0.2904
G1 X92.220 Y89.122 E1.1749
G1 X93.220 Y89.122 E1.2042
G1 X93.220 Y80.322 E1.4624
G1 X95.780 Y80.322 E1.5375
G1 X95.780 Y89.122 E1.7957
G1 X96.780 Y89.122 E1.8250
G1 X96.780 Y119.272 E2.7095
G1 X96.220 Y119.272 E2.7259
G1 X96.220 Y109.932 E2.9999
G1 X92.780 Y109.932 E3.1008
; outer perimeter
G1 X93.260 Y110.412 F4800
G92 E0
G1 X93.260 Y119.752 E0.2740 F900
G1 X91.740 Y119.752 E0.3186
G1 X91.740 Y88.642 E1.2312
G1 X92.740 Y88.642 E1.2606
G1 X92.740 Y79.842 E1.5187
G1 X96.260 Y79.842 E1.6220
G1 X96.260 Y88.642 E1.8801
G1 X97.260 Y88.642 E1.9095
G1 X97.260 Y119.752 E2.8221
G1 X95.740 Y119.752 E2.8667
G1 X95.740 Y110.412 E3.1407
G1 X93.260 Y110.412 E3.2135
; solid layer
G1 X92.628 Y108.920 F4800
G92 E0
G1 X93.232 Y109.524 E0.0251 F1440
G1 X93.911 Y109.524 E0.0450
G1 X92.628 Y108.241 E0.0982
G1 X92.628 Y107.562 E0.1181
G1 X94.590 Y109.524 E0.1995
G1 X95.269 Y109.524 E0.2195
G1 X92.628 Y106.883 E0.3290
G1 X92.628 Y106.204 E0.3489
G1 X95.948 Y109.524 E0.4867
G1 X96.372 Y109.524 E0.4991
G1 X96.372 Y109.270 E0.5066
G1 X92.628 Y105.526 E0.6619
G1 X92.628 Y104.847 E0.6818
G1 X96.372 Y108.591 E0.8371
G1 X96.372 Y107.912 E0.8570
G1 X92.628 Y104.168 E1.0124
G1 X92.628 Y103.489 E1.0323
G1 X96.372 Y107.233 E1.1876
G1 X96.372 Y106.554 E1.2075
G1 X92.628 Y102.810 E1.3629
G1 X92.628 Y102.131 E1.3828
G1 X96.372 Y105.875 E1.5381
G1 X96.372 Y105.197 E1.5580
G1 X92.628 Y101.453 E1.7133
G1 X92.628 Y100.774 E1.7332
G1 X96.372 Y104.518 E1.8886
G1 X96.372 Y103.839 E1.9085
G1 X92.628 Y100.095 E2.0638
G1 X92.628 Y99.416 E2.0837
G1 X96.372 Y103.160 E2.2390
G1 X96.372 Y102.481 E2.2590
G1 X92.628 Y98.737 E2.4143
G1 X92.628 Y98.059 E2.4342
G1 X96.372 Y101.803 E2.5895
G1 X96.372 Y101.124 E2.6094
G1 X92.628 Y97.380 E2.7648
G1 X92.628 Y96.701 E2.7847
G1 X96.372 Y100.445 E2.9400
G1 X96.372 Y99.766 E2.9599
G1 X92.628 Y96.022 E3.1152
G1 X92.628 Y95.343 E3.1352
G1 X96.372 Y99.087 E3.2905
G1 X96.372 Y98.408 E3.3104
G1 X92.628 Y94.664 E3.4657
G1 X92.628 Y93.986 E3.4856
G1 X96.372 Y97.730 E3.6410
G1 X96.372 Y97.051 E3.6609
G1 X92.628 Y93.307 E3.8162
G1 X92.628 Y92.628 E3.8361
G1 X96.372 Y96.372 E3.9914
G1 X96.372 Y95.693 E4.0114
G1 X92.628 Y91.949 E4.1667
G1 X92.628 Y91.270 E4.1866
G1 X96.372 Y95.014 E4.3419
G1 X96.372 Y94.336 E4.3618
G1 X92.628 Y90.592 E4.5172
G1 X92.628 Y89.913 E4.5371
G1 X96.372 Y93.657 E4.6924
G1 X96.372 Y92.978 E4.7123
G1 X92.924 Y89.530 E4.8553
G1 X93.603 Y89.530 E4.8753
G1 X96.372 Y92.299 E4.9901
G1 X96.372 Y91.620 E5.0101
G1 X93.628 Y88.876 E5.1239
G1 X93.628 Y88.197 E5.1438
G1 X96.372 Y90.941 E5.2576
G1 X96.372 Y90.263 E5.2776
G1 X95.639 Y89.530 E5.3079
G1 X95.372 Y89.530 E5.3158
G1 X95.372 Y89.263 E5.3236
G1 X93.628 Y87.519 E5.3960
G1 X93.628 Y86.840 E5.4159
G1 X95.372 Y88.584 E5.4883
G1 X95.372 Y87.905 E5.5082
G1 X93.628 Y86.161 E5.5805
G1 X93.628 Y85.482 E5.6004
G1 X95.372 Y87.226 E5.6728
G1 X95.372 Y86.547 E5.6927
G1 X93.628 Y84.803 E5.7651
G1 X93.628 Y84.124 E5.7850
G1 X95.372 Y85.868 E5.8573
G1 X95.372 Y85.190 E5.8772
G1 X93.628 Y83.446 E5.9496
G1 X93.628 Y82.767 E5.9695
G1 X95.372 Y84.511 E6.0419
G1 X95.372 Y83.832 E6.0618
G1 X93.628 Y82.088 E6.1341
G1 X93.628 Y81.409 E6.1540
G1 X95.372 Y83.153 E6.2264
G1 X95.372 Y82.474 E6.2463
G1 X93.628 Y80.730 E6.3187
G1 X94.306 Y80.730 E6.3385
G1 X95.372 Y81.796 E6.3828
G1 X95.372 Y81.117 E6.4027
G1 X94.985 Y80.730 E6.4187
G1 X96.318 Y89.530 F4800
G92 E0
G1 X96.372 Y89.584 E0.0022 F1440
G92 E0
G1 E-1.0000 F1800
; inner perimeter
G1 X103.220 Y89.122 F4800
G1 E0.0000 F1800
G92 E0
G1 X104.220 Y89.122 E0.0293 F1350
G1 X104.220 Y80.322 E0.2875
G1 X106.780 Y80.322 E0.3626
